Apple Log to wyCol AgX BT.1886 2.4.cube
TITLE "wyCol AgX V1"
LUT_3D_SIZE 9
0 0 0
0.00596628 0 0.00170901
0.0110628 0 0.00318914
0.0175174 0 0.00508125
0.0245518 0 0.00717174
0.035584 0 0.0104982
0.0517128 0 0.0154269
0.0910201 0 0.0277714
0.356222 0 0.108888
0 0 0
0.0160067 0 0
0.0462501 0 0.0137484
0.0732738 0 0.0221561
0.0937057 0 0.0286107
0.0458228 0 0.0136263
0.0431983 0 0.0128176
0.0768597 0 0.0232853
0.310597 0 0.0958877
0 0.0146181 0
0.0138705 0.0370642 0
0.0475929 0.0304723 0
0.105226 0 0.0257877
0.186465 0 0.0581369
0.198108 0 0.0617838
0.0395361 0 0.0116884
0.0715953 0 0.0216373
0.291432 0 0.0902419
0 0.0515145 0
0 0.0607309 0
0 0.0675212 0
0.106722 0.0859846 0
0.243977 0 0.0173342
0.446616 0 0.109651
0.297566 0 0.0920577
0.0620127 0 0.0186313
0.253208 0 0.0787671
0 0.0981765 0
0 0.102586 0
0 0.115023 0
0 0.162753 0
0.211002 0.216358 0
0.440574 0 0
0.708965 0 0
0.43032 0 0.127962
0.163165 0 0.0507973
0 0.231205 0
0 0.222065 0
0 0.216846 0
0 0.246571 0
0 0.35967 0
0.411444 0.426078 0
0.677333 0.335912 0
0.884978 0.379904 0
0.624292 0 0.14342
0 0.54818 0.210803
0 0.532845 0.176226
0 0.524483 0.157488
0 0.503578 0.0951095
0 0.512413 0
0.227008 0.672129 0.219455
0.669429 0.708324 0.298543
0.864118 0.689174 0
0.963989 0.775097 0
0 0.646586 0.540017
0 0.711666 0.555718
0 0.731167 0.556008
0 0.758144 0.546563
0 0.772381 0.479988
0.191653 0.802945 0.442267
0.573449 0.870848 0.589639
0.835447 0.875364 0.64744
0.94197 0.882567 0.553857
0.591669 0.836683 0.95021
0.543679 0.815366 0.93698
0.521782 0.8056 0.930236
0.474693 0.784741 0.914046
0.341039 0.730709 0.853315
0.523369 0.863752 0.781582
0.619318 0.93254 0.713664
0.782574 0.948501 0.793759
0.920119 0.945586 0.826856
0.00332647 0 0.010956
0.0196231 0 0.00569161
0.0243534 0 0.00708019
0.029984 0 0.00877394
0.0363012 0 0.0107118
0.0429084 0 0.012726
0.0600748 0 0.0180362
0.10808 0 0.0332036
0.401907 0 0.12105
0 0.0271305 0.049897
0.0430304 0.0401923 0.0407568
0.0715038 0 0.0351415
0.107973 0 0.0363622
0.16701 0 0.0524147
0.152483 0 0.0472725
0.051194 0 0.0152743
0.0900435 0 0.027451
0.353277 0 0.108064
0 0.0614939 0.0398413
0 0.0568246 0
0.0767987 0.0700847 0
0.148074 0 0.0312352
0.237507 0 0.0687877
0.294545 0 0.0906386
0.0516365 0 0.0154116
0.0834058 0 0.0253605
0.332692 0 0.102266
0 0.0904707 0
0 0.0823835 0
0 0.0964981 0
0.147173 0.133516 0
0.29398 0 0
0.47744 0 0.0817731
0.420417 0 0.123949
0.0715801 0 0.021622
0.291402 0 0.0902419
0 0.172168 0
0 0.158129 0
0 0.15407 0
0 0.222965 0
0.272374 0.277394 0
0.519219 0.100816 0
0.74667 0 0
0.555383 0 0.143496
0.193332 0 0.0602884
0 0.345708 0.079469
0 0.325567 0
0 0.314565 0
0 0.311086 0
0 0.432334 0
0.487495 0.496086 0
0.742123 0.421714 0
0.912154 0.486122 0
0.716533 0 0.10547
0 0.581704 0.307149
0 0.576394 0.273091
0 0.571298 0.257282
0 0.55494 0.218097
0 0.57734 0.161288
0.275319 0.701823 0.306172
0.700374 0.734936 0.376822
0.882521 0.723003 0.125429
0.969985 0.818357 0
0 0.661906 0.587243
0 0.719341 0.595941
0 0.736965 0.593866
0.115114 0.762158 0.580697
0 0.778744 0.509071
0.258427 0.818738 0.474052
0.585229 0.875242 0.603204
0.841184 0.879255 0.659907
0.944961 0.887556 0.571328
0.602914 0.841642 0.952926
0.555444 0.82063 0.940261
0.533745 0.810971 0.933806
0.487007 0.790219 0.918303
0.354192 0.735592 0.8598
0.532631 0.864958 0.790188
0.627878 0.93434 0.720455
0.784909 0.94905 0.796368
0.921202 0.946166 0.829145
0.00842298 0 0.0269169
0.0364233 0 0.0144198
0.0441749 0 0.0142977
0.0514229 0 0.0158999
0.0579995 0 0.0175631
0.0652781 0 0.0195926
0.0639353 0 0.0192264
0.117189 0 0.0361181
0.423026 0 0.126253
0 0 0.0838483
0.0504311 0.0491951 0.0538491
0.101442 0 0.058381
0.164782 0 0.0603952
0.249378 0 0.0793927
0.273869 0 0.0847486
0.0750134 0 0.0226291
0.0970016 0 0.0296635
0.37319 0 0.113527
0 0.0571298 0.0968795
0 0.090425 0.109422
0.0979019 0.100359 0.100832
0.181033 0 0.0846723
0.297002 0 0.0910658
0.410224 0 0.120943
0.106935 0 0.0327764
0.0896162 0 0.0273136
0.35198 0 0.107713
0 0.125139 0.107347
0 0.131762 0.0784924
0 0.145739 0.0537881
0.17409 0.1785 0.0436561
0.333211 0 0.0315862
0.522896 0 0.0679637
0.564401 0 0.137774
0.0764935 0 0.0231785
0.309361 0 0.0955215
0 0.222324 0.110246
0 0.206439 0.0440375
0 0.214069 0
0 0.255589 0
0.306325 0.314137 0
0.56112 0.165148 0
0.773465 0 0
0.705104 0 0.0975357
0.207599 0 0.0647288
0 0.375952 0.162081
0 0.359548 0.119112
0 0.349432 0.0863966
0 0.364752 0
0 0.458732 0
0.514794 0.522591 0.00210575
0.766766 0.458106 0
0.922728 0.530007 0
0.808316 0 0
0 0.590875 0.342611
0 0.588144 0.307073
0 0.584115 0.290593
0 0.569619 0.249027
0 0.603708 0.210529
0.291127 0.711437 0.329519
0.709804 0.743175 0.398352
0.888197 0.734066 0.192035
0.972396 0.834012 0
0 0.667781 0.605859
0 0.722377 0.612024
0.0276951 0.739269 0.609125
0.146609 0.763714 0.594598
0.0851606 0.781048 0.520958
0.280522 0.824628 0.486641
0.589899 0.876921 0.608682
0.843412 0.88072 0.664897
0.94609 0.889357 0.57821
0.607599 0.843702 0.95404
0.560372 0.822828 0.941604
0.538766 0.813214 0.935271
0.49218 0.792523 0.920043
0.359701 0.737682 0.862486
0.536583 0.865492 0.79379
0.631495 0.935088 0.723339
0.785901 0.949279 0.797482
0.92166 0.94641 0.830121
0.0168917 0 0.0519722
0.0479896 0 0.0355688
0.0656443 0 0.0298466
0.1196 0 0.0415961
0.132372 0 0.0429847
0.118608 0 0.0371405
0.13521 0 0.0417792
0.135912 0 0.0421149
0.468956 0 0.136141
0 0 0.156954
0.0385901 0 0.141146
0.115755 0 0.122423
0.260044 0 0.1019
0.386389 0 0.117754
0.479835 0 0.132052
0.147601 0 0.0460822
0.110353 0 0.0339208
0.416938 0 0.124788
0 0 0.199466
0 0.0980087 0.19408
0.0957351 0.112474 0.181338
0.256703 0 0.143267
0.408713 0 0.126772
0.578195 0 0.131762
0.376242 0 0.112917
0.123522 0 0.0381476
0.394568 0 0.119173
0 0.145174 0.265446
0 0.194507 0.25655
0.0169833 0.211383 0.245151
0.215442 0.224109 0.225772
0.380377 0.0748608 0.188006
0.601892 0 0.139055
0.746166 0 0
0.15317 0 0.0475166
0.349248 0 0.106935
0 0.260914 0.241642
0 0.282933 0.206226
0 0.300206 0.195071
0 0.32047 0.16817
0.353918 0.36556 0.175021
0.610269 0.232273 0.104829
0.806546 0.0867628 0
0.873289 0 0
0.239246 0 0.0744945
0 0.411643 0.267445
0 0.401495 0.218189
0 0.402518 0.197253
0 0.443229 0.177096
0 0.496635 0.172961
0.551446 0.55874 0.210498
0.795178 0.504128 0
0.935973 0.587167 0
0.949752 0.413626 0
0 0.605142 0.408545
0 0.606012 0.369863
0 0.603647 0.351904
0 0.592386 0.305119
0 0.646174 0.278676
0.317876 0.72726 0.366537
0.725216 0.756466 0.434455
0.896727 0.75111 0.265553
0.975357 0.853803 0
0 0.678889 0.641184
0.0877546 0.728267 0.642908
0.147112 0.743786 0.638544
0.192798 0.766705 0.621683
0.14995 0.785138 0.54432
0.31899 0.835309 0.510781
0.59881 0.879988 0.619333
0.847623 0.883436 0.674571
0.948165 0.892546 0.591455
0.616968 0.847822 0.956222
0.57026 0.827237 0.944244
0.548836 0.817716 0.93814
0.502571 0.797162 0.923461
0.370779 0.741955 0.867765
0.544594 0.86659 0.801038
0.638743 0.936553 0.729137
0.78793 0.949737 0.799771
0.922576 0.946914 0.83212
0.0284886 0 0.119051
0.076524 0 0.119951
0.130632 0 0.101564
0.252415 0 0.101183
0.441032 0 0.129519
0.45156 0 0.12874
0.24741 0 0.0769818
0.238926 0 0.074403
0.511421 0 0.142473
0 0 0.308553
0 0 0.299138
0.11519 0.0568704 0.282933
0.270771 0 0.243702
0.54905 0 0.185122
0.727459 0 0.09337
0.614343 0 0.132509
0.270268 0 0.0836194
0.454047 0 0.133196
0 0 0.35816
0 0.113985 0.345632
0.106767 0.138384 0.329992
0.247211 0.114427 0.29752
0.535897 0 0.226246
0.742718 0 0.119661
0.787594 0 0
0.279728 0 0.0863508
0.42916 0 0.127703
0 0.151125 0.428763
0 0.217838 0.411658
0.0415351 0.237995 0.396155
0.213931 0.252705 0.370382
0.50071 0.083238 0.297627
0.724163 0 0.21529
0.88539 0.131502 0
0.289433 0 0.0891585
0.378439 0 0.114931
0 0.313298 0.523049
0 0.374472 0.503212
0 0.39556 0.487846
0.173449 0.418769 0.463447
0.42034 0.430884 0.432837
0.657206 0.298756 0.362661
0.856031 0.304967 0.172213
0.962524 0.533547 0
0.255421 0 0.0794385
0 0.456519 0.476585
0 0.483909 0.429328
0 0.511406 0.418402
0 0.551522 0.391608
0.158114 0.573495 0.360906
0.604364 0.607965 0.392798
0.824109 0.555093 0.286809
0.946151 0.633814 0
0.989548 0.773266 0
0 0.628748 0.546609
0 0.633448 0.50248
0 0.633371 0.481804
0 0.629313 0.423789
0 0.71397 0.410468
0.369284 0.753399 0.443397
0.752178 0.777737 0.509773
0.909667 0.774807 0.38677
0.979217 0.87277 0
0.148272 0.70425 0.71664
0.235477 0.742489 0.710521
0.254429 0.754833 0.703731
0.27332 0.773846 0.683009
0.234485 0.792935 0.598779
0.393713 0.856321 0.56492
0.618723 0.886229 0.64416
0.856718 0.88896 0.696941
0.952468 0.89839 0.621576
0.639597 0.857679 0.961273
0.594263 0.837873 0.950347
0.573312 0.828626 0.944778
0.527932 0.808499 0.93138
0.397803 0.752758 0.880156
0.564645 0.869551 0.818647
0.65658 0.940017 0.743557
0.792981 0.95082 0.80557
0.92488 0.948119 0.837186
0 0 0.506157
0.114672 0 0.477333
0.167437 0 0.462531
0.300801 0 0.432013
0.56994 0 0.354971
0.858717 0 0
0.901427 0 0
0.433066 0 0.126268
0.466239 0 0.135637
0 0.145876 0.581811
0.0454566 0.207126 0.553613
0.151247 0.216419 0.540124
0.246159 0.221805 0.517082
0.526879 0 0.451698
0.84358 0.149752 0.277592
0.949905 0.480873 0
0.425437 0 0.124117
0.409766 0 0.123018
0 0.209186 0.604456
0 0.256458 0.576516
0.140948 0.264546 0.563424
0.245136 0.269627 0.541543
0.508827 0.150912 0.483284
0.834363 0.181781 0.323552
0.948684 0.494072 0
0.475547 0 0.131899
0.385595 0 0.116838
0 0.295186 0.640803
0 0.334249 0.613153
0.116213 0.342 0.600443
0.241947 0.347402 0.580468
0.473136 0.296223 0.534707
0.814389 0.242618 0.395026
0.941909 0.491371 0
0.942351 0.37641 0
0.336904 0 0.103456
0 0.430213 0.701595
0 0.466529 0.674739
0.0568856 0.476127 0.661326
0.236942 0.484108 0.643061
0.423926 0.484138 0.611124
0.762737 0.390097 0.51429
0.916335 0.484565 0.364019
0.985733 0.740032 0
0.433707 0 0.128389
0 0.581567 0.769863
0 0.623392 0.748074
0.15639 0.636439 0.734829
0.275441 0.653101 0.712993
0.434195 0.662531 0.688685
0.666667 0.658396 0.659922
0.845853 0.586923 0.590463
0.961929 0.681575 0.410681
0.994125 0.913314 0
0.100313 0.674952 0.746319
0 0.673961 0.704494
0 0.675349 0.685054
0.140551 0.72903 0.664698
0.341787 0.780728 0.628641
0.491295 0.790311 0.60679
0.788525 0.799374 0.645441
0.922881 0.78764 0.572412
0.98439 0.866789 0.413596
0.371771 0.757671 0.830854
0.394598 0.776364 0.817929
0.398627 0.782422 0.809522
0.397513 0.792065 0.787015
0.347784 0.804547 0.699794
0.511559 0.884153 0.664363
0.655314 0.895018 0.694377
0.872404 0.89688 0.741695
0.959335 0.90425 0.680781
0.684413 0.876921 0.970489
0.642283 0.858885 0.961456
0.62266 0.85037 0.956878
0.579553 0.831495 0.945815
0.453361 0.776211 0.903105
0.608255 0.877104 0.85391
0.694194 0.946502 0.774838
0.804166 0.952972 0.818952
0.929854 0.950545 0.848814
0.141054 0.488167 0.781643
0.252003 0.482322 0.766735
0.284627 0.479271 0.761425
0.342748 0.472282 0.751247
0.501137 0.428641 0.728176
0.807935 0.346136 0.645441
0.972122 0.640085 0.403418
0.995026 0.868605 0
0.60473 0 0.143557
0.164645 0.528832 0.794751
0.263874 0.524453 0.780331
0.294865 0.521965 0.775341
0.350637 0.516136 0.765942
0.478935 0.492271 0.744518
0.788495 0.394629 0.675883
0.966796 0.627665 0.469703
0.995544 0.857389 0
0.635935 0 0.136965
0.175402 0.544289 0.799695
0.269642 0.540505 0.785397
0.299825 0.538247 0.780514
0.354376 0.532891 0.771389
0.47071 0.516091 0.750118
0.780209 0.415366 0.687129
0.964309 0.623453 0.49305
0.99559 0.851041 0
0.644465 0 0.133791
0.197681 0.572931 0.80882
0.282368 0.570306 0.794644
0.310765 0.56846 0.789914
0.362585 0.563943 0.781292
0.475517 0.54931 0.761471
0.763485 0.456931 0.707362
0.958846 0.617029 0.53431
0.995377 0.837476 0.152804
0.651804 0 0.128893
0.252491 0.632044 0.828077
0.318151 0.632166 0.813458
0.341955 0.631235 0.808957
0.386297 0.628519 0.801144
0.489021 0.618311 0.7841
0.723232 0.554467 0.746166
0.942992 0.613993 0.613703
0.993179 0.804959 0.406332
0.979065 0.624063 0
0.351812 0.720806 0.862181
0.401892 0.727199 0.844114
0.418006 0.727962 0.839216
0.448859 0.728099 0.831632
0.525521 0.724529 0.817594
0.671107 0.710246 0.794339
0.899504 0.664332 0.723384
0.980011 0.75874 0.612009
0.999176 0.943542 0.347784
0.489677 0.795438 0.904189
0.513588 0.812161 0.891936
0.528191 0.817838 0.88452
0.55462 0.826764 0.86952
0.598856 0.832212 0.854063
0.693568 0.829847 0.838453
0.826932 0.822003 0.822919
0.931701 0.787488 0.779385
0.992538 0.858961 0.676722
0.590509 0.840848 0.926635
0.57995 0.839185 0.914229
0.572747 0.837797 0.90721
0.553491 0.834211 0.889158
0.563699 0.860685 0.837797
0.657771 0.903822 0.803922
0.731487 0.904097 0.793301
0.89308 0.90341 0.818082
0.966949 0.900999 0.779202
0.743496 0.901686 0.981338
0.706813 0.886397 0.974395
0.689433 0.879072 0.970901
0.650721 0.862577 0.962524
0.532921 0.811261 0.930129
0.677989 0.893141 0.900542
0.755611 0.954299 0.82945
0.824292 0.955657 0.845563
0.93843 0.953948 0.871885
0.542 0.760372 0.899977
0.558343 0.75642 0.896941
0.565484 0.754711 0.895705
0.580224 0.751141 0.893263
0.618173 0.741817 0.887404
0.720897 0.709468 0.875883
0.912673 0.667735 0.830076
0.999237 0.836011 0.689067
1 0.983413 0.541299
0.549447 0.768399 0.901732
0.565072 0.764691 0.898741
0.571923 0.763088 0.89752
0.586084 0.759747 0.89514
0.622675 0.750957 0.889433
0.71606 0.7234 0.878065
0.907225 0.676417 0.836378
0.998337 0.831357 0.70222
1 0.976944 0.562524
0.552636 0.77174 0.902464
0.567971 0.768154 0.899489
0.574685 0.766583 0.898283
0.588602 0.763333 0.895918
0.624628 0.754788 0.890288
0.714153 0.729198 0.87892
0.90486 0.680293 0.838941
0.997909 0.829465 0.707652
1 0.974182 0.571008
0.559167 0.778408 0.90396
0.573892 0.775036 0.900999
0.580362 0.773571 0.899809
0.593774 0.770489 0.89749
0.628656 0.762402 0.891966
0.710552 0.740749 0.880583
0.899977 0.688518 0.843961
0.996963 0.825833 0.718456
1 0.968597 0.587472
0.575769 0.794476 0.907591
0.589029 0.791623 0.904692
0.594888 0.790356 0.903548
0.607111 0.787732 0.901305
0.639094 0.780728 0.896056
0.71046 0.764309 0.885039
0.887327 0.710842 0.855451
0.994064 0.818051 0.744076
1 0.954696 0.625223
0.613153 0.826673 0.915465
0.623529 0.824842 0.912566
0.628153 0.824002 0.911452
0.637873 0.822232 0.9093
0.663844 0.817395 0.904494
0.7243 0.805432 0.895094
0.858869 0.765682 0.875792
0.984665 0.809369 0.793637
1 0.925277 0.697032
0.679866 0.873137 0.930449
0.685954 0.872969 0.927031
0.688853 0.872801 0.925719
0.695003 0.872328 0.923369
0.711818 0.870542 0.918608
0.754025 0.864805 0.910735
0.829038 0.853452 0.899092
0.957031 0.830579 0.859297
1 0.886488 0.798688
0.742367 0.902739 0.965881
0.751339 0.907378 0.962646
0.755795 0.910155 0.959396
0.764004 0.915007 0.950713
0.775799 0.919997 0.938796
0.799161 0.921401 0.929351
0.845289 0.918074 0.921538
0.914397 0.913405 0.913588
0.971725 0.895384 0.890379
0.767666 0.911681 0.985077
0.733776 0.897673 0.97879
0.717662 0.890959 0.975631
0.757107 0.907378 0.980468
0.805417 0.927459 0.984176
0.766445 0.923812 0.93286
0.830457 0.958862 0.903151
0.865629 0.957931 0.897993
0.949767 0.956649 0.911254
0.773999 0.886702 0.954742
0.776715 0.885786 0.954223
0.777935 0.88539 0.953994
0.780468 0.88455 0.953536
0.78735 0.882322 0.952361
0.805219 0.876722 0.949554
0.853544 0.860334 0.944091
0.960266 0.83624 0.921065
1 0.922759 0.847364
0.775509 0.888136 0.955047
0.778195 0.887251 0.954513
0.779385 0.886854 0.954299
0.781872 0.886046 0.953826
0.788647 0.883864 0.952667
0.806256 0.878386 0.949889
0.852735 0.862913 0.944396
0.95906 0.837873 0.92221
1 0.921706 0.849744
0.776181 0.888762 0.955169
0.778836 0.887877 0.95465
0.780026 0.887495 0.954421
0.782498 0.886687 0.953964
0.789212 0.884535 0.952789
0.806699 0.879118 0.950027
0.852384 0.864042 0.944533
0.958526 0.83859 0.922713
1 0.921248 0.850767
0.777554 0.890059 0.955444
0.780179 0.889189 0.95491
0.781338 0.888823 0.954696
0.78378 0.888029 0.954238
0.790402 0.885924 0.953063
0.807645 0.880598 0.950317
0.851698 0.866361 0.944793
0.957427 0.840116 0.923735
1 0.920317 0.852903
0.78117 0.893446 0.956146
0.783734 0.892622 0.955627
0.784833 0.892271 0.955398
0.787182 0.891524 0.954955
0.793561 0.88954 0.953796
0.810193 0.884504 0.951095
0.850034 0.872419 0.945449
0.954452 0.844343 0.926329
1 0.917967 0.858473
0.790219 0.90161 0.957946
0.792615 0.900862 0.957397
0.793622 0.900557 0.957183
0.795727 0.899916 0.956741
0.801495 0.898207 0.955612
0.816632 0.893858 0.953017
0.851591 0.884184 0.947555
0.946883 0.855863 0.932219
1 0.912947 0.871824
0.809979 0.917952 0.961959
0.811887 0.917433 0.961395
0.812741 0.91722 0.961151
0.814481 0.916762 0.960678
0.819028 0.915587 0.959579
0.831174 0.912551 0.957153
0.86009 0.905531 0.952438
0.930571 0.884306 0.942428
1 0.907088 0.897978
0.843793 0.941802 0.969985
0.844938 0.941665 0.969268
0.845441 0.941588 0.968963
0.84654 0.941451 0.968399
0.849622 0.941009 0.967025
0.857527 0.939757 0.964508
0.877119 0.936355 0.960479
0.915618 0.929793 0.954192
0.985473 0.917601 0.932906
0.890944 0.962829 1
0.87863 0.957763 0.996475
0.876402 0.956924 0.995163
0.879896 0.958679 0.993866
0.885527 0.963256 0.983474
0.890669 0.965805 0.975708
0.901732 0.966293 0.97055
0.924788 0.964355 0.966262
0.961593 0.961883 0.961929
