Apple Log to wyCol AgX BT.1886 2.4.cube
TITLE "wyCol AgX V1"
LUT_3D_SIZE 5
0 0 0
0.0110628 0 0.00318914
0.0245518 0 0.00717174
0.0517128 0 0.0154269
0.356222 0 0.108888
0 0.0146181 0
0.0475929 0.0304723 0
0.186465 0 0.0581369
0.0395361 0 0.0116884
0.291432 0 0.0902419
0 0.0981765 0
0 0.115023 0
0.211002 0.216358 0
0.708965 0 0
0.163165 0 0.0507973
0 0.54818 0.210803
0 0.524483 0.157488
0 0.512413 0
0.669429 0.708324 0.298543
0.963989 0.775097 0
0.591669 0.836683 0.95021
0.521782 0.8056 0.930236
0.341039 0.730709 0.853315
0.619318 0.93254 0.713664
0.920119 0.945586 0.826856
0.00842298 0 0.0269169
0.0441749 0 0.0142977
0.0579995 0 0.0175631
0.0639353 0 0.0192264
0.423026 0 0.126253
0 0.0571298 0.0968795
0.0979019 0.100359 0.100832
0.297002 0 0.0910658
0.106935 0 0.0327764
0.35198 0 0.107713
0 0.222324 0.110246
0 0.214069 0
0.306325 0.314137 0
0.773465 0 0
0.207599 0 0.0647288
0 0.590875 0.342611
0 0.584115 0.290593
0 0.603708 0.210529
0.709804 0.743175 0.398352
0.972396 0.834012 0
0.607599 0.843702 0.95404
0.538766 0.813214 0.935271
0.359701 0.737682 0.862486
0.631495 0.935088 0.723339
0.92166 0.94641 0.830121
0.0284886 0 0.119051
0.130632 0 0.101564
0.441032 0 0.129519
0.24741 0 0.0769818
0.511421 0 0.142473
0 0 0.35816
0.106767 0.138384 0.329992
0.535897 0 0.226246
0.787594 0 0
0.42916 0 0.127703
0 0.313298 0.523049
0 0.39556 0.487846
0.42034 0.430884 0.432837
0.856031 0.304967 0.172213
0.255421 0 0.0794385
0 0.628748 0.546609
0 0.633371 0.481804
0 0.71397 0.410468
0.752178 0.777737 0.509773
0.979217 0.87277 0
0.639597 0.857679 0.961273
0.573312 0.828626 0.944778
0.397803 0.752758 0.880156
0.65658 0.940017 0.743557
0.92488 0.948119 0.837186
0.141054 0.488167 0.781643
0.284627 0.479271 0.761425
0.501137 0.428641 0.728176
0.972122 0.640085 0.403418
0.60473 0 0.143557
0.175402 0.544289 0.799695
0.299825 0.538247 0.780514
0.47071 0.516091 0.750118
0.964309 0.623453 0.49305
0.644465 0 0.133791
0.252491 0.632044 0.828077
0.341955 0.631235 0.808957
0.489021 0.618311 0.7841
0.942992 0.613993 0.613703
0.979065 0.624063 0
0.489677 0.795438 0.904189
0.528191 0.817838 0.88452
0.598856 0.832212 0.854063
0.826932 0.822003 0.822919
0.992538 0.858961 0.676722
0.743496 0.901686 0.981338
0.689433 0.879072 0.970901
0.532921 0.811261 0.930129
0.755611 0.954299 0.82945
0.93843 0.953948 0.871885
0.773999 0.886702 0.954742
0.777935 0.88539 0.953994
0.78735 0.882322 0.952361
0.853544 0.860334 0.944091
1 0.922759 0.847364
0.776181 0.888762 0.955169
0.780026 0.887495 0.954421
0.789212 0.884535 0.952789
0.852384 0.864042 0.944533
1 0.921248 0.850767
0.78117 0.893446 0.956146
0.784833 0.892271 0.955398
0.793561 0.88954 0.953796
0.850034 0.872419 0.945449
1 0.917967 0.858473
0.809979 0.917952 0.961959
0.812741 0.91722 0.961151
0.819028 0.915587 0.959579
0.86009 0.905531 0.952438
1 0.907088 0.897978
0.890944 0.962829 1
0.876402 0.956924 0.995163
0.885527 0.963256 0.983474
0.901732 0.966293 0.97055
0.961593 0.961883 0.961929
