Apple Log to wyCol AgX BT.1886 2.4.cube
TITLE "wyCol AgX V1"
LUT_3D_SIZE 65
0 0 0
0 0 0
0 0 0
0.00448615 0 0.00128176
0.00863661 0 0.00248722
0.012253 0 0.00354009
0.0155337 0 0.00450141
0.00521859 0 0.00149538
0.00596628 0 0.00170901
0.00666819 0 0.00190738
0.00733959 0 0.00210575
0.00796521 0 0.00228885
0.00856031 0 0.0024567
0.00914015 0 0.00262455
0.00972 0 0.0027924
0.0103609 0 0.00297551
0.0110628 0 0.00318914
0.0117952 0 0.00340276
0.0125582 0 0.00363165
0.0133516 0 0.00386053
0.0141604 0 0.00408942
0.0149691 0 0.00433356
0.0158083 0 0.00457771
0.0166629 0 0.00482185
0.0175174 0 0.00508125
0.0184024 0 0.00534066
0.0193027 0 0.00560006
0.0202182 0 0.00587472
0.0211643 0 0.00616464
0.0221256 0 0.00643931
0.0218051 0 0.00634775
0.0232395 0 0.00677501
0.0245518 0 0.00717174
0.0258183 0 0.00755322
0.0271 0 0.00793469
0.028397 0 0.00831617
0.0297398 0 0.00872816
0.0311131 0 0.00914015
0.0325322 0 0.00956741
0.0340276 0 0.0100252
0.035584 0 0.0104982
0.0372168 0 0.0109865
0.0389563 0 0.0115206
0.0407111 0 0.0120546
0.0425727 0 0.0126192
0.0445869 0 0.0132448
0.0467689 0 0.0139162
0.0491188 0 0.0146334
0.0517128 0 0.0154269
0.054551 0 0.0163119
0.0576791 0 0.0172885
0.0611734 0 0.0183719
0.0650645 0 0.0195926
0.0695811 0 0.0209964
0.0751354 0 0.0227512
0.0820935 0 0.0249485
0.0910201 0 0.0277714
0.102724 0 0.0314946
0.118547 0 0.0365454
0.140185 0 0.0434882
0.166888 0 0.0519722
0.199664 0 0.0622568
0.240436 0 0.0748608
0.291646 0 0.0903029
0.356222 0 0.108888
0 0 0
0 0 0
0 0 0
0 0 0
0.0043946 0 0.00125124
0.00798047 0 0.00228885
0.0112001 0 0.00321965
0.00402838 0 0.00114443
0.00477607 0 0.00135805
0.00546273 0 0.00157168
0.00611887 0 0.00175479
0.00674449 0 0.0019379
0.00733959 0 0.00210575
0.00790417 0 0.00227359
0.0084535 0 0.00242618
0.00909438 0 0.00260929
0.00979629 0 0.00282292
0.0105287 0 0.00303655
0.0113069 0 0.00326543
0.0121004 0 0.00349432
0.0128939 0 0.0037232
0.0137179 0 0.00396735
0.0145266 0 0.00419623
0.0153506 0 0.00444038
0.0161898 0 0.00468452
0.0170443 0 0.00494392
0.0178988 0 0.00518807
0.0187839 0 0.00544747
0.0186465 0 0.00541695
0.0198062 0 0.00575265
0.0208286 0 0.00605783
0.0218662 0 0.00636301
0.0229343 0 0.00668345
0.0240177 0 0.00700389
0.0250858 0 0.00732433
0.0261845 0 0.00766003
0.0272831 0 0.00798047
0.0285954 0 0.0083772
0.029984 0 0.00880446
0.0314183 0 0.00923171
0.0329442 0 0.00968948
0.0345312 0 0.0101778
0.0362249 0 0.0106813
0.0379339 0 0.0112001
0.0397498 0 0.0117647
0.0417182 0 0.0123598
0.0438392 0 0.0130159
0.0461433 0 0.0137179
0.048661 0 0.0144961
0.0514382 0 0.0153506
0.05449 0 0.0162966
0.057908 0 0.0173495
0.0617227 0 0.0185397
0.0659953 0 0.0198825
0.0710918 0 0.0214694
0.0774701 0 0.0234836
0.0856031 0 0.0260471
0.0962387 0 0.0294194
0.110552 0 0.0339971
0.13051 0 0.0403906
0.156313 0 0.0486305
0.187991 0 0.0586099
0.227405 0 0.0708629
0.276951 0 0.0859236
0.339696 0 0.10425
0 0 0
0 0 0
0 0 0
0 0 0
0.00283818 0 0.000808728
0.00648508 0 0.0018616
0.00970474 0 0.0027924
0.00361639 0 0.00103761
0.00436408 0 0.00125124
0.005066 0 0.00144961
0.00572213 0 0.00163272
0.00634775 0 0.00181582
0.00694286 0 0.00198367
0.00750744 0 0.00215152
0.00807202 0 0.00231937
0.00869764 0 0.00250248
0.00941482 0 0.00270085
0.0101472 0 0.00291447
0.0109407 0 0.00314336
0.0117342 0 0.0033875
0.0125582 0 0.00361639
0.0133669 0 0.00386053
0.0141909 0 0.00410468
0.0150301 0 0.00434882
0.0158694 0 0.00459297
0.0167239 0 0.00485237
0.016968 0 0.00491341
0.0175479 0 0.00509651
0.0186465 0 0.00541695
0.0196384 0 0.00570687
0.0206149 0 0.0059968
0.0216373 0 0.00630198
0.0226902 0 0.00662242
0.0237583 0 0.0069276
0.0248264 0 0.00724804
0.0259098 0 0.00756847
0.0270085 0 0.00790417
0.0281224 0 0.00823987
0.0292363 0 0.00857557
0.030396 0 0.00892653
0.0318456 0 0.00935378
0.0334173 0 0.00984207
0.0350958 0 0.0103456
0.0367895 0 0.0108644
0.0385901 0 0.0114137
0.040528 0 0.0119936
0.0426337 0 0.0126497
0.0449073 0 0.0133364
0.0474098 0 0.0141146
0.0501564 0 0.0149538
0.053193 0 0.0158999
0.0565652 0 0.0169375
0.0603342 0 0.0181125
0.0645914 0 0.01944
0.0695201 0 0.0209812
0.0756542 0 0.0229191
0.0834974 0 0.0253758
0.0937209 0 0.0286259
0.107469 0 0.0330053
0.126589 0 0.0391241
0.152026 0 0.0472572
0.183246 0 0.0571298
0.22211 0 0.0692302
0.271 0 0.0841382
0.332982 0 0.102342
0 0 0
0 0 0
0 0 0
0 0 0
0.0016022 0 0.000457771
0.0053254 0 0.0015259
0.00856031 0 0.0024567
0.00329595 0 0.000946059
0.0040589 0 0.00115969
0.00476081 0 0.00135805
0.00541695 0 0.00155642
0.00604257 0 0.00172427
0.00663767 0 0.00190738
0.00720226 0 0.00205997
0.00776684 0 0.00222782
0.00839246 0 0.00241093
0.00910964 0 0.00262455
0.00985733 0 0.00283818
0.0106508 0 0.00306706
0.0114595 0 0.00329595
0.0122835 0 0.00354009
0.0131075 0 0.00378424
0.0139315 0 0.00402838
0.014786 0 0.00427253
0.0156252 0 0.00451667
0.0351568 0 0.0103609
0.035584 0 0.0104982
0.0320592 0 0.00943008
0.0293278 0 0.00860609
0.026688 0 0.00781262
0.0237736 0 0.0069276
0.0214542 0 0.00624094
0.0225071 0 0.00656138
0.0235599 0 0.00686656
0.0246281 0 0.007187
0.0256962 0 0.00750744
0.0267948 0 0.00784314
0.0278935 0 0.00817884
0.0290227 0 0.00851453
0.0301671 0 0.00885023
0.0313268 0 0.00920119
0.032578 0 0.00958267
0.034226 0 0.0100862
0.0359045 0 0.0105898
0.037705 0 0.0111391
0.0396277 0 0.0117189
0.0417182 0 0.0123598
0.0439765 0 0.0130617
0.0464637 0 0.0138094
0.0491798 0 0.0146487
0.0522011 0 0.0155795
0.0555428 0 0.0166171
0.0592966 0 0.017792
0.063508 0 0.0191043
0.0683452 0 0.0206149
0.0743114 0 0.0224918
0.0819257 0 0.0248875
0.0918593 0 0.0280308
0.10518 0 0.0322728
0.12369 0 0.0381933
0.148775 0 0.0462348
0.179675 0 0.0560006
0.218097 0 0.0679942
0.266484 0 0.0827802
0.327886 0 0.100893
0 0 0
0 0 0
0 0 0
0 0 0
0.000640879 0 0.000183108
0.00560006 0 0.0016022
0.00982681 0 0.00282292
0.0157626 0 0.00456245
0.0160525 0 0.004654
0.0162051 0 0.00468452
0.016907 0 0.00489815
0.0178225 0 0.00517281
0.0188144 0 0.00546273
0.019852 0 0.00576791
0.0209201 0 0.00608835
0.0221714 0 0.00645457
0.023621 0 0.00689708
0.0251621 0 0.00735485
0.0267796 0 0.00782788
0.0283665 0 0.00831617
0.0298772 0 0.00877394
0.0313115 0 0.00920119
0.0325933 0 0.00958267
0.0336919 0 0.00991836
0.0446479 0 0.0132601
0.0488289 0 0.0145418
0.0475319 0 0.0141451
0.0466316 0 0.0138705
0.0456855 0 0.0135805
0.0444648 0 0.0131991
0.0427863 0 0.0126955
0.0406958 0 0.0120546
0.0379797 0 0.0112154
0.0343481 0 0.0101167
0.0296635 0 0.00869764
0.0255283 0 0.00746166
0.0266117 0 0.0077821
0.0277104 0 0.0081178
0.0288396 0 0.0084535
0.029984 0 0.00880446
0.0311437 0 0.00915541
0.0323339 0 0.00950637
0.0335546 0 0.00987259
0.035172 0 0.0103761
0.0369573 0 0.0109102
0.0388647 0 0.01149
0.04094 0 0.0121309
0.0431983 0 0.0128176
0.045655 0 0.0135653
0.0483711 0 0.0144045
0.0513619 0 0.0153353
0.0546883 0 0.0163577
0.0584115 0 0.0175174
0.0626078 0 0.0188144
0.0673686 0 0.0203098
0.0732128 0 0.0221408
0.0806439 0 0.0244755
0.0903334 0 0.0275425
0.103304 0 0.0316777
0.121309 0 0.0374304
0.146059 0 0.0453651
0.176669 0 0.0550546
0.214755 0 0.0669566
0.262715 0 0.0816358
0.323629 0 0.0996567
0 0 0
0 0 0
0 0 0
0 0 0
0 0 0
0.00445563 0 0.00128176
0.0087129 0 0.00250248
0.0130922 0 0.00378424
0.0183108 0 0.00531014
0.0231022 0 0.00674449
0.0258183 0 0.00755322
0.0275731 0 0.00807202
0.029099 0 0.00852979
0.030518 0 0.00895705
0.0319066 0 0.0093843
0.0334783 0 0.00985733
0.0352331 0 0.0103914
0.0371099 0 0.010956
0.0390326 0 0.0115358
0.0409552 0 0.0121309
0.0428168 0 0.0126955
0.0445869 0 0.0132448
0.0462348 0 0.0137484
0.0517586 0 0.0154574
0.0601968 0 0.0180667
0.0571603 0 0.0171206
0.0577401 0 0.0173037
0.0581674 0 0.0174411
0.05832 0 0.0174868
0.0580911 0 0.0174105
0.0573739 0 0.0171969
0.0562295 0 0.0168307
0.0544594 0 0.0162814
0.0518044 0 0.0154726
0.0481117 0 0.0143282
0.0431678 0 0.0128023
0.0367285 0 0.0108339
0.0285039 0 0.00836194
0.0286717 0 0.00840772
0.0298161 0 0.00874342
0.0309758 0 0.00909438
0.032166 0 0.00946059
0.0333715 0 0.00982681
0.0345464 0 0.0101778
0.0363012 0 0.0107118
0.0382086 0 0.0112917
0.0402686 0 0.0119173
0.0425116 0 0.012604
0.0449531 0 0.0133516
0.0476539 0 0.0141756
0.0506294 0 0.0151064
0.0539406 0 0.0161288
0.0576486 0 0.0172732
0.0618143 0 0.0185702
0.0665293 0 0.0200504
0.0722515 0 0.0218357
0.07953 0 0.0241398
0.0890211 0 0.0271305
0.101701 0 0.0311589
0.11928 0 0.0367895
0.143694 0 0.0446021
0.17406 0 0.0542306
0.21181 0 0.066041
0.259419 0 0.0806439
0.319875 0 0.0985733
0 0 0
0 0 0
0 0 0
0 0.000442512 0
0 0.00177005 0
0.00360113 0 0.000732433
0.00770581 0 0.00221256
0.0118715 0 0.00341802
0.0164034 0 0.00474556
0.0210269 0 0.00611887
0.0255894 0 0.00747692
0.0295567 0 0.00866712
0.0325475 0 0.00956741
0.0348669 0 0.0102693
0.0369116 0 0.0108949
0.0390784 0 0.0115511
0.0414282 0 0.0122683
0.0438849 0 0.0130312
0.0463569 0 0.0137789
0.0488136 0 0.0145418
0.051194 0 0.0152743
0.0534676 0 0.0159762
0.0572213 0 0.0171359
0.0614481 0 0.0184634
0.0627756 0 0.0188754
0.0645457 0 0.0194247
0.0661173 0 0.019913
0.0674449 0 0.020325
0.068452 0 0.0206455
0.0690623 0 0.0208438
0.0691539 0 0.0208743
0.0688182 0 0.0207675
0.0678569 0 0.0204623
0.066041 0 0.0198978
0.0632334 0 0.0190127
0.0592203 0 0.0177615
0.0537423 0 0.0160678
0.04654 0 0.0138399
0.0372931 0 0.011017
0.0296635 0 0.00869764
0.0308232 0 0.0090486
0.0320134 0 0.00941482
0.0332189 0 0.00978103
0.0343786 0 0.010132
0.0357061 0 0.0105287
0.0375982 0 0.0111086
0.0396582 0 0.0117342
0.041886 0 0.0124208
0.0443275 0 0.0131533
0.0469978 0 0.0139773
0.0499733 0 0.0148928
0.0532692 0 0.0159152
0.0569467 0 0.0170596
0.0610971 0 0.0183566
0.0657969 0 0.0198215
0.0714122 0 0.0215763
0.0785534 0 0.0238193
0.0878462 0 0.0267643
0.100282 0 0.0307164
0.117464 0 0.0362097
0.141558 0 0.0439307
0.171695 0 0.0534981
0.209201 0 0.0652323
0.256443 0 0.0797436
0.316518 0 0.097612
0 0 0
0 0 0
0 0.00144961 0
0 0.00344854 0
0 0.004654 0
0.00225834 0.00579843 0
0.00790417 0.00299077 0
0.0117647 0 0.00183108
0.0156252 0 0.0039826
0.01944 0 0.00560006
0.0236973 0 0.00691234
0.0279698 0 0.00819409
0.0320287 0 0.00941482
0.0356298 0 0.0104982
0.0387274 0 0.0114443
0.0417487 0 0.0123751
0.044831 0 0.0133211
0.0479133 0 0.0142672
0.0509804 0 0.0152132
0.0540017 0 0.016144
0.0569162 0 0.0170443
0.0589914 0 0.0176852
0.0616159 0 0.0161135
0.0654765 0 0.0197147
0.0682689 0 0.0205844
0.0709544 0 0.0214389
0.0734722 0 0.0222171
0.0757763 0 0.0229496
0.0777447 0 0.0235752
0.0793011 0 0.0240635
0.080293 0 0.0243687
0.080827 0 0.0245365
0.0806439 0 0.0244755
0.079408 0 0.024094
0.076997 0 0.023331
0.0733043 0 0.0221714
0.0683146 0 0.0205997
0.0619821 0 0.0186313
0.0536812 0 0.0160525
0.0430152 0 0.0127565
0.0306859 0 0.00900282
0.0318608 0 0.00936904
0.0330816 0 0.00973526
0.0342412 0 0.0100862
0.0354314 0 0.0104524
0.0370489 0 0.0109407
0.0390936 0 0.0115663
0.0413214 0 0.0122377
0.0437476 0 0.0129854
0.0464179 0 0.0138094
0.0493629 0 0.0147097
0.0526436 0 0.0157321
0.0563211 0 0.0168612
0.060441 0 0.018143
0.0651255 0 0.0196078
0.0706493 0 0.0213321
0.0776684 0 0.0235447
0.0867933 0 0.0264286
0.0989853 0 0.0303044
0.115846 0 0.0356909
0.139605 0 0.0433051
0.169543 0 0.0528115
0.206806 0 0.0644846
0.253727 0 0.0789197
0.313451 0 0.0967117
0 0 0
0 0.00196841 0
0 0.00454719 0
0 0.00607309 0
0 0.00726329 0
0 0.00820935 0
0.00730907 0.00894179 0
0.0119173 0.0065156 0
0.0160067 0 0
0.0198825 0 0.00271611
0.0236667 0 0.00520333
0.0273899 0 0.00700389
0.0310521 0 0.00857557
0.0345617 0 0.0100099
0.0381781 0 0.0112764
0.0422065 0 0.0125124
0.0462501 0 0.0137484
0.0501564 0 0.0149538
0.0538796 0 0.0161135
0.057496 0 0.0172274
0.0574197 0 0.0162203
0.0608225 0 0.012726
0.0659953 0 0.0198825
0.0696574 0 0.0210269
0.0732738 0 0.0221561
0.0768292 0 0.0232853
0.0802777 0 0.0243687
0.0835737 0 0.0254063
0.0865797 0 0.0263676
0.089189 0 0.0271916
0.0912337 0 0.0278325
0.0928664 0 0.0283513
0.0937057 0 0.0286107
0.0933394 0 0.0285039
0.0915694 0 0.0279393
0.0881971 0 0.0268711
0.0831159 0 0.0252689
0.0763561 0 0.0231327
0.0681315 0 0.0205539
0.0583352 0 0.0174868
0.0458228 0 0.0136263
0.0317388 0 0.00932326
0.0329442 0 0.00968948
0.0341039 0 0.0100404
0.0352941 0 0.0104067
0.0365454 0 0.0107881
0.0385748 0 0.0113985
0.0407874 0 0.0120851
0.0431983 0 0.0128176
0.0458686 0 0.0136263
0.0487984 0 0.0145418
0.0520638 0 0.0155489
0.0557259 0 0.0166781
0.0598459 0 0.0179599
0.0644999 0 0.0194095
0.0699474 0 0.0211185
0.0768597 0 0.0232853
0.085832 0 0.0261234
0.0978103 0 0.0299229
0.114366 0 0.0352026
0.137819 0 0.0427253
0.167559 0 0.0521859
0.204578 0 0.063798
0.25124 0 0.0781567
0.310597 0 0.0958877
0 0.00216678 0
0 0.00389105 0
0 0.00698863 0
0 0.00848402 0
0 0.00967422 0
0 0.0106203 0
0 0.0117494 0
0.0113832 0.011902 0
0.0159304 0.00975052 0
0.0200046 0.00469978 0
0.0238804 0 0
0.0276341 0 0.00344854
0.0313268 0 0.00621042
0.0349279 0 0.00814832
0.0385595 0 0.00987259
0.0425727 0 0.0116426
0.0468147 0 0.0134585
0.0509346 0 0.0151827
0.0554665 0 0.0166018
0.0551308 0 0.00585946
0.0602426 0 0.0111086
0.0648203 0 0.0195163
0.0690929 0 0.0208438
0.0733806 0 0.0221866
0.0777295 0 0.0235599
0.0821241 0 0.0249485
0.0865187 0 0.0263371
0.0908064 0 0.0276951
0.0949111 0 0.0290074
0.0986648 0 0.0301976
0.1019 0 0.03122
0.104799 0 0.0321508
0.106889 0 0.0328222
0.107683 0 0.0330816
0.106859 0 0.0328069
0.104128 0 0.0319371
0.0992752 0 0.030396
0.0922255 0 0.0281529
0.0831464 0 0.0252689
0.0724041 0 0.0218814
0.0604257 0 0.018143
0.0455787 0 0.01355
0.0328222 0 0.00965896
0.0339818 0 0.0100099
0.0351568 0 0.0103609
0.0363928 0 0.0107424
0.0380865 0 0.0112612
0.0402838 0 0.0119326
0.0426947 0 0.012665
0.0453498 0 0.0134737
0.0482795 0 0.014374
0.0515297 0 0.0153811
0.0551766 0 0.0165103
0.059266 0 0.0177768
0.0639048 0 0.0192264
0.0692912 0 0.0209049
0.0760967 0 0.0230564
0.0849317 0 0.0258335
0.0967269 0 0.0295872
0.112993 0 0.0347753
0.136126 0 0.0421912
0.165713 0 0.051606
0.202502 0 0.0631418
0.24889 0 0.0774395
0.307942 0 0.0951095
0 0.00410468 0
0 0.0056611 0
0 0.00926223 0
0 0.0107424 0
0 0.0119478 0
0 0.0128939 0
0 0.0137484 0
0.00743114 0.0150454 0
0.0153964 0.0149233 0
0.0198062 0.0128328 0
0.0238499 0.00920119 0
0.0276951 0 0
0.0314336 0 0
0.0350958 0 0.00411994
0.0388037 0 0.007187
0.0430152 0 0.0096437
0.0477607 0 0.0120089
0.0527047 0 0.014313
0.0507668 0.026215 0
0.0599222 0 0.0115816
0.0645762 0 0.0180514
0.0681315 0 0.0199435
0.0717021 0 0.0216526
0.0765698 0 0.0231937
0.0816358 0 0.0247959
0.0868544 0 0.0264439
0.0921645 0 0.0281224
0.0974746 0 0.0298161
0.102708 0 0.0314794
0.107683 0 0.0330663
0.1122 0 0.0345159
0.116518 0 0.0359045
0.120089 0 0.0370489
0.122301 0 0.0377508
0.122728 0 0.0378882
0.120974 0 0.0373236
0.116686 0 0.0359503
0.109651 0 0.0337072
0.0999313 0 0.0306096
0.0879072 0 0.0267796
0.0742657 0 0.0224765
0.0597238 0 0.0179141
0.0419776 0 0.0124361
0.0338598 0 0.00996414
0.0350347 0 0.0103304
0.0362707 0 0.0106966
0.0376287 0 0.0111086
0.039826 0 0.01178
0.0422217 0 0.0125124
0.0448615 0 0.0133211
0.047776 0 0.0142214
0.0510262 0 0.0152285
0.0546578 0 0.0163424
0.058732 0 0.0176089
0.0633555 0 0.0190585
0.0686961 0 0.0207218
0.0753948 0 0.0228275
0.0841077 0 0.0255741
0.0957198 0 0.0292668
0.111727 0 0.0343633
0.134554 0 0.0416876
0.163958 0 0.0510414
0.200549 0 0.0625467
0.246693 0 0.0767681
0.30544 0 0.094377
0 0.00588998 0
0 0.00732433 0
0 0.0114137 0
0 0.0129091 0
0 0.0141146 0
0 0.0150607 0
0 0.0159152 0
0 0.0170901 0
0.0129091 0.018555 0
0.0192569 0.0178225 0
0.0235599 0.0157931 0
0.0275731 0.012665 0
0.0314031 0.00611887 0
0.035111 0 0
0.03888 0 0
0.043183 0 0.00585946
0.0480507 0 0
0.0513466 0.0466621 0.0408331
0.0573129 0 0.00741588
0.0627909 0 0.0151064
0.0672923 0 0.0177462
0.0714275 0 0.0199435
0.075639 0 0.0219883
0.0800031 0 0.0239567
0.085008 0 0.025864
0.0910201 0 0.0277714
0.0972305 0 0.0297398
0.103578 0 0.0317693
0.109941 0 0.0337987
0.116182 0 0.0357977
0.122087 0 0.0376898
0.127962 0 0.0395666
0.133104 0 0.0412146
0.136767 0 0.0424048
0.138613 0 0.0429847
0.138216 0 0.0428626
0.135058 0 0.0418555
0.128573 0 0.039765
0.118517 0 0.0365454
0.105364 0 0.0323339
0.0898451 0 0.0273899
0.0731212 0 0.0221103
0.0558328 0 0.0167086
0.0342718 0 0.0100862
0.0349279 0 0.0102998
0.0361486 0 0.0106661
0.0374151 0 0.0110475
0.0393835 0 0.0116426
0.0417639 0 0.0123751
0.0444038 0 0.0131838
0.047303 0 0.0140841
0.0505379 0 0.0150759
0.0541543 0 0.0161898
0.0582284 0 0.0174563
0.0628367 0 0.0188907
0.0681163 0 0.0205386
0.0747387 0 0.0226291
0.0833295 0 0.02533
0.0947738 0 0.0289616
0.110536 0 0.0339818
0.133059 0 0.0411994
0.16231 0 0.0505226
0.198718 0 0.0619669
0.244602 0 0.0761425
0.303059 0 0.0936751
0 0.00756847 0
0 0.00889601 0
0 0.0134737 0
0 0.0149691 0
0 0.0161898 0
0 0.0171359 0
0 0.0180056 0
0 0.0187991 0
0.00505074 0.0203861 0
0.0177615 0.0218662 0
0.0229953 0.0206607 0
0.0272221 0.0186618 0
0.0311894 0.0157931 0
0.0349889 0.0111086 0
0.0404822 0.0146181 0
0.0464942 0.0349737 0
0.0488899 0.0268101 0
0.0535439 0 0
0.0589303 0 0.00952163
0.0642863 0 0.0136873
0.0694133 0 0.0168765
0.0742046 0 0.0195315
0.0790875 0 0.0219883
0.0841535 0 0.0243381
0.0894179 0 0.026627
0.0949111 0 0.0289006
0.101747 0 0.0311742
0.109117 0 0.0335241
0.11664 0 0.035935
0.124178 0 0.0383612
0.131472 0 0.0406958
0.138628 0 0.0429847
0.144976 0 0.0450141
0.14992 0 0.0465858
0.153109 0 0.0476081
0.154116 0 0.0479286
0.152422 0 0.0473945
0.147433 0 0.0458076
0.138476 0 0.0429389
0.124834 0 0.0385748
0.10753 0 0.0330205
0.0882582 0 0.0268864
0.0687114 0 0.0207218
0.0479438 0 0.0142672
0.0348211 0 0.0102541
0.0360418 0 0.0106355
0.0373083 0 0.011017
0.0389563 0 0.0115206
0.0413367 0 0.012253
0.0439612 0 0.0130465
0.0468605 0 0.0139467
0.0500801 0 0.0149386
0.0536812 0 0.0160525
0.0577401 0 0.0173037
0.0623331 0 0.0187381
0.0675822 0 0.0203708
0.0741283 0 0.0224308
0.0825971 0 0.0251011
0.0938888 0 0.0286717
0.109422 0 0.0336309
0.131624 0 0.0407416
0.160739 0 0.0500343
0.196963 0 0.0614176
0.242618 0 0.0755322
0.300816 0 0.093019
0 0.00918593 0
0 0.0104067 0
0 0.0154574 0
0 0.016968 0
0 0.0181888 0
0 0.0191501 0
0 0.0200198 0
0 0.0208286 0
0 0.0220493 0
0.0121767 0.0238346 0
0.0220951 0.024918 0
0.026627 0.0233921 0
0.0340734 0.0256352 0
0.0431373 0.0354772 0
0.0463264 0.0384375 0
0.0454414 0.0225376 0
0.0485542 0 0
0.053727 0 0
0.0594339 0 0.00335698
0.0652628 0 0.0112459
0.0709697 0 0.0153658
0.0763867 0 0.0186313
0.0819715 0 0.0215915
0.0877852 0 0.0243839
0.093843 0 0.0271
0.10016 0 0.0297704
0.106737 0 0.0324407
0.114076 0 0.035111
0.122759 0 0.0379034
0.131579 0 0.0407263
0.139895 0 0.0433967
0.148119 0 0.0460212
0.155612 0 0.0484016
0.161791 0 0.0503548
0.166278 0 0.0517739
0.168658 0 0.0525368
0.168399 0 0.0524453
0.164889 0 0.0513466
0.157412 0 0.0489815
0.145205 0 0.0450904
0.127428 0 0.0393988
0.105547 0 0.0323949
0.0827344 0 0.0251469
0.0607004 0 0.0182193
0.0357061 0 0.0105287
0.035935 0 0.010605
0.0372015 0 0.0109865
0.0385443 0 0.0113985
0.0409247 0 0.0121157
0.043534 0 0.0129244
0.0464332 0 0.0138094
0.0496376 0 0.0148013
0.0532387 0 0.0158999
0.0572824 0 0.0171664
0.0618601 0 0.0185855
