Arri v3 to wyCol AgX BT.709 2.4.cube
TITLE "wyCol AgX V1"
LUT_3D_SIZE 9
0.0186465 0.0140383 0.0151217
0.0395514 0 0.0134585
0.0647288 0 0.020676
0.105287 0 0.0323186
0.190219 0 0.0591287
0.29485 0 0.0910048
0.418463 0 0.124773
0.557549 0 0.145251
0.705577 0 0.114031
0.0413672 0.0492409 0.0408331
0.0502022 0.0481422 0
0.10013 0 0
0.194522 0 0.055024
0.348531 0 0.104479
0.534386 0 0.144533
0.71725 0 0.104784
0.863264 0 0
0.954543 0.424933 0
0 0.0632639 0
0 0.0734264 0
0.10193 0.103044 0
0.240467 0 0
0.465858 0 0.060502
0.702052 0 0
0.877653 0 0
0.967391 0.539849 0
0.991684 0.832746 0
0 0.111467 0
0 0.126162 0
0 0.173419 0
0.200153 0.241733 0
0.45745 0.126925 0
0.74432 0 0
0.92401 0.408759 0
0.984695 0.756329 0
0.990173 0.97142 0
0 0.211505 0
0 0.234684 0
0 0.264668 0
0 0.359182 0
0.389807 0.452491 0
0.679332 0.396719 0
0.902174 0.523369 0
0.981491 0.81474 0
0.9897 1 0
0 0.342535 0
0 0.373587 0
0 0.412619 0
0 0.491188 0
0 0.612726 0.0902571
0.585901 0.685069 0.245228
0.823941 0.671916 0
0.958114 0.809964 0
0.98909 0.992203 0
0 0.50547 0
0 0.542763 0
0 0.586358 0
0 0.634882 0.142351
0 0.745495 0.314137
0.413611 0.816068 0.447028
0.745739 0.844694 0.55433
0.902052 0.845258 0.493004
0.980819 0.944991 0.408301
0 0.675105 0.205783
0 0.709758 0.256977
0 0.746746 0.312322
0 0.784344 0.37145
0.253178 0.843351 0.475181
0.482795 0.895064 0.593851
0.657404 0.920226 0.684428
0.855238 0.924849 0.75491
0.951476 0.928267 0.722545
0.0500191 0.811078 0.416373
0.223346 0.835966 0.461204
0.315892 0.86041 0.508934
0.396078 0.883467 0.558358
0.471153 0.904646 0.608728
0.614343 0.93875 0.706783
0.71696 0.957809 0.776989
0.812467 0.96585 0.829602
0.92462 0.964462 0.867811
0.0172122 0 0.0375372
0.0616617 0 0.0288396
0.0894789 0 0.032929
0.16495 0 0.0527047
0.281071 0 0.0868391
0.419104 0 0.123354
0.570047 0 0.141039
0.71931 0 0.0897841
0.850721 0 0
0.0352789 0.0551003 0.0598764
0.0668956 0.0662699 0.066392
0.121477 0 0.0580606
0.222599 0 0.0713054
0.387259 0 0.11104
0.580377 0 0.136599
0.761501 0 0
0.895186 0 0
0.969528 0.538094 0
0 0.0828412 0
0 0.0870222 0
0.119997 0.128283 0
0.265568 0 0
0.483452 0 0.0364385
0.711391 0 0
0.880919 0 0
0.967758 0.55021 0
0.991562 0.834852 0
0 0.142031 0
0 0.138918 0
0 0.199695 0
0.22739 0.267582 0
0.495216 0.149371 0
0.764599 0 0
0.928542 0.434287 0
0.984848 0.762432 0
0.990143 0.970932 0
0 0.256962 0
0 0.252552 0
0 0.291722 0
0 0.395911 0
0.430228 0.488899 0
0.716899 0.439216 0
0.916747 0.573968 0
0.982864 0.83949 0
0.989807 1 0
0 0.40354 0
0 0.397528 0
0 0.437644 0
0 0.534234 0
0.141573 0.652567 0.173648
0.625452 0.716487 0.302708
0.848035 0.709606 0.0862898
0.96434 0.843687 0
0.990051 1 0
0 0.57734 0
0 0.570443 0
0 0.613596 0.101198
0 0.670115 0.198291
0.112688 0.779187 0.368063
0.466651 0.840406 0.495415
0.77496 0.862196 0.595483
0.91632 0.866072 0.538582
0.984527 0.959289 0.47277
0 0.740047 0.302144
0 0.734112 0.293187
0 0.769055 0.346914
0 0.804227 0.404578
0.345037 0.86714 0.523522
0.535897 0.911116 0.634485
0.69427 0.931105 0.717266
0.873716 0.933654 0.780438
0.960021 0.938567 0.750622
0.302312 0.85658 0.501183
0.288045 0.852628 0.493294
0.366003 0.874784 0.539162
0.438544 0.895567 0.58648
0.528984 0.920043 0.649226
0.657511 0.948592 0.738827
0.748837 0.964614 0.801938
0.834363 0.971115 0.848844
0.935576 0.969558 0.882567
0.0180362 0 0.0613565
0.0624552 0 0.0537575
0.142153 0 0.0556344
0.256229 0 0.0830701
0.409918 0 0.121019
0.576547 0 0.136889
0.733501 0 0.0439918
0.860288 0 0
0.945724 0.381735 0
0 0 0.115831
0.057969 0.0406958 0.113451
0.183352 0 0.0906691
0.319875 0 0.103197
0.520256 0 0.128145
0.721538 0 0.0709239
0.873549 0 0
0.959319 0.472236 0
0.990188 0.765866 0
0 0.131975 0.193942
0 0.153048 0.184665
0.160784 0.166857 0.168017
0.307622 0 0.143404
0.532204 0 0.12607
0.757229 0 0
0.910567 0.282887 0
0.978836 0.651164 0
0.992401 0.895644 0
0 0.217243 0.111727
0 0.231235 0.0991989
0 0.24828 0.0557717
0.274876 0.317128 0.0530861
0.560174 0.205386 0
0.804135 0.168109 0
0.943175 0.512032 0
0.987427 0.804959 0
0.990662 0.987701 0
0 0.326436 0
0 0.31751 0
0 0.336065 0
0 0.442832 0
0.481041 0.53344 0
0.757061 0.48986 0
0.930526 0.626657 0
0.98436 0.864897 0
0.990341 1 0
0 0.483833 0
0 0.477317 0
0 0.469551 0
0 0.585428 0
0.223301 0.696605 0.246159
0.667781 0.74905 0.362646
0.870405 0.746822 0.210971
0.969329 0.872663 0
0.990982 1 0
0 0.660136 0.183124
0 0.653635 0.173022
0 0.645945 0.1608
0 0.71603 0.266255
0.248981 0.813962 0.427619
0.523308 0.864393 0.54728
0.804211 0.879225 0.637491
0.92958 0.885466 0.583307
0.9879 0.970947 0.528679
0 0.804257 0.404608
0 0.799374 0.396338
0 0.793683 0.386801
0.169406 0.824506 0.440162
0.427161 0.889921 0.574563
0.589715 0.926177 0.676127
0.731075 0.941375 0.750118
0.891493 0.942168 0.80528
0.967926 0.948089 0.777157
0.439811 0.895933 0.587335
0.42945 0.893004 0.580377
0.417639 0.889647 0.572503
0.480598 0.907225 0.615274
0.585565 0.934096 0.689799
0.699367 0.95761 0.77026
0.779629 0.970977 0.826123
0.855299 0.976165 0.867323
0.945907 0.974472 0.896559
0.0267796 0 0.094728
0.0634012 0 0.0911269
0.141466 0 0.0816663
0.380468 0 0.120027
0.574289 0 0.136751
0.744121 0 0
0.872053 0 0
0.950576 0.41828 0
0.986068 0.697841 0
0 0 0.19527
0.0550698 0 0.194064
0.174884 0 0.166522
0.448493 0 0.143587
0.677989 0 0.121736
0.851865 0 0
0.950622 0.424552 0
0.987945 0.725261 0
0.992615 0.923812 0
0 0 0.31017
0 0.0975509 0.302464
0.142763 0.129809 0.282017
0.439536 0 0.220356
0.692714 0 0.166857
0.876814 0.142245 0
0.967529 0.576226 0
0.991867 0.837476 0
0.991806 0.99321 0
0 0.304692 0.447395
0 0.328344 0.433616
0.104158 0.353704 0.411429
0.360327 0.374609 0.37731
0.618021 0.24715 0.318502
0.83743 0.287938 0.175036
0.956436 0.581491 0
0.990616 0.842832 0
0.992706 0.999451 0
0 0.458976 0.294881
0 0.482261 0.284947
0 0.505943 0.268559
0 0.524865 0.245609
0.562371 0.601877 0.307698
0.816175 0.569451 0.148989
0.950561 0.704067 0
0.987823 0.905196 0
0.992645 1 0
0 0.598398 0.248646
0 0.608118 0.243046
0 0.634134 0.250721
0 0.656184 0.255772
0.322301 0.750347 0.380331
0.724514 0.789822 0.477272
0.899763 0.794125 0.375479
0.977157 0.908675 0.0488441
0.993851 1 0.289113
0 0.749279 0.350301
0 0.740566 0.330953
0 0.740719 0.321492
0 0.766247 0.348074
0.347372 0.846952 0.496101
0.584131 0.886976 0.607187
0.834806 0.896223 0.686656
0.943145 0.904173 0.636393
0.991806 0.981109 0.591363
0.310292 0.858686 0.506172
0.296834 0.855055 0.498131
0.280964 0.850706 0.489479
0.287999 0.852628 0.493263
0.502815 0.910582 0.626017
0.642023 0.939635 0.716884
0.766125 0.950698 0.781476
0.907835 0.950027 0.82826
0.974929 0.956512 0.800992
0.552361 0.925978 0.665904
0.544121 0.923903 0.659998
0.534737 0.921523 0.653315
0.524178 0.918807 0.645823
0.639429 0.946487 0.729046
0.73875 0.965698 0.800122
0.808499 0.976791 0.848859
0.874723 0.98088 0.88452
0.955352 0.979095 0.909392
0.0510414 0 0.167437
0.0757 0 0.169543
0.145632 0 0.150072
0.375586 0 0.148928
0.738308 0 0.0829175
0.875959 0 0
0.954345 0.44741 0
0.986801 0.708675 0
0.992889 0.894209 0
0 0 0.303487
0.0489967 0 0.30602
0.172213 0 0.28307
0.429023 0 0.233631
0.818982 0 0
0.938445 0.365118 0
0.985168 0.688243 0
0.993317 0.893751 0
0.991699 1 0
0 0 0.465782
0 0 0.460105
0.137041 0 0.439185
0.413611 0 0.37818
0.830762 0 0.200732
0.950759 0.493278 0
0.989776 0.777691 0
0.993362 0.954391 0
0.993667 1 0
0 0.29099 0.627314
0 0.311696 0.616175
0.0842298 0.332586 0.595163
0.327153 0.346212 0.556542
0.774701 0.245838 0.430411
0.930098 0.486427 0.251225
0.986816 0.762371 0
0.994781 0.948516 0
0.996078 1 0.230579
0 0.592859 0.736736
0 0.606851 0.723445
0.214862 0.623072 0.703822
0.385519 0.636881 0.676905
0.646372 0.639658 0.640909
0.846815 0.582147 0.575051
0.961166 0.704189 0.449042
0.994156 0.891356 0.278019
0.99826 1 0.386297
0 0.725841 0.576898
0 0.747265 0.569955
0.195315 0.767773 0.561639
0.297215 0.785611 0.552056
0.432013 0.795285 0.543267
0.782238 0.82179 0.621073
0.925994 0.826093 0.552087
0.98497 0.923583 0.442695
0.998062 1 0.491051
0.272465 0.82974 0.543954
0.318517 0.846311 0.556817
0.3608 0.861952 0.57084
0.412192 0.874296 0.584833
0.466728 0.883665 0.59939
0.659785 0.911543 0.68864
0.870451 0.915923 0.751583
0.959518 0.925231 0.709651
0.997421 0.991272 0.673976
0.499733 0.907881 0.641291
0.48513 0.904448 0.629923
0.517449 0.914031 0.6495
0.549554 0.923079 0.669886
0.585504 0.930297 0.689723
0.701976 0.952987 0.766644
0.806897 0.961105 0.820783
0.927504 0.960143 0.859571
0.98407 0.967132 0.835767
0.662089 0.950347 0.748302
0.651286 0.948135 0.740093
0.639078 0.945617 0.73077
0.660777 0.950652 0.745907
0.68838 0.956725 0.765606
0.775082 0.972702 0.828229
0.836088 0.982223 0.871015
0.893935 0.985687 0.902022
0.965057 0.984161 0.923339
0.076997 0 0.262226
0.0969711 0 0.266972
0.161242 0 0.258091
0.369818 0 0.233692
0.736782 0 0.176669
0.954086 0.453498 0
0.987305 0.715282 0
0.993317 0.891997 0
0.99176 1 0
0 0 0.441413
0.0264591 0 0.451225
0.180362 0 0.437232
0.412924 0 0.380331
0.804562 0 0.261372
0.980514 0.63946 0
0.994003 0.86154 0
0.992981 0.989395 0
0.9944 1 0
0 0 0.638727
0 0 0.637003
0.121324 0 0.621454
0.39173 0 0.573373
0.807401 0 0.444678
0.984878 0.701839 0
0.995361 0.906218 0
0.994873 1 0
0.998825 1 0.454627
0 0.385657 0.784924
0 0.389838 0.778454
0.0607156 0.38735 0.763729
0.304219 0.370932 0.734188
0.740719 0.212634 0.655543
0.977249 0.660624 0.388525
0.997314 0.879499 0.127855
0.998093 0.999496 0.290806
1 1 0.560037
0.211322 0.656611 0.859419
0.264866 0.659586 0.851698
0.314336 0.661631 0.839078
0.411872 0.658503 0.819486
0.616007 0.636774 0.787579
0.932235 0.634791 0.67805
0.99115 0.802915 0.573037
1 0.951797 0.517266
1 1 0.613062
0.534264 0.820645 0.897063
0.549355 0.825315 0.889601
0.566461 0.831098 0.878996
0.601953 0.836057 0.864988
0.692317 0.834745 0.848142
0.833402 0.828809 0.829664
0.940459 0.806455 0.791333
0.994003 0.882689 0.729793
1 0.982651 0.701625
0.570092 0.880201 0.800931
0.588663 0.891951 0.796429
0.612894 0.903487 0.791684
0.638422 0.914275 0.787045
0.671366 0.921843 0.782696
0.727092 0.921996 0.780438
0.900587 0.925658 0.825055
0.972793 0.931334 0.793667
1 0.986786 0.75816
0.659586 0.93695 0.777432
0.680507 0.944427 0.785183
0.700877 0.951339 0.79353
0.72134 0.957 0.801923
0.73994 0.961242 0.809461
0.758663 0.96347 0.816083
0.84445 0.969696 0.859098
0.945113 0.968841 0.889677
0.992264 0.97557 0.869352
0.751583 0.966369 0.819181
0.759945 0.968627 0.823911
0.777417 0.972625 0.835431
0.793042 0.976059 0.846006
0.807111 0.978744 0.855222
0.818845 0.980713 0.862806
0.867857 0.988495 0.897063
0.915358 0.991409 0.922255
0.975647 0.990173 0.939513
0.0772259 0 0.407187
0.108568 0 0.383429
0.180011 0 0.388952
0.369574 0 0.361837
0.728481 0 0.302174
0.953338 0.456733 0
0.99411 0.885786 0
0.992844 0.99266 0
0.993957 1 0
0 0 0.59443
0 0 0.611719
0.181689 0 0.609628
0.40499 0 0.562737
0.784268 0 0.460395
0.977737 0.606302 0
0.995117 0.962158 0
0.995193 1 0
1 1 0.512245
0 0.176699 0.786419
0 0.193988 0.788388
0 0.176226 0.780941
0.367529 0 0.753674
0.773892 0 0.663691
0.981216 0.63653 0.410498
0.997909 0.974777 0
0.999237 1 0.438148
1 1 0.653925
0 0.564965 0.888182
0.0691234 0.562982 0.885801
0.194278 0.5505 0.878752
0.312734 0.518441 0.863294
0.690181 0.371603 0.826917
0.966049 0.58294 0.682719
1 0.943267 0.483803
1 1 0.570275
1 1 0.71397
0.42652 0.756161 0.930816
0.439826 0.754025 0.92755
0.452171 0.748241 0.921599
0.48571 0.734356 0.911421
0.60444 0.699245 0.894118
0.904448 0.629755 0.846983
1 0.87451 0.692271
1 0.981399 0.675517
1 1 0.746197
0.647761 0.862593 0.951858
0.652125 0.862547 0.948165
0.656077 0.861982 0.942519
0.667811 0.859602 0.934279
0.714031 0.850889 0.922881
0.816999 0.831434 0.907835
0.980865 0.835401 0.849226
1 0.922942 0.801678
1 0.998779 0.793591
0.791775 0.924849 0.965774
0.794781 0.926406 0.962158
0.798062 0.92845 0.957137
0.804166 0.930739 0.950545
0.820981 0.931945 0.942504
0.860548 0.929351 0.934707
0.926528 0.925963 0.92607
0.980636 0.915312 0.90724
1 0.956878 0.876982
0.800092 0.947021 0.917205
0.808911 0.95288 0.914229
0.818814 0.958953 0.911101
0.829007 0.964981 0.90811
0.840101 0.97026 0.905531
0.853468 0.973114 0.903624
0.876677 0.972366 0.902144
0.960082 0.973068 0.923919
0.999115 0.977081 0.907912
0.841199 0.976867 0.899428
0.851438 0.980835 0.902846
0.861372 0.984527 0.906615
0.870893 0.987747 0.910582
0.879438 0.990387 0.914427
0.886229 0.992081 0.917372
0.8934 0.992844 0.919783
0.933013 0.995697 0.9402
0.984527 0.994934 0.954131
0 0 0.577508
0.11078 0 0.542275
0.195834 0 0.536645
0.375235 0 0.518257
0.719097 0 0.459098
0.949081 0.432273 0.179812
0.995727 0.869856 0
0.995163 1 0
0.99971 1 0.496925
0 0 0.73431
0 0 0.754299
0.133608 0 0.761044
0.392996 0 0.734142
0.760784 0 0.657069
0.971771 0.543648 0.44947
0.998825 0.928389 0
1 1 0.503304
1 1 0.686824
0 0.476661 0.883604
0 0.487892 0.886885
0.0460365 0.481544 0.885176
0.349599 0.420218 0.874708
0.72958 0.226581 0.828824
0.969696 0.558053 0.688014
1 0.924117 0.491447
1 1 0.642191
1 1 0.769894
0.365423 0.723949 0.942794
0.382223 0.723354 0.942412
0.396429 0.714488 0.939879
0.420035 0.690929 0.933639
0.649073 0.59791 0.921813
0.935943 0.577508 0.858076
1 0.875868 0.70309
1 1 0.717845
1 1 0.808972
0.608072 0.843397 0.967376
0.610178 0.841581 0.966217
0.608804 0.836332 0.96376
0.608881 0.824567 0.959274
0.646326 0.796902 0.951827
0.861051 0.717113 0.938079
1 0.817868 0.852628
1 0.995865 0.782574
1 1 0.831174
0.756405 0.907057 0.981186
0.755795 0.905943 0.979644
0.753323 0.903593 0.977111
0.751125 0.899016 0.973144
0.762188 0.888899 0.967254
0.81384 0.867948 0.959655
0.963516 0.83389 0.937194
1 0.952331 0.861692
1 1 0.860563
0.850187 0.945983 0.990478
0.84979 0.945708 0.988708
0.848814 0.94522 0.986099
0.848249 0.94435 0.982391
0.852522 0.942321 0.97734
0.871763 0.937331 0.971725
0.917815 0.927611 0.964294
1 0.928939 0.935241
1 0.975296 0.911604
0.910887 0.972488 0.997421
0.911269 0.972976 0.995575
0.911665 0.973663 0.993103
0.912474 0.974609 0.989853
0.915038 0.975708 0.985794
0.922164 0.976165 0.981704
0.940276 0.974838 0.977661
0.97322 0.973144 0.973159
1 0.968017 0.962722
0.909453 0.980423 0.972198
0.913451 0.98352 0.970214
0.917739 0.986847 0.968109
0.922194 0.990295 0.966049
0.926818 0.993622 0.964218
0.931365 0.996109 0.96289
0.937346 0.997574 0.961868
0.948394 0.997192 0.961013
0.992264 0.997406 0.971405
0 0 0.737972
0 0 0.710597
0.189334 0 0.679408
0.377584 0 0.673899
0.70782 0 0.626459
0.942458 0.384619 0.483574
0.998138 0.837842 0
0.99765 1 0.290959
1 1 0.68278
0 0.276982 0.839063
0 0.343374 0.856321
0 0.361807 0.865553
0.372503 0.288319 0.85536
0.728435 0 0.812421
0.959655 0.483467 0.689555
1 0.876432 0.486305
1 1 0.570092
1 1 0.791516
0.253468 0.66717 0.936507
0.296101 0.678813 0.939406
0.334691 0.678782 0.939925
0.417426 0.650309 0.937301
0.685832 0.541527 0.921172
0.943175 0.559487 0.853849
1 0.859205 0.7066
1 1 0.700343
1 1 0.844495
0.577554 0.83003 0.970779
0.585046 0.831128 0.971038
0.58732 0.827192 0.970245
0.583703 0.814954 0.967727
0.666896 0.767788 0.96437
0.891188 0.688823 0.944549
1 0.820783 0.856107
1 0.992416 0.789654
1 1 0.871153
0.746059 0.902998 0.987243
0.746258 0.902296 0.986877
0.742763 0.899321 0.985809
0.735042 0.892454 0.983673
0.734478 0.877012 0.980194
0.835843 0.827771 0.977005
0.982177 0.817441 0.944366
1 0.95639 0.868666
1 1 0.88719
0.841901 0.942184 0.997452
0.840558 0.941344 0.996811
0.837186 0.939422 0.995651
0.831571 0.935775 0.993713
0.827482 0.928588 0.990723
0.840314 0.914733 0.987076
0.939376 0.876493 0.98114
1 0.922255 0.937438
1 1 0.907195
0.900862 0.96698 1
0.899596 0.966339 1
0.897353 0.965225 1
0.894194 0.963455 1
0.891615 0.960494 0.997925
0.895354 0.955398 0.99472
0.917357 0.945266 0.990631
0.992218 0.928206 0.979156
1 0.989425 0.94052
0.939757 0.984451 1
0.93901 0.984146 1
0.937911 0.983719 1
0.936584 0.983169 1
0.935683 0.982452 1
0.93724 0.981369 1
0.945922 0.978851 0.997269
0.968673 0.973922 0.993118
1 0.975433 0.976974
0.966735 0.99765 1
0.966552 0.997726 1
0.966354 0.997894 1
0.966201 0.998184 1
0.966369 0.998688 1
0.967407 0.999222 1
0.97081 0.999512 1
0.98024 0.998871 1
0.998962 0.997421 0.997696
