Arri v3 to wyCol AgX BT.709 2.4.cube
TITLE "wyCol AgX V1"
LUT_3D_SIZE 5
0.0186465 0.0140383 0.0151217
0.0647288 0 0.020676
0.190219 0 0.0591287
0.418463 0 0.124773
0.705577 0 0.114031
0 0.0632639 0
0.10193 0.103044 0
0.465858 0 0.060502
0.877653 0 0
0.991684 0.832746 0
0 0.211505 0
0 0.264668 0
0.389807 0.452491 0
0.902174 0.523369 0
0.9897 1 0
0 0.50547 0
0 0.586358 0
0 0.745495 0.314137
0.745739 0.844694 0.55433
0.980819 0.944991 0.408301
0.0500191 0.811078 0.416373
0.315892 0.86041 0.508934
0.471153 0.904646 0.608728
0.71696 0.957809 0.776989
0.92462 0.964462 0.867811
0.0180362 0 0.0613565
0.142153 0 0.0556344
0.409918 0 0.121019
0.733501 0 0.0439918
0.945724 0.381735 0
0 0.131975 0.193942
0.160784 0.166857 0.168017
0.532204 0 0.12607
0.910567 0.282887 0
0.992401 0.895644 0
0 0.326436 0
0 0.336065 0
0.481041 0.53344 0
0.930526 0.626657 0
0.990341 1 0
0 0.660136 0.183124
0 0.645945 0.1608
0.248981 0.813962 0.427619
0.804211 0.879225 0.637491
0.9879 0.970947 0.528679
0.439811 0.895933 0.587335
0.417639 0.889647 0.572503
0.585565 0.934096 0.689799
0.779629 0.970977 0.826123
0.945907 0.974472 0.896559
0.0510414 0 0.167437
0.145632 0 0.150072
0.738308 0 0.0829175
0.954345 0.44741 0
0.992889 0.894209 0
0 0 0.465782
0.137041 0 0.439185
0.830762 0 0.200732
0.989776 0.777691 0
0.993667 1 0
0 0.592859 0.736736
0.214862 0.623072 0.703822
0.646372 0.639658 0.640909
0.961166 0.704189 0.449042
0.99826 1 0.386297
0.272465 0.82974 0.543954
0.3608 0.861952 0.57084
0.466728 0.883665 0.59939
0.870451 0.915923 0.751583
0.997421 0.991272 0.673976
0.662089 0.950347 0.748302
0.639078 0.945617 0.73077
0.68838 0.956725 0.765606
0.836088 0.982223 0.871015
0.965057 0.984161 0.923339
0.0772259 0 0.407187
0.180011 0 0.388952
0.728481 0 0.302174
0.99411 0.885786 0
0.993957 1 0
0 0.176699 0.786419
0 0.176226 0.780941
0.773892 0 0.663691
0.997909 0.974777 0
1 1 0.653925
0.42652 0.756161 0.930816
0.452171 0.748241 0.921599
0.60444 0.699245 0.894118
1 0.87451 0.692271
1 1 0.746197
0.791775 0.924849 0.965774
0.798062 0.92845 0.957137
0.820981 0.931945 0.942504
0.926528 0.925963 0.92607
1 0.956878 0.876982
0.841199 0.976867 0.899428
0.861372 0.984527 0.906615
0.879438 0.990387 0.914427
0.8934 0.992844 0.919783
0.984527 0.994934 0.954131
0 0 0.737972
0.189334 0 0.679408
0.70782 0 0.626459
0.998138 0.837842 0
1 1 0.68278
0.253468 0.66717 0.936507
0.334691 0.678782 0.939925
0.685832 0.541527 0.921172
1 0.859205 0.7066
1 1 0.844495
0.746059 0.902998 0.987243
0.742763 0.899321 0.985809
0.734478 0.877012 0.980194
0.982177 0.817441 0.944366
1 1 0.88719
0.900862 0.96698 1
0.897353 0.965225 1
0.891615 0.960494 0.997925
0.917357 0.945266 0.990631
1 0.989425 0.94052
0.966735 0.99765 1
0.966354 0.997894 1
0.966369 0.998688 1
0.97081 0.999512 1
0.998962 0.997421 0.997696
