Arri v3 to wyCol AgX BT.709 2.4.cube
TITLE "wyCol AgX V1"
LUT_3D_SIZE 65
0.0186465 0.0140383 0.0151217
0.0220798 0.0106355 0.0142824
0.0250553 0.0030518 0.0136568
0.0277714 0 0.0132296
0.0303197 0 0.0129854
0.0327306 0 0.0129091
0.0350652 0 0.0129854
0.0373236 0 0.0131685
0.0395514 0 0.0134585
0.0417334 0 0.0138399
0.0439155 0 0.0142977
0.0463569 0 0.0148775
0.0491493 0 0.0155947
0.052491 0 0.0164492
0.0559548 0 0.01738
0.0621958 0 0.0304112
0.0647288 0 0.020676
0.0682994 0 0.0214694
0.0722667 0 0.0224765
0.0766003 0 0.0236667
0.0813306 0 0.0250248
0.0865187 0 0.026566
0.092195 0 0.028275
0.098436 0 0.0301976
0.105287 0 0.0323186
0.113512 0 0.0348974
0.122774 0 0.0378424
0.133043 0 0.0411078
0.143755 0 0.0445106
0.154818 0 0.0480201
0.166247 0 0.0516213
0.178042 0 0.0553292
0.190219 0 0.0591287
0.202808 0 0.0630503
0.215793 0 0.0670787
0.228565 0 0.0710002
0.241108 0 0.0748455
0.254017 0 0.0787823
0.267262 0 0.0827802
0.280888 0 0.0868544
0.29485 0 0.0910048
0.309163 0 0.095201
0.323827 0 0.099443
0.338827 0 0.103716
0.354162 0 0.108003
0.369818 0 0.112291
0.385748 0 0.116533
0.401968 0 0.120714
0.418463 0 0.124773
0.435187 0 0.128679
0.45211 0 0.132357
0.4692 0 0.135714
0.486412 0 0.138659
0.503716 0 0.141054
0.52108 0 0.14284
0.538552 0 0.144244
0.557549 0 0.145251
0.576623 0 0.145617
0.595605 0 0.14522
0.614466 0 0.143938
0.633188 0 0.141573
0.651667 0 0.137865
0.669947 0 0.132448
0.687861 0 0.124834
0.705577 0 0.114031
0.0155032 0.0197147 0.0113832
0.0224155 0.0190127 0.0114443
0.0264286 0.0162203 0.0111391
0.0297704 0.0119936 0.0109712
0.0327764 0 0.0109865
0.0355688 0 0.0112001
0.0382239 0 0.0115663
0.0407721 0 0.0120699
0.0432593 0 0.0126497
0.0456703 0 0.0133059
0.0480812 0 0.0140078
0.0507668 0 0.014847
0.0536965 0 0.0158083
0.056733 0 0.016846
0.0582437 0.0293431 0.0366064
0.0657054 0 0.0200809
0.0687877 0 0.0209506
0.0720989 0 0.0220188
0.0759899 0 0.0232853
0.0810559 0 0.0247807
0.0865949 0 0.0264591
0.0926833 0 0.0283207
0.0993973 0 0.0304112
0.106798 0 0.0327306
0.114992 0 0.0353246
0.124865 0 0.038468
0.135851 0 0.0419776
0.147234 0 0.0456092
0.158984 0 0.0493324
0.171115 0 0.0531624
0.183642 0 0.0570993
0.196582 0 0.0611429
0.209964 0 0.0653086
0.223758 0 0.0695659
0.23801 0 0.0739452
0.252018 0 0.0782177
0.265797 0 0.0823987
0.279957 0 0.0866407
0.294484 0 0.090959
0.309392 0 0.0953536
0.324666 0 0.0997787
0.340307 0 0.104234
0.356268 0 0.108705
0.37258 0 0.113161
0.389212 0 0.117571
0.406119 0 0.121904
0.423301 0 0.126101
0.440726 0 0.130114
0.458351 0 0.133852
0.476143 0 0.137224
0.494041 0 0.140108
0.512001 0 0.142306
0.530053 0 0.143999
0.548135 0 0.145235
0.566232 0 0.145937
0.584329 0 0.146029
0.603876 0 0.145296
0.623316 0 0.143526
0.642557 0 0.140429
0.66157 0 0.135729
0.680262 0 0.128954
0.698604 0 0.119326
0.716655 0 0.105348
0.734234 0 0.0835737
0.751431 0 0.0319677
0.00526436 0.0215915 0
0.0185702 0.0233616 0
0.0258488 0.0229191 0
0.0303044 0.0205081 0
0.034165 0.0169375 0
0.0375677 0.0111696 0.00418097
0.0406958 0 0.00650034
0.0436255 0 0.00823987
0.0464179 0 0.00975052
0.049134 0 0.0111086
0.0518044 0 0.0123903
0.0547494 0 0.0137484
0.0586557 0 0.0160983
0.0546273 0.0431067 0.043946
0.0659953 0 0.0185397
0.0694896 0 0.0197147
0.0730602 0 0.0210269
0.0770428 0 0.0225071
0.0814679 0 0.024155
0.0864118 0 0.0259556
0.0919203 0 0.0279393
0.0987716 0 0.0301518
0.106569 0 0.0326238
0.115236 0 0.0353857
0.124895 0 0.038468
0.13637 0 0.0421454
0.148363 0 0.0459754
0.160754 0 0.0499123
0.173556 0 0.0539559
0.186786 0 0.0581216
0.200458 0 0.0623941
0.214572 0 0.0667887
0.22916 0 0.0712902
0.244205 0 0.0759136
0.259739 0 0.0806439
0.275013 0 0.0852522
0.290028 0 0.0897383
0.305455 0 0.0942855
0.321263 0 0.0988937
0.337438 0 0.103532
0.354009 0 0.108202
0.370916 0 0.112856
0.388159 0 0.117449
0.405722 0 0.121981
0.423545 0 0.12636
0.441642 0 0.130541
0.459937 0 0.134401
0.478416 0 0.13785
0.496986 0 0.140749
0.515633 0 0.142916
0.534325 0 0.144533
0.553063 0 0.145647
0.571786 0 0.146166
0.590463 0 0.145983
0.609049 0 0.144991
0.627512 0 0.142977
0.647334 0 0.139422
0.66685 0 0.134066
0.686061 0 0.126284
0.704875 0 0.115114
0.723293 0 0.0984512
0.741283 0 0.0699779
0.758648 0 0
0.77583 0 0
0.792584 0 0
0 0.0226291 0
0.0102693 0.0250858 0
0.0217441 0.0267491 0
0.0293736 0.0264897 0
0.0340276 0.0242313 0
0.0382544 0.0209964 0
0.0420844 0.0162051 0
0.0456092 0.00547799 0
0.0488746 0 0
0.0519722 0 0
0.0550698 0 0.00784314
0.055024 0.036408 0.0344854
0.0617685 0.0106508 0.0221256
0.0656901 0 0.0153811
0.0694896 0 0.0171206
0.0733501 0 0.0188907
0.0774548 0 0.0207218
0.0820478 0 0.0226749
0.0871748 0 0.0247501
0.0928969 0 0.0269932
0.0993057 0 0.0294041
0.106462 0 0.0320287
0.114504 0 0.0349126
0.123659 0 0.0381018
0.134722 0 0.0416571
0.147189 0 0.0456397
0.160159 0 0.0497749
0.173587 0 0.0540169
0.187457 0 0.0583963
0.201785 0 0.0628824
0.216602 0 0.0674907
0.231907 0 0.072221
0.247715 0 0.0770733
0.264027 0 0.0820325
0.280858 0 0.0870985
0.297414 0 0.0920119
0.313695 0 0.096788
0.330373 0 0.10161
0.347463 0 0.106447
0.36492 0 0.111269
0.382727 0 0.116075
0.40087 0 0.12079
0.419318 0 0.125353
0.438361 0 0.129809
0.457664 0 0.133944
0.47718 0 0.137636
0.496818 0 0.140719
0.516533 0 0.142992
0.536324 0 0.144671
0.556146 0 0.145769
0.575967 0 0.146197
0.595712 0 0.1458
0.615351 0 0.144427
0.634806 0 0.141863
0.654063 0 0.137819
0.673045 0 0.131868
0.693202 0 0.122545
0.712932 0 0.108751
0.732189 0 0.0868086
0.750881 0 0.0359503
0.769039 0 0
0.786511 0 0
0.803357 0 0
0.819532 0 0
0.834913 0 0
0 0.024094 0
0 0.0267338 0
0.0141146 0.0289006 0
0.0251316 0.0303197 0
0.0332036 0.0301061 0
0.0380407 0.0279088 0
0.0425422 0.0248417 0
0.0467536 0.0204776 0
0.0507668 0.0241093 0
0.0522469 0.0433204 0.0384222
0.0569162 0.034638 0.0254673
0.0608835 0 0
0.0647135 0 0.0071107
0.0687114 0 0.0113222
0.0728923 0 0.0145266
0.0771496 0 0.017258
0.0818189 0 0.0198215
0.0870222 0 0.022385
0.0928511 0 0.0250095
0.099382 0 0.0277409
0.106722 0 0.0306554
0.114992 0 0.0337987
0.1243 0 0.0372168
0.134661 0 0.0409247
0.145556 0 0.0447395
0.158007 0 0.0489967
0.171588 0 0.0534524
0.186267 0 0.0580758
0.20145 0 0.0628214
0.217166 0 0.0677043
0.233433 0 0.0727092
0.250248 0 0.0778668
0.267628 0 0.0831311
0.285573 0 0.0885023
0.304067 0 0.0939803
0.322271 0 0.0992752
0.340185 0 0.104387
0.358526 0 0.109529
0.377295 0 0.114626
0.396429 0 0.119646
0.41593 0 0.124544
0.435737 0 0.129213
0.455802 0 0.133562
0.476066 0 0.137438
0.496483 0 0.140673
0.51696 0 0.143038
0.537514 0 0.144762
0.558099 0 0.145846
0.578653 0 0.146197
0.59913 0 0.145632
0.619471 0 0.143999
0.639582 0 0.141009
0.659449 0 0.136355
0.678996 0 0.129488
0.698177 0 0.1196
0.716976 0 0.105043
0.736767 0 0.0791943
0.755932 0 0
0.774487 0 0
0.792386 0 0
0.809476 0 0
0.825864 0 0
0.841459 0 0
0.856245 0 0
0.870176 0 0
0 0.0261082 0
0 0.028397 0
0 0.0310674 0
0.0175784 0.0331884 0
0.0286259 0.0346227 0
0.0373388 0.0346227 0
0.0446632 0.0386969 0
0.0509499 0.0487068 0.0486458
0.0525826 0.0374456 0.00814832
0.055024 0.025742 0
0.0586404 0.0198367 0
0.0625772 0 0
0.0669566 0 0
0.071458 0 0
0.0761425 0 0.00866712
0.0809644 0 0.0140993
0.0863508 0 0.0181277
0.0923629 0 0.0216678
0.0991226 0 0.0250553
0.106752 0 0.0284733
0.115358 0 0.0320439
0.125124 0 0.0358587
0.135958 0 0.0399023
0.147326 0 0.0439918
0.159228 0 0.0481727
0.172702 0 0.0528115
0.186923 0 0.0576028
0.201801 0 0.062562
0.21735 0 0.0676738
0.23415 0 0.0729381
0.251774 0 0.0783246
0.269993 0 0.0838331
0.288823 0 0.0894636
0.308232 0 0.095201
0.328237 0 0.100984
0.347875 0 0.106554
0.367178 0 0.111894
0.386923 0 0.117174
0.40705 0 0.122347
0.427512 0 0.127306
0.44828 0 0.131975
0.469276 0 0.136202
0.49044 0 0.139803
0.511681 0 0.142504
0.532998 0 0.144427
0.55436 0 0.145708
0.575692 0 0.146197
0.596918 0 0.145739
0.618021 0 0.144152
0.63888 0 0.141146
0.659449 0 0.136355
0.679683 0 0.129198
0.699504 0 0.118761
0.718883 0 0.103166
0.737774 0 0.0773327
0.756146 0 0
0.77528 0 0
0.793698 0 0
0.811322 0 0
0.828107 0 0
0.844068 0 0
0.859159 0 0
0.87335 0 0
0.88661 0 0
0.89897 0 0
0 0.0284428 0
0 0.0302586 0
0 0.0328832 0
0 0.035462 0
0.0364996 0.0445106 0.017258
0.0487068 0.0492103 0.0395514
0.0446021 0.0433356 0
0.0468757 0.0378424 0
0.0512551 0.0355077 0
0.0555276 0.0324712 0
0.0597543 0.0284276 0
0.0643473 0.0218357 0
0.069398 0 0
0.0744945 0 0
0.0797894 0 0
0.0852979 0 0.00866712
0.0914168 0 0.0157168
0.0982528 0 0.0205539
0.105943 0 0.0248569
0.114656 0 0.0290379
0.124544 0 0.0333104
0.135546 0 0.0377356
0.147112 0 0.0421454
0.159258 0 0.0465705
0.171969 0 0.0510719
0.186419 0 0.0560616
0.201648 0 0.0612192
0.217594 0 0.0665293
0.234272 0 0.0720073
0.251698 0 0.0776532
0.269856 0 0.0834516
0.288731 0 0.0894331
0.308934 0 0.0953994
0.329793 0 0.101442
0.351232 0 0.1075
0.372259 0 0.113268
0.392905 0 0.118746
0.413947 0 0.124056
0.435325 0 0.129122
0.456992 0 0.133806
0.478874 0 0.137942
0.500893 0 0.141268
0.522957 0 0.143603
0.545098 0 0.145235
0.567224 0 0.146105
0.589273 0 0.146029
0.61117 0 0.144808
0.632837 0 0.142184
0.654231 0 0.137774
0.675242 0 0.131014
0.695842 0 0.121019
0.715969 0 0.106004
0.735561 0 0.0813458
0.754559 0 0
0.772946 0 0
0.790692 0 0
0.808988 0 0
0.826429 0 0
0.842954 0 0
0.858549 0 0
0.873182 0 0
0.88687 0 0
0.89955 0 0
0.911284 0 0
0.922087 0.189807 0
0 0.0312505 0
0 0.033463 0
0.0329747 0.046952 0.0285344
0.0345464 0.0481575 0.0255589
0.0201572 0.0412909 0
0.0284886 0.0424811 0
0.037705 0.0435492 0
0.0461585 0.0437476 0
0.0509804 0.0419318 0
0.0557107 0.0396124 0
0.0603952 0.0365911 0
0.0655528 0.0320745 0
0.0712444 0.0243687 0
0.076997 0 0
0.0829175 0 0
0.0891585 0 0
0.0960555 0 0.00996414
0.103777 0 0.0180972
0.112474 0 0.0238346
0.122332 0 0.0290227
0.133379 0 0.0341039
0.145068 0 0.0389715
0.157336 0 0.0437629
0.17023 0 0.0485389
0.183734 0 0.0533913
0.199115 0 0.058732
0.215335 0 0.0642405
0.232334 0 0.0698863
0.250126 0 0.0757
0.268711 0 0.0816663
0.28806 0 0.0878004
0.308202 0 0.0940719
0.329076 0 0.100465
0.350698 0 0.10695
0.373007 0 0.113481
0.395361 0 0.119371
0.417243 0 0.124865
0.43949 0 0.130053
0.462028 0 0.134813
0.484749 0 0.138918
0.507591 0 0.142077
0.53048 0 0.144244
0.553414 0 0.145663
0.576288 0 0.146197
0.599054 0 0.145632
0.621607 0 0.14374
0.643885 0 0.140169
0.665782 0 0.134417
0.687266 0 0.125689
0.708263 0 0.112566
0.72871 0 0.0917525
0.748562 0 0.0479591
0.767727 0 0
0.786175 0 0
0.803906 0 0
0.820844 0 0
0.838178 0 0
0.85452 0 0
0.869856 0 0
0.884138 0 0
0.897383 0 0
0.909621 0 0
0.920851 0.176822 0
0.931029 0.266041 0
0.940291 0.331182 0
0.0413672 0.0492409 0.0408331
0 0.0436713 0
0 0.0381628 0
0 0.0406043 0
0 0.0428321 0
0.019791 0.044831 0
0.0309453 0.046479 0
0.0408331 0.0476844 0
0.0502022 0.0481422 0
0.0553292 0.0463111 0
0.0604257 0.0439612 0
0.0660563 0.040528 0
0.0723583 0.0351568 0
0.0787671 0.0265965 0
0.0853895 0 0
0.0923781 0 0
0.10013 0 0
0.108782 0 0.0126192
0.118532 0 0.0215152
0.129549 0 0.0281987
0.141299 0 0.0340124
0.153643 0 0.0394293
0.166613 0 0.0446479
0.180224 0 0.0498207
0.194522 0 0.055024
0.210819 0 0.0607462
0.228 0 0.0665904
0.246021 0 0.0725719
0.264866 0 0.0786908
0.284581 0 0.0849622
0.305089 0 0.091371
0.326421 0 0.0978866
0.348531 0 0.104479
0.371359 0 0.111101
0.394888 0 0.117693
0.417929 0 0.123873
0.440543 0 0.12961
0.463539 0 0.135027
0.487053 0 0.139284
0.510704 0 0.142412
0.534386 0 0.144533
0.558099 0 0.145846
0.581735 0 0.146166
0.605219 0 0.145266
0.628443 0 0.142855
0.651347 0 0.138491
0.673823 0 0.131563
0.695811 0 0.121035
0.71725 0 0.104784
0.738064 0 0.0767529
0.75819 0 0
0.777615 0 0
0.796231 0 0
0.814023 0 0
0.830945 0 0
0.846998 0 0
0.863264 0 0
0.878416 0 0
0.89247 0 0
0.905455 0 0
0.917327 0.131807 0
0.928145 0.243687 0
0.937942 0.315267 0
0.9467 0.373465 0
0.954543 0.424933 0
0 0.0366217 0
0 0.0377661 0
0 0.0396277 0
0 0.0419318 0
0 0.0445411 0
0 0.0469368 0
0.0223239 0.0490425 0
0.0339055 0.050782 0
0.0442664 0.0520638 0
0.0544289 0.0527352 0
0.0599527 0.0508736 0
0.0660258 0.0481575 0
0.0728466 0.0440375 0
0.0798505 0.0380407 0
0.087129 0.0280003 0
0.0948501 0 0
0.103456 0 0
0.113085 0 0
0.123934 0 0.0166934
0.13579 0 0.0258946
0.148196 0 0.0328069
0.161227 0 0.0389258
0.174884 0 0.0446937
0.189242 0 0.0503243
0.204318 0 0.0559091
0.221485 0 0.0619974
0.239612 0 0.0681926
0.25861 0 0.0744945
0.278508 0 0.0809033
0.299275 0 0.0874342
0.320912 0 0.0940566
0.343389 0 0.10074
0.366644 0 0.107424
0.390631 0 0.114046
0.415274 0 0.120516
0.439368 0 0.12639
0.462943 0 0.131609
0.486809 0 0.136202
0.510872 0 0.13991
0.535103 0 0.142977
0.559411 0 0.145312
0.583734 0 0.146136
0.60795 0 0.145068
0.631907 0 0.142336
0.655467 0 0.137453
0.678553 0 0.129671
0.701106 0 0.117723
0.723049 0 0.0987411
0.744305 0 0.0623941
0.764813 0 0
0.784512 0 0
0.803372 0 0
0.821317 0 0
0.838346 0 0
0.854398 0 0
0.869505 0 0
0.884627 0 0
0.898589 0 0
0.911391 0 0
0.923049 0.199237 0
0.933593 0.284871 0
0.943053 0.349554 0
0.951492 0.404868 0
0.958938 0.454444 0
0.965423 0.500053 0
0 0.0392767 0
0 0.0400397 0
0 0.0415045 0
0 0.0434882 0
0 0.0461585 0
0 0.0488594 0
0 0.0513466 0
0.0251164 0.0535134 0
0.0370489 0.0553292 0
0.047837 0.056672 0
0.0585794 0.057435 0
0.0655222 0.055436 0
0.0728008 0.0521706 0
0.0803235 0.0475319 0
0.0882277 0.0405737 0
0.0965744 0.0285954 0
0.105974 0 0
0.116548 0 0
0.128435 0 0
0.140993 0 0.0209506
0.154101 0 0.0299687
0.167819 0 0.037171
0.182208 0 0.0436713
0.197314 0 0.049836
0.213153 0 0.0558785
0.231235 0 0.0623941
0.250263 0 0.0689555
0.270237 0 0.0755627
0.291157 0 0.0822461
0.312978 0 0.0889906
0.335683 0 0.0957656
0.359243 0 0.10251
0.383597 0 0.109178
0.408667 0 0.115618
0.434363 0 0.121675
0.459388 0 0.126909
0.483787 0 0.131151
0.508461 0 0.134707
0.533318 0 0.137621
0.558267 0 0.139742
0.5832 0 0.140871
0.607996 0 0.140749
0.632532 0 0.139025
0.656733 0 0.135241
0.680461 0 0.128695
0.703655 0 0.115984
0.726162 0 0.0950637
0.747936 0 0.0504921
0.768902 0 0
0.788998 0 0
0.808179 0 0
0.826398 0 0
0.84361 0 0
0.859785 0 0
0.874922 0 0
0.889006 0 0
0.902968 0 0
0.915709 0.102892 0
0.92726 0.236469 0
0.937636 0.313176 0
0.946899 0.374746 0
0.955077 0.428565 0
0.962249 0.477363 0
0.968444 0.522393 0
0.973739 0.564645 0
0 0.0423896 0
0 0.043183 0
0 0.0439918 0
0 0.0458228 0
0 0.0478676 0
0 0.0508583 0
0 0.0536812 0
0 0.05626 0
0.0267643 0.0585489 0
0.0393225 0.0604868 0
0.0507668 0.0619974 0
0.0634928 0.062974 0
0.072221 0.0607767 0
0.0802625 0.0571603 0
0.0887617 0.0519417 0
0.0976577 0.0441901 0
0.10779 0.0295872 0
0.119326 0 0
0.132082 0 0
0.145418 0 0
0.159335 0 0.0233616
0.173877 0 0.0330205
0.189105 0 0.0408026
0.205066 0 0.047837
0.22179 0 0.0545052
0.240864 0 0.0615854
0.260945 0 0.068574
0.281987 0 0.0755322
0.30399 0 0.082475
0.32694 0 0.0893873
0.35082 0 0.0962387
0.37554 0 0.102922
0.401038 0 0.109316
0.427222 0 0.115251
0.453956 0 0.120439
0.479942 0 0.124605
0.505257 0 0.128054
0.530816 0 0.1308
0.556481 0 0.132677
0.582116 0 0.133425
0.607614 0 0.132738
0.632853 0 0.13019
0.657694 0 0.125154
0.682063 0 0.116625
0.705837 0 0.102647
0.728939 0 0.0779583
0.751278 0 0
0.772763 0 0
0.793347 0 0
0.812879 0 0
0.831357 0 0
0.848753 0 0
0.865049 0 0
0.880217 0 0
0.894255 0 0
0.907195 0 0
0.91986 0.165515 0
0.931258 0.267781 0
0.941466 0.33901 0
0.9505 0.398291 0
0.958419 0.450919 0
0.965286 0.499077 0
0.971191 0.543755 0
0.97615 0.585458 0
0.980301 0.624903 0
0 0.0460975 0
0 0.0469215 0
0 0.0477455 0
0 0.0485847 0
0 0.0507362 0
0 0.0529793 0
0 0.0561074 0
0 0.0590677 0
0 0.061799 0
0.0265812 0.0642557 0
0.0404517 0.066392 0
0.054139 0.0682994 0
0.0693523 0.0695659 0
0.0795758 0.0674144 0
0.0886397 0.0634012 0
0.0980392 0.0578164 0
0.108751 0.0489662 0
0.121096 0.0313268 0
0.134508 0 0
0.148608 0 0
0.163363 0 0
0.17882 0 0.0229038
0.194995 0 0.0342412
0.211917 0 0.0429847
0.229618 0 0.0507515
0.249821 0 0.0586404
0.271015 0 0.0662242
0.293187 0 0.0735943
0.316365 0 0.0808118
0.340475 0 0.0878309
0.365515 0 0.0945754
0.391394 0 0.100938
0.41799 0 0.106691
0.445228 0 0.111666
0.47303 0 0.116075
0.499992 0 0.119631
0.526192 0 0.122271
0.552529 0 0.123934
0.578866 0 0.124331
0.605066 0 0.123064
0.630991 0 0.119631
0.656489 0 0.113161
0.681498 0 0.102129
0.705882 0 0.0829023
0.729534 0 0.0355077
0.752377 0 0
0.774319 0 0
0.7953 0 0
0.815244 0 0
0.834104 0 0
0.85185 0 0
0.868421 0 0
0.883833 0 0
0.898024 0 0
0.910933 0 0
0.922683 0.195697 0
0.934066 0.288212 0
0.944167 0.356909 0
0.953079 0.415259 0
0.96083 0.467475 0
0.967498 0.515343 0
0.973175 0.559853 0
0.97792 0.601602 0
0.981811 0.640787 0
0.984955 0.677806 0
0 0.0500954 0
0 0.0509499 0
0 0.0518044 0
0 0.0526589 0
0 0.0537423 0
0 0.0559854 0
0 0.0584421 0
0 0.0617075 0
0 0.0648051 0
0 0.067689 0
0.0256809 0.0703593 0
0.0428168 0.0729686 0
0.0591897 0.075288 0
0.0760052 0.0767224 0
0.087892 0.0744945 0
0.0977188 0.0702068 0
0.108827 0.0638895 0
0.12163 0.0535592 0
0.13547 0.0339513 0
0.150134 0 0
0.165591 0 0
0.181857 0 0
0.198932 0 0.017792
0.216815 0 0.0330358
0.235538 0 0.0431983
0.25687 0 0.0525673
0.27921 0 0.0610361
0.302556 0 0.0689403
0.326879 0 0.0764019
0.352163 0 0.0834058
0.378332 0 0.0898299
0.405295 0 0.0955215
0.433005 0 0.100694
0.461372 0 0.105318
0.490242 0 0.109209
0.518135 0 0.111986
0.545159 0 0.113542
0.572213 0 0.11368
0.599145 0 0.11194
0.625803 0 0.107637
0.652064 0 0.0995651
0.677806 0 0.0852827
0.702892 0 0.0562448
0.727199 0 0
0.750683 0 0
0.773205 0 0
0.79472 0 0
0.815122 0 0
0.834409 0 0
0.852491 0 0
0.869352 0 0
0.884993 0 0
0.899382 0 0
0.912535 0.0913405 0
0.924483 0.227588 0
