BMD Gen 5 to wyCol AgX BT.709 2.4.cube
TITLE "wyCol AgX V1"
LUT_3D_SIZE 5
0.0303502 0.0265354 0.0273289
0.0709392 0 0.0245518
0.127565 0 0.0394446
0.618784 0 0.14406
0 0 0
0 0.0619364 0
0.0918135 0.0934005 0
0.476448 0 0.116121
0.55433 0 0.145708
0 0 0
0 0.25301 0
0 0.293538 0
0.393652 0.470756 0
0.372732 0 0.0889143
0 0 0
0 0.501869 0
0 0.514122 0
0 0.563668 0
0 0.279789 0
0 0 0
0 0 0
0 0 0
0 0 0
0 0 0
0 0 0
0.028687 0 0.075227
0.134813 0 0.0582437
0.298314 0 0.0918288
0.0527047 0 0.0157473
0 0 0
0 0.126848 0.172534
0.143084 0.148333 0.14934
0.518685 0 0.101015
0.0497292 0 0.0148318
0 0 0
0 0.331258 0
0 0.344213 0
0.47863 0.547127 0
0.470466 0 0.0766766
0 0 0
0 0.561044 0
0 0.573236 0
0 0.621714 0.118242
0.0680858 0.325856 0
0 0 0
0 0 0
0 0 0
0 0 0
0 0 0
0 0 0
0.0844892 0 0.305135
0.200214 0 0.270726
0.830533 0 0
0.351232 0 0.1075
0.0501717 0 0.0149538
0 0 0.522133
0.167926 0 0.495109
0.900053 0.268284 0
0.398413 0 0.119844
0.0380865 0 0.0112459
0.280064 0.686671 0.779385
0.341299 0.697581 0.762142
0.710185 0.698878 0.700954
0.98761 0.845899 0
0 0 0
0.514458 0.913024 0.648051
0.521157 0.915022 0.652064
0.608774 0.932418 0.701457
0.887892 0.938155 0.795102
0 0 0
0 0 0
0 0 0
0 0 0
0 0 0
0 0 0
0.535332 0.620722 0.918685
0.566979 0.607172 0.916747
0.85359 0.50222 0.875044
0.88838 0 0
1 1 1
0.535531 0.666484 0.926467
0.562402 0.655177 0.925124
0.834913 0.548836 0.89424
0.993271 0.982162 0
1 1 1
0.670756 0.838727 0.953994
0.67483 0.836408 0.95314
0.748821 0.803677 0.9458
1 0.963851 0.773938
1 1 1
0.895766 0.967346 0.978195
0.896254 0.967407 0.977813
0.902678 0.967666 0.974472
0.963119 0.963424 0.963485
1 1 0.885603
0.940642 1 0.957916
0.940688 1 0.957946
0.941268 1 0.958312
0.950759 1 0.964858
0.997162 1 0.979995
0.935119 0.957717 1
0.935363 0.957595 1
0.939147 0.955642 1
0.991913 0.938827 0.998978
0.995468 1 0.298817
0.935164 0.958144 1
0.935409 0.958007 1
0.939132 0.956085 1
0.991623 0.939178 0.999176
0.993118 1 0
0.936141 0.963424 1
0.936355 0.963317 1
0.939406 0.961654 1
0.987823 0.944121 1
0.990616 0.984482 0
0.960388 0.989136 1
0.960418 0.989105 1
0.9608 0.988754 1
0.971313 0.982727 1
1 1 0.976806
0.998886 1 1
0.998886 1 1
0.998947 1 1
1 1 1
1 1 1
