BMD DWG to wyCol AgX BT.709 2.4.cube
TITLE "wyCol AgX V1"
LUT_3D_SIZE 9
0.0536965 0.0517891 0.0521706
0.080415 0 0.0422675
0.121309 0 0.0391089
0.102983 0 0.0315709
0.0355535 0 0.0104829
0.0445563 0 0.0132296
0.688045 0 0.125292
0.808209 0 0
0.731151 0 0.0883497
0 0.0640269 0
0.0771954 0.0791485 0
0.163256 0 0.0303044
0.226749 0 0.0706645
0.0344701 0 0.0101472
0.0433661 0 0.0128634
0.660822 0 0.135943
0.784344 0 0
0.702388 0 0.116854
0 0.0929427 0
0 0.101549 0
0.14519 0.162524 0
0.337255 0 0
0.500984 0 0.141283
0.0395666 0 0.0117037
0.570657 0 0.146151
0.699886 0 0.118517
0.604944 0 0.145281
0 0.163699 0
0 0.16199 0
0 0.223117 0
0.248325 0.300526 0
0.442847 0 0
0.395041 0 0.119295
0.295415 0 0.0914168
0.395712 0 0.119463
0.299077 0 0.0925002
0 0.224308 0
0 0.217914 0
0 0.235935 0
0 0.355901 0
0.294392 0.386542 0
0.252934 0.0725414 0
0.00701915 0 0.00201419
0 0 0
0 0 0
0 0.089189 0
0 0.0870222 0
0 0.0806134 0
0 0.203586 0
0 0.364706 0
0.0993057 0.239918 0
0 0 0
0 0 0
0 0 0
0 0 0
0 0 0
0 0 0
0 0 0
0 0.0189517 0
0 0.0832227 0
0 0 0
0 0 0
0 0 0
0 0 0
0 0 0
0 0 0
0 0 0
0 0 0
0 0 0
0 0 0
0 0 0
0 0 0
0 0 0
0 0 0
0 0 0
0 0 0
0 0 0
0 0 0
0 0 0
0 0 0
0 0 0
0.0483711 0.0417334 0.0777752
0.106935 0 0.0608835
0.170245 0 0.0587167
0.16112 0 0.0501869
0.038468 0 0.011368
0.0457008 0 0.0135805
0.713207 0 0.108507
0.829541 0 0
0.757397 0 0
0 0.0945754 0.116091
0.0982834 0.100786 0.101259
0.188724 0 0.074342
0.245548 0 0.076112
0.0354925 0 0.0104677
0.0444953 0 0.0132143
0.686641 0 0.125994
0.806989 0 0
0.729686 0 0.0904402
0 0.127672 0
0 0.12723 0
0.163684 0.184558 0
0.360891 0 0
0.490959 0 0.139879
0.0406806 0 0.0120394
0.597574 0 0.145708
0.725963 0 0.0952926
0.634363 0 0.141939
0 0.201663 0
0 0.194308 0
0 0.248371 0
0.276509 0.327199 0
0.486305 0 0
0.446845 0 0.13167
0.316991 0 0.0977493
0.421942 0 0.125994
0.323018 0 0.0994888
0 0.268833 0
0 0.261845 0
0 0.251881 0
0 0.387076 0
0.325444 0.416831 0
0.280446 0.0860761 0
0.0121462 0 0.00349432
0 0 0
0 0 0
0 0.105989 0
0 0.103197 0
0 0.0949569 0
0 0.219562 0
0 0.386252 0
0.114153 0.256458 0
0 0 0
0 0 0
0 0 0
0 0 0
0 0 0
0 0 0
0 0 0
0 0.0225376 0
0 0.0903944 0
0 0 0
0 0 0
0 0 0
0 0 0
0 0 0
0 0 0
0 0 0
0 0 0
0 0 0
0 0 0
0 0 0
0 0 0
0 0 0
0 0 0
0 0 0
0 0 0
0 0 0
0 0 0
0 0 0
0 0 0
0 0 0
0.0451209 0 0.13051
0.101534 0 0.109071
0.280995 0 0.0979782
0.338888 0 0.104692
0.0633402 0 0.019028
0.0597238 0 0.0179141
0.805081 0 0
0.888716 0 0
0.833295 0 0
0 0.0226139 0.195987
0.0811017 0.0625162 0.181155
0.301472 0 0.124269
0.437827 0 0.128069
0.0652018 0 0.0195621
0.054963 0 0.0164492
0.764706 0 0
0.870848 0 0
0.809827 0 0
0 0.211475 0.302174
0 0.227543 0.287648
0.23447 0.244053 0.245884
0.440177 0 0.168383
0.49192 0 0.130098
0.0442817 0 0.0131533
0.682109 0 0.12813
0.803082 0 0
0.724941 0 0.0965286
0 0.306172 0.17142
0 0.313695 0.155673
0 0.341192 0.101747
0.371344 0.415976 0
0.616876 0.147402 0
0.632105 0 0.142306
0.391699 0 0.118425
0.509804 0 0.142306
0.406455 0 0.122194
0 0.434928 0
0 0.422415 0
0 0.388754 0
0 0.499413 0
0.437217 0.521096 0
0.386099 0.134051 0
0.0289464 0 0.00848402
0.0131991 0 0.00381476
0 0 0
0 0.194491 0
0 0.189654 0
0 0.174426 0
0 0.273976 0
0 0.472648 0
0.167071 0.31397 0
0 0 0
0 0 0
0 0 0
0 0 0
0 0 0
0 0 0
0 0 0
0 0.0344549 0
0 0.120897 0
0 0 0
0 0 0
0 0 0
0 0 0
0 0 0
0 0 0
0 0 0
0 0 0
0 0 0
0 0 0
0 0 0
0 0 0
0 0 0
0 0 0
0 0 0
0 0 0
0 0 0
0 0 0
0 0 0
0 0 0
0 0 0
0.0560922 0 0.207721
0.100603 0 0.190829
0.261662 0 0.135073
0.511772 0 0.136599
0.250843 0 0.078233
0.147463 0 0.0458076
0.994278 1 0.141344
0.992172 0.843 0
0.973205 0.560189 0
0 0 0.301625
0.0672313 0 0.2878
0.278096 0 0.218189
0.619898 0 0.145296
0.244388 0 0.0768902
0.133944 0 0.0414893
0.991302 1 0
0.987716 0.717601 0
0.966323 0.50663 0
0 0.126909 0.465599
0 0.15845 0.453239
0.203571 0.191928 0.406561
0.640696 0 0.268925
0.818387 0 0
0.0983139 0 0.0300908
0.991958 0.914229 0
0.960235 0.463355 0
0.934157 0.288869 0
0 0.422873 0.616968
0 0.443229 0.605081
0.117922 0.484688 0.560143
0.489189 0.494881 0.495933
0.756146 0.32958 0.344869
0.838453 0 0
0.66717 0 0.133959
0.790066 0 0
0.70927 0 0.111788
0 0.563836 0.483207
0 0.56405 0.462623
0 0.574075 0.388937
0 0.648829 0.334264
0.652598 0.702403 0.379995
0.798627 0.497368 0
0.107546 0 0.0330205
0.060914 0 0.0182956
0.0366217 0 0.0108034
0 0.583581 0.375296
0 0.624598 0.390463
0 0.702647 0.410208
0 0.686152 0.29662
0.288838 0.788388 0.390219
0.48011 0.627298 0.126238
0.0454871 0.035935 0
0 0 0
0 0 0
0 0.134676 0
0 0.130541 0
0 0.118486 0
0 0.088838 0
0 0.0796063 0
0 0.294301 0
0 0.0121767 0
0 0 0
0 0 0
0 0 0
0 0 0
0 0 0
0 0 0
0 0 0
0 0 0
0 0 0
0 0 0
0 0 0
0 0 0
0 0 0
0 0 0
0 0 0
0 0 0
0 0 0
0 0 0
0 0 0
0 0 0
0.0706035 0 0.25893
0.0963455 0 0.253437
0.224796 0 0.194797
0.456107 0 0.143252
0.416266 0 0.122301
0.419303 0 0.125109
0.866789 0 0
1 1 1
1 1 0.912627
0 0 0.395865
0.0418402 0 0.389502
0.248829 0 0.317723
0.573098 0 0.194598
0.401801 0 0.119677
0.436042 0 0.128649
0.849302 0 0
1 1 1
1 1 0.885786
0 0 0.635447
0 0 0.628702
0.173861 0 0.586236
0.606775 0 0.454414
0.920317 0.264195 0
0.469169 0 0.133684
0.785183 0 0
1 1 1
1 1 0.729763
0 0.466575 0.779736
0 0.479393 0.774212
0.127047 0.494133 0.743236
0.440635 0.473701 0.687327
0.900511 0.44564 0.48127
0.985809 0.718227 0
0.521416 0 0.143465
1 1 0.993606
0.990036 1 0
0.28127 0.692317 0.866453
0.269657 0.689036 0.858351
0.314763 0.719432 0.844648
0.494209 0.752209 0.786221
0.747189 0.737911 0.739605
0.916259 0.674632 0.610803
0.980514 0.725124 0
0.744884 0 0.0607156
0.656321 0 0.137224
0.31899 0.722148 0.843809
0.337148 0.732982 0.842466
0.367864 0.756634 0.828153
0.301076 0.780621 0.698558
0.524987 0.868818 0.639109
0.833082 0.877516 0.689998
0.883665 0.733318 0
0 0 0
0 0 0
0.683619 0.876539 0.971389
0.666377 0.869169 0.967956
0.607401 0.843519 0.955032
0.38967 0.747662 0.881712
0.45861 0.884367 0.647501
0.648493 0.928008 0.699886
0.215381 0.44448 0
0 0 0
0 0 0
0 0 0
0 0 0
0 0 0
0 0 0
0 0 0
0 0 0
0 0 0
0 0 0
0 0 0
0 0 0
0 0 0
0 0 0
0 0 0
0 0 0
0 0 0
0 0 0
0 0 0
0 0 0
0.10042 0 0.311223
0.0995499 0 0.298787
0.162234 0 0.193088
0.353246 0 0.132265
0.574411 0 0.136095
0.667582 0 0.129641
0.935714 0.299901 0
1 1 1
1 1 1
0.0811627 0 0.363973
0.0854353 0 0.33994
0.165164 0 0.268177
0.385229 0 0.166903
0.552422 0 0.137026
0.678859 0 0.123522
0.924666 0.214313 0
1 1 0.999359
1 1 1
0 0 0.725124
0 0 0.733303
0.0567636 0 0.713283
0.561517 0 0.568383
0.826322 0 0
0.695644 0 0.108156
0.880919 0 0
1 1 0.994888
1 1 1
0 0.568612 0.879332
0 0.581018 0.88098
0.178195 0.584909 0.871412
0.39852 0.526497 0.833219
0.879133 0.387381 0.711833
0.994736 0.857847 0
0.657252 0 0.136965
1 1 0.97525
1 1 1
0.475685 0.781003 0.93753
0.461967 0.774395 0.933364
0.466819 0.777752 0.927642
0.537499 0.778866 0.894804
0.717174 0.737942 0.862318
0.979004 0.755337 0.726253
0.998642 0.97969 0.279011
1 1 0.73463
1 1 1
0.730861 0.896437 0.979492
0.734356 0.897902 0.979477
0.735149 0.898283 0.977569
0.674449 0.874815 0.952148
0.766506 0.894392 0.905074
0.885176 0.88304 0.883436
0.972061 0.856962 0.816205
0.993347 0.990768 0
0.475715 0 0.137377
0.928923 0.9794 1
0.92398 0.977172 1
0.906249 0.96936 1
0.82237 0.934157 0.994827
0.699397 0.895079 0.922972
0.783749 0.953597 0.835431
0.926635 0.951827 0.861814
0.911711 0.830365 0.410636
0 0 0
1 1 1
1 1 1
1 1 1
1 1 1
1 1 1
0.489708 0.813931 0.853986
0.842985 0.978164 0.867308
0 0.00224308 0
0 0 0
0 0 0
0 0 0
0 0 0
0 0 0
0 0 0
0 0 0
0 0 0
0 0 0
0 0 0
0.106645 0 0.389166
0.106172 0 0.371847
0.11249 0 0.314549
0.545754 0 0.15407
0.774578 0 0
0.828138 0 0
0.979767 0.61941 0
1 1 1
1 1 1
0.105684 0 0.429267
0.106554 0 0.409415
0.108095 0 0.348226
0.503304 0 0.164309
0.758862 0 0
0.838132 0 0
0.975372 0.578531 0
1 1 1
1 1 1
0 0 0.595285
0.0550088 0 0.568414
0.101335 0 0.467796
0.357015 0 0.222217
0.684993 0 0.121141
0.855802 0 0
0.954894 0.427359 0
1 1 1
1 1 1
0.181552 0.634134 0.920195
0.190051 0.637537 0.92076
0.199954 0.641611 0.92047
0.348196 0.615351 0.909178
0.849882 0.356161 0.815488
0.760189 0 0
0.804227 0 0
1 1 0.991104
1 1 1
0.634501 0.855283 0.972107
0.633036 0.854612 0.971572
0.615335 0.846647 0.967834
0.619577 0.839277 0.955596
0.696712 0.789837 0.936889
0.964385 0.725139 0.873976
1 1 0.484108
1 1 0.843046
1 1 1
0.770901 0.91313 0.988968
0.781826 0.917601 0.990234
0.803952 0.926635 0.99266
0.788449 0.920211 0.987091
0.791012 0.908049 0.958663
0.869139 0.885008 0.943694
1 0.894179 0.876631
1 1 0.739498
1 1 1
0.992966 1 1
0.991287 1 1
0.985397 1 1
0.95874 0.993271 1
0.895766 0.964782 1
0.897414 0.958404 0.963287
0.952636 0.952758 0.952789
0.998398 0.941222 0.919234
1 1 0.656718
1 1 1
1 1 1
1 1 1
1 1 1
1 1 1
0.859113 0.949294 0.99826
0.905791 0.987945 0.929839
0.975174 0.986496 0.941939
0.832258 0.755306 0.321736
1 1 1
1 1 1
1 1 1
1 1 1
1 1 1
1 1 1
1 1 1
0.9337 1 0.945159
0 0 0
0.0828565 0 0.24004
0.0783703 0 0.225498
0.0639506 0 0.181933
0.412421 0 0.134173
0.903212 0 0
0.722515 0 0.099321
0.990311 0.989746 0
1 1 1
1 1 1
0.0919203 0 0.272312
0.0877241 0 0.256809
0.0734417 0 0.210132
0.314443 0 0.126207
0.910796 0 0
0.759365 0 0
0.990646 0.975967 0
1 1 1
1 1 1
0.106645 0 0.38851
0.106111 0 0.37026
0.101061 0 0.314534
0.126726 0 0.165393
0.923644 0.23032 0
0.850294 0 0
0.991867 0.920897 0
1 1 1
1 1 1
0 0.298619 0.863325
0 0.219593 0.84892
0 0 0.793271
0.0778821 0 0.539345
0.841108 0 0
0.950393 0.407446 0
0.978668 0.608743 0
1 1 1
1 1 1
0.725582 0.894713 0.986816
0.709392 0.887938 0.984985
0.651453 0.863127 0.978424
0.684657 0.877333 0.981094
0.69015 0.84686 0.970886
0.947784 0.728191 0.931075
0.967758 0.527794 0
1 1 0.94548
1 1 1
0.909224 0.970703 1
0.903349 0.968154 1
0.8822 0.959121 1
0.830091 0.937453 0.997742
0.834913 0.936248 0.989456
0.862181 0.911315 0.979858
0.993255 0.879499 0.949722
1 1 0.816663
1 1 1
1 1 1
1 1 1
1 1 1
1 1 1
0.900893 0.967041 1
0.909529 0.96492 0.990524
0.944411 0.953811 0.982712
1 0.959365 0.948363
1 1 0.89134
1 1 1
1 1 1
1 1 1
1 1 1
1 1 1
0.991058 1 1
0.958999 0.990219 0.993042
0.988022 0.986984 0.987182
1 0.981003 0.96994
1 1 1
1 1 1
1 1 1
1 1 1
1 1 1
1 1 1
1 1 1
0.963211 1 0.97528
0.999466 1 0.981353
0 0 0
0 0 0
0 0 0
0 0 0
0.489708 0 0.139696
0.994583 1 0.199634
1 1 0.928878
1 1 1
1 1 1
0 0 0
0 0 0
0 0 0
0 0 0
0.45948 0 0.13431
0.993698 1 0
1 1 0.924178
1 1 1
1 1 1
0 0 0
0 0 0
0 0 0
0 0 0
1 1 0.952819
0.991379 1 0
1 1 0.907256
1 1 1
1 1 1
0.0193637 0 0.0590982
0.0180819 0 0.0554055
0.0141756 0 0.0440681
0.0033875 0 0.0111391
0.990951 1 0
0.991058 0.958968 0
1 1 0.823362
1 1 1
1 1 1
0.774594 0.915114 0.993774
0.75787 0.908293 0.99205
0.695552 0.88249 0.985962
0.36817 0.727169 0.955184
0.103151 0 0.329702
0.956939 0.440955 0
0.990921 0.964553 0
1 1 1
1 1 1
1 1 1
1 1 1
1 1 1
1 1 1
0.920409 0.975631 1
0.865293 0.938415 0.99707
0.984649 0.883772 0.978134
0.970443 0.537865 0
1 1 1
1 1 1
1 1 1
1 1 1
1 1 1
1 1 1
0.930785 0.978851 1
0.941756 0.966598 1
1 0.952102 0.984695
1 1 0.928512
1 1 1
1 1 1
1 1 1
1 1 1
1 1 1
1 1 1
0.965133 0.993622 1
0.984115 0.987396 1
1 0.9906 0.984848
1 1 1
1 1 1
1 1 1
1 1 1
1 1 1
1 1 1
1 1 1
0.990433 1 1
1 1 1
