BMD DWG to wyCol AgX BT.709 2.4.cube
TITLE "wyCol AgX V1"
LUT_3D_SIZE 5
0.0536965 0.0517891 0.0521706
0.121309 0 0.0391089
0.0355535 0 0.0104829
0.688045 0 0.125292
0.731151 0 0.0883497
0 0.0929427 0
0.14519 0.162524 0
0.500984 0 0.141283
0.570657 0 0.146151
0.604944 0 0.145281
0 0.224308 0
0 0.235935 0
0.294392 0.386542 0
0.00701915 0 0.00201419
0 0 0
0 0 0
0 0 0
0 0.0189517 0
0 0 0
0 0 0
0 0 0
0 0 0
0 0 0
0 0 0
0 0 0
0.0451209 0 0.13051
0.280995 0 0.0979782
0.0633402 0 0.019028
0.805081 0 0
0.833295 0 0
0 0.211475 0.302174
0.23447 0.244053 0.245884
0.49192 0 0.130098
0.682109 0 0.12813
0.724941 0 0.0965286
0 0.434928 0
0 0.388754 0
0.437217 0.521096 0
0.0289464 0 0.00848402
0 0 0
0 0 0
0 0 0
0 0.0344549 0
0 0 0
0 0 0
0 0 0
0 0 0
0 0 0
0 0 0
0 0 0
0.0706035 0 0.25893
0.224796 0 0.194797
0.416266 0 0.122301
0.866789 0 0
1 1 0.912627
0 0 0.635447
0.173861 0 0.586236
0.920317 0.264195 0
0.785183 0 0
1 1 0.729763
0.28127 0.692317 0.866453
0.314763 0.719432 0.844648
0.747189 0.737911 0.739605
0.980514 0.725124 0
0.656321 0 0.137224
0.683619 0.876539 0.971389
0.607401 0.843519 0.955032
0.45861 0.884367 0.647501
0.215381 0.44448 0
0 0 0
0 0 0
0 0 0
0 0 0
0 0 0
0 0 0
0.106645 0 0.389166
0.11249 0 0.314549
0.774578 0 0
0.979767 0.61941 0
1 1 1
0 0 0.595285
0.101335 0 0.467796
0.684993 0 0.121141
0.954894 0.427359 0
1 1 1
0.634501 0.855283 0.972107
0.615335 0.846647 0.967834
0.696712 0.789837 0.936889
1 1 0.484108
1 1 1
0.992966 1 1
0.985397 1 1
0.895766 0.964782 1
0.952636 0.952758 0.952789
1 1 0.656718
1 1 1
1 1 1
1 1 1
1 1 1
0 0 0
0 0 0
0 0 0
0.489708 0 0.139696
1 1 0.928878
1 1 1
0 0 0
0 0 0
1 1 0.952819
1 1 0.907256
1 1 1
0.774594 0.915114 0.993774
0.695552 0.88249 0.985962
0.103151 0 0.329702
0.990921 0.964553 0
1 1 1
1 1 1
1 1 1
1 1 1
0.941756 0.966598 1
1 1 0.928512
1 1 1
1 1 1
1 1 1
1 1 1
1 1 1
