BMD Gen 5 to wyCol AgX BT.709 2.4.cube
TITLE "wyCol AgX V1"
LUT_3D_SIZE 65
0.0303502 0.0265354 0.0273289
0.0329595 0.024567 0.0265202
0.0353704 0.0223697 0.0257725
0.0376287 0.0198367 0.0251011
0.0397498 0.0167544 0.0244907
0.0417639 0.0125582 0.0239414
0.0437171 0.000793469 0.0234684
0.0455787 0 0.0230564
0.0473945 0 0.0227054
0.0491951 0 0.0224155
0.0512245 0 0.0221408
0.0535897 0 0.021912
0.0563516 0 0.0217746
0.059556 0 0.0217899
0.0606851 0 0.0317693
0.0667277 0 0.0302129
0.0709392 0 0.0245518
0.0747692 0 0.0248417
0.0790112 0 0.0255436
0.0836652 0 0.0265812
0.088716 0 0.0279393
0.0953841 0 0.0297246
0.10248 0 0.0317235
0.109789 0 0.0338598
0.117037 0 0.0360571
0.12491 0 0.0384985
0.131868 0 0.0407111
0.136934 0 0.042359
0.13933 0 0.043183
0.139208 0 0.043183
0.139712 0 0.0433356
0.136217 0 0.0422217
0.127565 0 0.0394446
0.112856 0 0.0347295
0.0933852 0 0.0285191
0.0716869 0 0.0216678
0.0480507 0 0.014313
0.0389868 0 0.0115358
0.0402533 0 0.0119173
0.0415045 0 0.0122988
0.04271 0 0.012665
0.0438849 0 0.0130312
0.0450294 0 0.0133822
0.0460975 0 0.0137026
0.0470893 0 0.0140078
0.0479896 0 0.0142824
0.0487678 0 0.0145266
0.049424 0 0.014725
0.618784 0 0.14406
0.624353 0 0.143404
0.626627 0 0.143099
0.622568 0 0.143633
0.610391 0 0.144869
0.588342 0 0.146044
0.554345 0 0.145708
0.506279 0 0.141924
0.442359 0 0.130694
0.362936 0 0.110735
0.270359 0 0.0839399
0.173602 0 0.0540932
0.0894484 0 0.0272679
0.0431678 0 0.0128023
0.000503548 0 0.000137331
0 0 0
0 0 0
0.0284733 0.0309606 0.0250553
0.0328374 0.0301671 0.0248875
0.0357671 0.028397 0.0243381
0.0383307 0.026276 0.0237278
0.0407111 0.0238651 0.0231785
0.0429389 0.0210422 0.0226749
0.0450446 0.0175631 0.0222324
0.0470893 0.0126955 0.0218662
0.0490425 0 0.0215763
0.0509804 0 0.0213321
0.0531624 0 0.0211337
0.0557107 0 0.0209964
0.0586557 0 0.0209812
0.0586709 0.0216983 0.0326696
0.0626535 0.0200351 0.0341344
0.069398 0 0.0238804
0.0734569 0 0.024155
0.0776684 0 0.0247501
0.0823529 0 0.025742
0.0875257 0 0.0270848
0.0931868 0 0.028748
0.0992752 0 0.0307012
0.106981 0 0.0330053
0.115236 0 0.0354925
0.123583 0 0.0380865
0.132708 0 0.0409705
0.140658 0 0.0435187
0.146715 0 0.0455177
0.150286 0 0.0467079
0.154147 0 0.0479286
0.155962 0 0.0485084
0.153811 0 0.047837
0.146487 0 0.0455024
0.131975 0 0.0408637
0.110094 0 0.0338445
0.0849928 0 0.025864
0.0596933 0 0.0179141
0.03888 0 0.01149
0.0401465 0 0.0118868
0.0413977 0 0.0122683
0.0426032 0 0.0126345
0.0437781 0 0.0130007
0.0449073 0 0.0133364
0.0459754 0 0.0136721
0.0469673 0 0.0139773
0.0478676 0 0.0142519
0.048661 0 0.0144961
0.0493019 0 0.0146944
0.616129 0 0.14435
0.621698 0 0.14374
0.623941 0 0.143465
0.619852 0 0.143954
0.60766 0 0.145098
0.585565 0 0.146105
0.551553 0 0.145571
0.503502 0 0.141588
0.439628 0 0.130083
0.360449 0 0.110048
0.268223 0 0.083299
0.171893 0 0.0535592
0.0885634 0 0.0269932
0.0426795 0 0.012665
0 0 0
0 0 0
0 0 0
0.0231937 0.0329137 0.0214084
0.0303044 0.0337377 0.0216831
0.0350347 0.0331426 0.0215915
0.0382391 0.0315862 0.0212406
0.0410773 0.0296635 0.0208438
0.0436561 0.0273747 0.0204623
0.0460517 0.0247044 0.0201267
0.0482948 0.0215152 0.0198367
0.0504463 0.0174563 0.0196231
0.0525368 0.0110475 0.0194705
0.054902 0 0.019379
0.0572518 0 0.0216678
0.0552224 0.0372015 0.0384375
0.0612497 0.0265049 0.0331121
0.0675975 0 0.0227817
0.0717021 0 0.0229953
0.0759747 0 0.0235447
0.0805829 0 0.0244755
0.0857099 0 0.0257877
0.0914168 0 0.0274662
0.0976883 0 0.0294804
0.104494 0 0.0317845
0.111772 0 0.0343175
0.120684 0 0.037171
0.130175 0 0.0401617
0.140261 0 0.0433967
0.149142 0 0.0462654
0.156237 0 0.0485847
0.162676 0 0.0506447
0.168765 0 0.0525673
0.171939 0 0.0535592
0.171191 0 0.0533303
0.16527 0 0.0514687
0.152071 0 0.0472725
0.129915 0 0.0401923
0.100969 0 0.03093
0.0714733 0 0.0215915
0.0410468 0 0.0121614
0.0400397 0 0.0118563
0.0412757 0 0.0122225
0.0424964 0 0.012604
0.0436713 0 0.0129549
0.0448005 0 0.0133059
0.0458686 0 0.0136263
0.0468605 0 0.0139315
0.0477607 0 0.0142214
0.0485389 0 0.0144503
0.0491798 0 0.0146487
0.613489 0 0.14461
0.619028 0 0.144045
0.621256 0 0.143786
0.617151 0 0.144244
0.604913 0 0.145281
0.582803 0 0.146151
0.54876 0 0.145434
0.50071 0 0.141238
0.436927 0 0.129473
0.357961 0 0.109361
0.266087 0 0.0826581
0.17023 0 0.0530251
0.0877089 0 0.0267185
0.0421912 0 0.0125124
0 0 0
0 0 0
0 0 0
0.0170901 0.0343633 0.01738
0.0251469 0.035523 0.01738
0.0322118 0.0363012 0.0173953
0.0372625 0.035874 0.017258
0.0405737 0.0344244 0.0169833
0.0436255 0.0326238 0.0167391
0.0464179 0.0304723 0.0165408
0.049012 0.027924 0.0164034
0.0514382 0.0248875 0.0163272
0.0535744 0.0241855 0.0188296
0.0541543 0.0347753 0.0312505
0.0514534 0.0482338 0.0483711
0.0612192 0.0247654 0.0271916
0.0654765 0 0.0209354
0.0696117 0 0.0211643
0.0739452 0 0.0217136
0.0784924 0 0.0226444
0.0834821 0 0.0239567
0.0890669 0 0.0256504
0.0953078 0 0.0277104
0.102205 0 0.0300908
0.109773 0 0.0327916
0.117922 0 0.0357519
0.126543 0 0.0388952
0.136553 0 0.0422065
0.147524 0 0.0457313
0.157351 0 0.0489204
0.166201 0 0.0517586
0.175616 0 0.0547341
0.183017 0 0.0570535
0.187594 0 0.0584878
0.188312 0 0.0587167
0.183886 0 0.0573281
0.172091 0 0.0536202
0.151202 0 0.0469978
0.120119 0 0.0370489
0.0854047 0 0.0259861
0.0532387 0 0.0159152
0.0399329 0 0.0118105
0.0411688 0 0.012192
0.0423896 0 0.0125734
0.0435645 0 0.0129244
0.0446784 0 0.0132753
0.0457465 0 0.0135958
0.0467384 0 0.013901
0.0476387 0 0.0141756
0.0484169 0 0.0144198
0.0490578 0 0.0146181
0.610834 0 0.144839
0.616358 0 0.14432
0.61857 0 0.144091
0.614435 0 0.144518
0.602167 0 0.145464
0.580026 0 0.146181
0.545968 0 0.145296
0.497948 0 0.140871
0.434226 0 0.128862
0.355474 0 0.108675
0.263966 0 0.0820172
0.168566 0 0.0525063
0.0868544 0 0.0264439
0.0417029 0 0.0123598
0 0 0
0 0 0
0 0 0
0.00704967 0.0354772 0.0124056
0.0192721 0.0368658 0.0118105
0.0271305 0.0379797 0.0111543
0.0341802 0.0387427 0.0105135
0.0395514 0.038468 0.00999466
0.0429389 0.0370336 0.00965896
0.0460975 0.0352941 0.00946059
0.0492866 0.0373999 0.0219272
0.0511788 0.0422675 0.0347753
0.0509651 0.0488746 0.0493477
0.0556191 0.041001 0.0339971
0.059678 0.0272831 0.0200809
0.0632029 0.0171359 0.0180514
0.0671244 0 0.0181888
0.0715343 0 0.0188449
0.076112 0 0.019913
0.0809491 0 0.0213321
0.0863355 0 0.0231174
0.0923934 0 0.0252689
0.0991836 0 0.0277714
0.106737 0 0.0305943
0.115084 0 0.0337224
0.124147 0 0.0371252
0.13373 0 0.0406958
0.143038 0 0.0441901
0.154467 0 0.0479896
0.165484 0 0.0515297
0.177478 0 0.055314
0.188159 0 0.0586709
0.196902 0 0.0614023
0.202914 0 0.0632792
0.205142 0 0.0639658
0.202258 0 0.0630655
0.191989 0 0.0598611
0.172473 0 0.0537423
0.142275 0 0.0441596
0.102312 0 0.0313573
0.0653239 0 0.0196689
0.039826 0 0.01178
0.041062 0 0.0121614
0.0422675 0 0.0125277
0.0434424 0 0.0128939
0.0445716 0 0.0132296
0.0456397 0 0.0135653
0.0466163 0 0.0138705
0.0475166 0 0.0141451
0.0482948 0 0.0143893
0.0489357 0 0.0145724
0.608164 0 0.145052
0.613687 0 0.144579
0.615885 0 0.144366
0.611719 0 0.144762
0.59942 0 0.145617
0.577234 0 0.146197
0.543175 0 0.145129
0.495171 0 0.14049
0.43154 0 0.128252
0.352987 0 0.107988
0.261845 0 0.0813764
0.166903 0 0.0519722
0.0860304 0 0.0261845
0.0412146 0 0.0122072
0 0 0
0 0 0
0 0 0
0 0.0363165 0
0.0110475 0.0379034 0
0.0214389 0.0392615 0
0.0291295 0.0403296 0
0.0373693 0.041886 0.00549325
0.0451972 0.0446479 0.0271153
0.0496071 0.0473182 0.0416114
0.0512703 0.0481422 0.0429847
0.0526131 0.0438849 0.0286412
0.0544594 0.0384222 0.0176394
0.0572976 0.0340581 0.0123293
0.0605936 0.0302586 0.0124208
0.064332 0.0241398 0.0127565
0.0685893 0.00993362 0.0137484
0.0732891 0 0.0153201
0.078172 0 0.0172427
0.0833295 0 0.0194095
0.089128 0 0.0218662
0.0956741 0 0.0246128
0.103014 0 0.0276341
0.111254 0 0.0309453
0.120394 0 0.0345464
0.130404 0 0.0384222
0.140627 0 0.0423438
0.150591 0 0.046128
0.161486 0 0.0502022
0.175189 0 0.0545968
0.188357 0 0.058732
0.200305 0 0.0624552
0.210407 0 0.0655985
0.217868 0 0.0679179
0.221637 0 0.0690776
0.220371 0 0.0686961
0.211719 0 0.0660105
0.193698 0 0.0603952
0.164813 0 0.0513161
0.12282 0 0.0379187
0.0785534 0 0.0238193
0.0397192 0 0.0117494
0.0409552 0 0.0121309
0.0421607 0 0.0124971
0.0433356 0 0.0128634
0.0444648 0 0.0131991
0.0455177 0 0.0135348
0.0465095 0 0.0138247
0.0473945 0 0.0140993
0.0481727 0 0.0143435
0.0488136 0 0.0145418
0.605509 0 0.145251
0.611017 0 0.144823
0.613184 0 0.144625
0.609003 0 0.144991
0.596674 0 0.145754
0.574472 0 0.146181
0.540383 0 0.144945
0.492393 0 0.140093
0.428855 0 0.127626
0.350515 0 0.107301
0.259754 0 0.0807507
0.165255 0 0.0514534
0.0852064 0 0.0259251
0.0407263 0 0.0120546
0 0 0
0 0 0
0 0 0
0 0.0369573 0
0 0.0386816 0
0.024979 0.0433661 0.0154269
0.0409247 0.0473793 0.0332189
0.0509957 0.0488136 0.0492409
0.047715 0.0493629 0.0349279
0.0474098 0.047303 0.0230106
0.0483711 0.0437171 0
0.0512551 0.042237 0
0.0541085 0.0406043 0
0.0573129 0.0382849 0
0.0609598 0.0349737 0
0.065095 0.0299687 0
0.0697642 0.0211795 0
0.0748302 0 0.00825513
0.0800488 0 0.0128023
0.0855879 0 0.0165103
0.0918288 0 0.0200198
0.0988479 0 0.0235599
0.106783 0 0.0272221
0.115709 0 0.0311131
0.125673 0 0.0352636
0.1364 0 0.0395514
0.147204 0 0.0437934
0.158221 0 0.0480049
0.171405 0 0.052842
0.184482 0 0.0575113
0.19881 0 0.0619974
0.212009 0 0.0661021
0.223484 0 0.0696574
0.23241 0 0.0724041
0.237766 0 0.0740368
0.238178 0 0.0741741
0.231189 0 0.0720226
0.214817 0 0.0669718
0.187396 0 0.0584268
0.14638 0 0.0454719
0.0948196 0 0.0289769
0.0517128 0 0.0154421
0.0408484 0 0.0121004
0.0420539 0 0.0124666
0.0432288 0 0.0128176
0.0443427 0 0.0131685
0.0454108 0 0.013489
0.0463874 0 0.0137942
0.0472877 0 0.0140688
0.0480659 0 0.014313
0.0486915 0 0.0145113
0.602853 0 0.145418
0.608331 0 0.145037
0.610483 0 0.144869
0.606287 0 0.14519
0.593927 0 0.145876
0.571694 0 0.146166
0.537591 0 0.144762
0.489616 0 0.139681
0.426169 0 0.127001
0.348074 0 0.106615
0.257649 0 0.0801099
0.163592 0 0.0509346
0.0843977 0 0.0256657
0.0402533 0 0.0119173
0 0 0
0 0 0
0 0 0
0.0183108 0.0447089 0.0226749
0.0429999 0.0489815 0.0407874
0.04477 0.0500801 0.0413367
0.0337072 0.0484016 0.0235447
0.0318914 0.04654 0
0.0360418 0.0463417 0
0.0420691 0.0469215 0
0.0474098 0.0469062 0
0.0504921 0.0456703 0
0.0535439 0.0441901 0
0.0569924 0.0422065 0
0.0609751 0.039353 0
0.0654917 0.0350958 0
0.0705882 0.0281987 0
0.0760967 0.0130007 0
0.0816968 0 0
0.0876631 0 0.0113985
0.0943618 0 0.0172122
0.1019 0 0.021973
0.11043 0 0.0265049
0.120073 0 0.0310826
0.130846 0 0.0357977
0.142107 0 0.0404669
0.154208 0 0.0452583
0.166842 0 0.0500649
0.180896 0 0.0552377
0.194842 0 0.0602884
0.20885 0 0.0651255
0.223316 0 0.0695964
0.236149 0 0.0735485
0.246555 0 0.0767376
0.253483 0 0.0788434
0.255604 0 0.0794842
0.250385 0 0.0778973
0.235737 0 0.0734264
0.209964 0 0.0654612
0.170245 0 0.0530251
0.114794 0 0.0353399
0.064332 0 0.0193637
0.0407416 0 0.0120699
0.0419471 0 0.0124361
0.0431067 0 0.0127871
0.0442359 0 0.013138
0.0452888 0 0.0134585
0.0462806 0 0.0137636
0.0471656 0 0.0140383
0.0479438 0 0.0142672
0.0485695 0 0.0144656
0.600183 0 0.145571
0.605661 0 0.145235
0.607797 0 0.145083
0.603555 0 0.145373
0.59118 0 0.145968
0.568917 0 0.146136
0.534798 0 0.144564
0.486854 0 0.139254
0.423499 0 0.12636
0.345617 0 0.105928
0.255573 0 0.0794842
0.161959 0 0.0504158
0.0836042 0 0.0254215
0.039765 0 0.0117647
0 0 0
0 0 0
0 0 0
0.0281224 0.0489815 0.0307469
0.0142672 0.0465705 0.0160372
0 0.0440833 0
0.0160678 0.0452888 0
0.024445 0.0464485 0
0.0312352 0.0474098 0
0.037583 0.0482032 0
0.0437476 0.0487678 0
0.0495613 0.0489357 0
0.0527962 0.0476539 0
0.0564584 0.0459144 0
0.0606851 0.0434272 0
0.0655528 0.0397498 0
0.0710765 0.0339818 0
0.0770275 0.0238804 0
0.0830701 0 0
0.0894942 0 0
0.0966812 0 0.0124208
0.104768 0 0.0196384
0.113939 0 0.0253758
0.124315 0 0.0307774
0.136065 0 0.0361944
0.148638 0 0.0415198
0.161654 0 0.0467384
0.175036 0 0.0518654
0.189975 0 0.0574044
0.204883 0 0.0628214
0.219425 0 0.0680552
0.234165 0 0.0729381
0.248371 0 0.0772869
0.260243 0 0.0809033
0.268788 0 0.0834821
0.272633 0 0.0846265
0.269215 0 0.0836042
0.256413 0 0.0797284
0.232425 0 0.0724041
0.194217 0 0.0605631
0.138888 0 0.0430762
0.0780652 0 0.0236667
0.0406348 0 0.0120241
0.0418402 0 0.0124056
0.0429999 0 0.0127565
0.0441138 0 0.0130922
0.045182 0 0.0134279
0.0461585 0 0.0137179
0.0470436 0 0.0139925
0.0478218 0 0.0142367
0.0484474 0 0.014435
0.597513 0 0.145708
0.602975 0 0.145418
0.605097 0 0.145281
0.600839 0 0.145541
0.588418 0 0.146044
0.56614 0 0.146075
0.532006 0 0.14435
0.484077 0 0.138811
0.420844 0 0.125734
0.343175 0 0.105241
0.253483 0 0.0788434
0.160342 0 0.049897
0.0828107 0 0.0251621
0.039292 0 0.0116274
0 0 0
0 0 0
0 0 0
0 0.0413825 0
0 0.0429999 0
0 0.0444495 0
0 0.0458534 0
0.0175174 0.0471351 0
0.0257877 0.0482948 0
0.0327306 0.0493019 0
0.0392309 0.0501259 0
0.0455482 0.050721 0
0.0518959 0.0510567 0
0.0557412 0.0495155 0
0.0601968 0.0473335 0
0.0653544 0.0441138 0
0.0712596 0.0391546 0
0.0776379 0.0311284 0
0.0841688 0.0133059 0
0.0910658 0 0
0.0987716 0 0
0.107576 0 0.0159152
0.117678 0 0.0237736
0.129351 0 0.0305333
0.141955 0 0.0366522
0.155138 0 0.0423896
0.168826 0 0.0479591
0.18294 0 0.0534371
0.198749 0 0.0593423
0.214649 0 0.065156
0.230274 0 0.0708019
0.245167 0 0.0761578
0.260334 0 0.0809186
0.273716 0 0.0849622
0.283879 0 0.0879988
0.289509 0 0.0896773
0.287968 0 0.0892195
0.277104 0 0.0859693
0.255085 0 0.0793317
0.218662 0 0.0681621
0.164508 0 0.0512245
0.0954299 0 0.0291752
0.0412146 0 0.0122072
0.0417182 0 0.0123598
0.0428931 0 0.012726
0.044007 0 0.0130617
0.0450599 0 0.0133822
0.0460365 0 0.0136873
0.0469368 0 0.013962
0.0476997 0 0.0142061
0.0483253 0 0.0143893
0.594812 0 0.14583
0.600244 0 0.145571
0.60235 0 0.145449
0.598062 0 0.145693
0.585626 0 0.146105
0.563317 0 0.146014
0.529183 0 0.144137
0.48127 0 0.138338
0.418112 0 0.125078
0.340703 0 0.10454
0.251392 0 0.0782025
0.158694 0 0.0493782
0.0820172 0 0.024918
0.0388037 0 0.0114748
0 0 0
0 0 0
0 0 0
0 0.0415656 0
0 0.0432441 0
0 0.0448768 0
0 0.0464332 0
0 0.0478828 0
0.0179599 0.0492256 0
0.0265049 0.0504311 0
0.0336309 0.0514839 0
0.0402838 0.0523384 0
0.0468452 0.0529793 0
0.0543984 0.0533913 0
0.0594492 0.0516518 0
0.0649271 0.0488746 0
0.0712596 0.0446479 0
0.078172 0.0380865 0
0.0853285 0.0268254 0
0.0929122 0 0
0.101534 0 0
0.11133 0 0.00787366
0.12253 0 0.0217288
0.135088 0 0.0298924
0.148333 0 0.0367132
0.162188 0 0.0429847
0.176638 0 0.0489967
0.191608 0 0.054902
0.208423 0 0.0612497
0.225422 0 0.0675059
0.242298 0 0.0736248
0.258564 0 0.0794995
0.273655 0 0.084947
0.288762 0 0.0894484
0.300832 0 0.093019
0.308522 0 0.0952773
0.309178 0 0.0954757
0.300664 0 0.0929732
0.281102 0 0.0871748
0.247013 0 0.0768749
0.194598 0 0.0606851
0.121187 0 0.0373999
0.0569772 0 0.0170748
0.0415961 0 0.0123293
0.0427558 0 0.0126802
0.0438697 0 0.0130159
0.0449226 0 0.0133516
0.0458991 0 0.0136416
0.0467842 0 0.0139162
0.0475624 0 0.0141604
0.048188 0 0.0143435
0.591653 0 0.145953
0.59707 0 0.145739
0.599145 0 0.145632
0.594842 0 0.14583
0.582361 0 0.146166
0.560021 0 0.145922
0.525887 0 0.143862
0.478019 0 0.137789
0.414984 0 0.124315
0.337835 0 0.103731
0.248951 0 0.0774701
0.156786 0 0.0487678
0.081117 0 0.0246281
0.0382391 0 0.0113069
0 0 0
0 0 0
0 0 0
0 0.0430762 0
0 0.0443122 0
0 0.0460822 0
0 0.047776 0
0 0.0493782 0
0 0.0508736 0
0.016083 0.0522621 0
0.025864 0.0534981 0
0.0335088 0.0545968 0
0.040589 0.0555123 0
0.0485237 0.0562905 0
0.0578775 0.0567483 0
0.0645151 0.0548104 0
0.0713359 0.0513771 0
0.0788281 0.0461738 0
0.0867018 0.0380713 0
0.0950942 0.0220645 0
0.104601 0 0
0.11545 0 0
0.12784 0 0.0171817
0.141161 0 0.0280003
0.155184 0 0.0359655
0.169879 0 0.0430152
0.185229 0 0.0496529
0.20119 0 0.0561074
0.219181 0 0.0630045
0.237507 0 0.06981
0.255818 0 0.0764782
0.273686 0 0.082948
0.290517 0 0.0890516
0.305898 0 0.0945144
0.32018 0 0.0986648
0.330343 0 0.101595
0.333654 0 0.102541
0.328008 0 0.100923
0.311559 0 0.0961624
0.280613 0 0.0870222
0.230838 0 0.0719158
0.15848 0 0.0493019
0.0766461 0 0.0232242
0.0414435 0 0.0122835
0.0426032 0 0.0126345
0.0437171 0 0.0129702
0.04477 0 0.0132906
0.0457465 0 0.0135958
0.0466316 0 0.0138705
0.0473945 0 0.0140993
0.0480201 0 0.0142977
0.587869 0 0.146059
0.593256 0 0.145892
0.5953 0 0.145815
0.590967 0 0.145968
0.57847 0 0.146197
0.5561 0 0.145769
0.521965 0 0.143511
0.474113 0 0.137102
0.411246 0 0.123384
0.334432 0 0.102754
0.246082 0 0.076585
0.154498 0 0.0480507
0.0800488 0 0.0242924
0.0375677 0 0.0110933
0 0 0
0 0 0
0 0 0
0 0.045243 0
0 0.0465095 0
0 0.0477455 0
0 0.0495308 0
0 0.0513313 0
0 0.0530404 0
0 0.0546731 0
0.0065919 0.0561837 0
0.0226291 0.057557 0
0.0316014 0.0588235 0
0.040528 0.0600748 0
0.0505226 0.0612039 0
0.0622568 0.0619059 0
0.0709697 0.059678 0
0.0790723 0.0555123 0
0.0876783 0.0493172 0
0.096849 0.039353 0
0.107362 0.0125124 0
0.119432 0 0
0.132982 0 0
0.14725 0 0.0231632
0.162234 0 0.0335241
0.177951 0 0.0418555
0.194369 0 0.0493935
0.211536 0 0.056611
0.2309 0 0.0642252
0.250736 0 0.0717021
0.270741 0 0.079057
0.290486 0 0.0862287
0.309392 0 0.0930953
0.326726 0 0.0994736
0.341985 0 0.104906
0.355047 0 0.108553
0.361501 0 0.110338
0.359319 0 0.109743
0.346746 0 0.106249
0.319951 0 0.0986038
0.274113 0 0.0850843
0.204273 0 0.0636912
0.109361 0 0.0336156
0.0412604 0 0.0122225
0.0424048 0 0.0125734
0.0435187 0 0.0129091
0.0445716 0 0.0132296
0.0455482 0 0.0135348
0.0464332 0 0.0138094
0.0471962 0 0.0140383
0.0478218 0 0.0142367
0.583337 0 0.146151
0.588693 0 0.146044
0.590707 0 0.145983
0.586328 0 0.14609
0.573785 0 0.146181
0.551385 0 0.145571
0.51725 0 0.143069
0.469459 0 0.136248
0.406775 0 0.122271
0.330373 0 0.101595
0.242649 0 0.0755474
0.151812 0 0.0471962
0.0788128 0 0.0239109
0.036759 0 0.0108492
0 0 0
0 0 0
0 0 0
0 0.0479896 0
0 0.0492561 0
0 0.0505837 0
0 0.0518807 0
0 0.0534981 0
0 0.0554208 0
0 0.0572671 0
0 0.0590219 0
0 0.0607004 0
0.0133669 0.0622721 0
0.0282597 0.0639658 0
0.040238 0.0657054 0
0.0529488 0.0673075 0
0.0677195 0.0683452 0
0.078584 0.0659495 0
0.087953 0.0611429 0
0.0978714 0.0540169 0
0.109346 0.0416114 0
0.122713 0 0
0.137301 0 0
0.152697 0 0
0.168872 0 0.0269627
0.18584 0 0.0381018
0.203586 0 0.0472267
0.222187 0 0.0556039
0.243198 0 0.06421
0.264805 0 0.0725719
0.286763 0 0.080766
0.308659 0 0.088777
0.329961 0 0.0964981
0.34995 0 0.103838
0.367697 0 0.110552
0.382467 0 0.115999
0.392584 0 0.118654
0.394507 0 0.119158
0.386664 0 0.117113
0.365209 0 0.11136
0.324956 0 0.100053
0.259709 0 0.0807355
0.164599 0 0.0512551
0.0646982 0 0.0194705
0.0421912 0 0.0125124
0.0432898 0 0.0128481
0.0443427 0 0.0131685
0.045304 0 0.0134585
0.0461891 0 0.0137331
0.046952 0 0.013962
0.0475776 0 0.0141604
0.57792 0 0.146197
0.58323 0 0.146151
0.585214 0 0.14612
0.580789 0 0.146181
0.5682 0 0.14612
0.545754 0 0.145281
0.51162 0 0.142504
