BMD DWG to wyCol AgX BT.709 2.4.cube
TITLE "wyCol AgX V1"
LUT_3D_SIZE 65
0.0536965 0.0517891 0.0521706
0.0564126 0.0498054 0.0511482
0.0590066 0.0476844 0.0501411
0.0617685 0.0451362 0.049073
0.0648356 0.0419165 0.0478676
0.0682078 0.0377203 0.0465705
0.071931 0.0318761 0.0451667
0.0760204 0.022385 0.0437171
0.080415 0 0.0422675
0.0847791 0 0.0409094
0.0894484 0 0.0397192
0.0943923 0 0.0387884
0.0996262 0 0.0381628
0.105058 0 0.0378882
0.110613 0 0.0379797
0.116121 0 0.038407
0.121309 0 0.0391089
0.125811 0 0.0399329
0.129152 0 0.0406958
0.132113 0 0.0413672
0.134127 0 0.0417029
0.133608 0 0.0413367
0.128664 0 0.0396735
0.118288 0 0.0363928
0.102983 0 0.0315709
0.0888838 0 0.0270848
0.0717327 0 0.0216831
0.0519265 0 0.0155032
0.03093 0 0.00907912
0.0321202 0 0.00944533
0.0333257 0 0.00981155
0.0344396 0 0.0101472
0.0355535 0 0.0104829
0.0366674 0 0.0108186
0.0377966 0 0.0111696
0.0389258 0 0.0115053
0.0400397 0 0.0118563
0.0411688 0 0.012192
0.042298 0 0.0125429
0.0434272 0 0.0128939
0.0445563 0 0.0132296
0.0456703 0 0.0135805
0.5505 0 0.145525
0.575067 0 0.146197
0.599191 0 0.145632
0.622721 0 0.143618
0.645472 0 0.139834
0.667292 0 0.133913
0.688045 0 0.125292
0.707561 0 0.113115
0.725734 0 0.0955825
0.743862 0 0.0635843
0.760739 0 0
0.775753 0 0
0.788754 0 0
0.799634 0 0
0.808209 0 0
0.814267 0 0
0.817533 0 0
0.817655 0 0
0.814069 0 0
0.804105 0 0
0.787579 0 0
0.763897 0 0
0.731151 0 0.0883497
0.0499428 0.054963 0.0495766
0.0556497 0.0547951 0.0496223
0.058793 0.0530404 0.0488899
0.0618753 0.0506752 0.0478676
0.0651865 0.0476387 0.0466926
0.0688029 0.0437629 0.0454108
0.0727703 0.0385901 0.0440375
0.0771038 0.0310979 0.0426184
0.0817578 0.0170443 0.0412299
0.0863661 0 0.0399481
0.0913252 0 0.0388647
0.0966049 0 0.0380713
0.102205 0 0.0376287
0.108049 0 0.037583
0.114076 0 0.0379492
0.120104 0 0.0386816
0.125902 0 0.0397345
0.131029 0 0.0409094
0.13492 0 0.0419928
0.137057 0 0.0427558
0.139727 0 0.0433814
0.140078 0 0.0433509
0.13608 0 0.0420539
0.126345 0 0.0390173
0.113268 0 0.0348669
0.0987106 0 0.0302129
0.080415 0 0.0244144
0.0601663 0 0.0180667
0.0340429 0 0.0100252
0.0320439 0 0.00941482
0.0332494 0 0.00978103
0.0343481 0 0.0101167
0.035462 0 0.0104524
0.0365759 0 0.0108034
0.037705 0 0.0111391
0.038819 0 0.0114748
0.0399481 0 0.0118257
0.0410773 0 0.0121614
0.0422065 0 0.0125124
0.0433356 0 0.0128634
0.0444495 0 0.0131991
0.0455787 0 0.01355
0.548226 0 0.145418
0.572763 0 0.146181
0.596887 0 0.145739
0.620432 0 0.143877
0.643198 0 0.140307
0.665034 0 0.134661
0.685802 0 0.126406
0.705364 0 0.114763
0.723552 0 0.0981613
0.741741 0 0.0689403
0.758648 0 0
0.773709 0 0
0.786755 0 0
0.797681 0 0
0.806271 0 0
0.812345 0 0
0.815625 0 0
0.815732 0 0
0.812131 0 0
0.802106 0 0
0.785473 0 0
0.761685 0 0
0.728786 0 0.0916609
0.0442817 0.0568093 0.0462043
0.0513466 0.0575418 0.0465095
0.0574502 0.0574807 0.04654
0.0612192 0.0556649 0.0458991
0.065095 0.0530404 0.0449683
0.0691234 0.0494698 0.0437934
0.0733959 0.0447242 0.0424811
0.0780346 0.0381933 0.0411231
0.0829633 0.0281376 0.0398108
0.0878309 0 0.0386358
0.0931106 0 0.0376898
0.0987411 0 0.0370642
0.104707 0 0.0368353
0.110994 0 0.0370642
0.117494 0 0.0377356
0.124086 0 0.0388342
0.130449 0 0.040238
0.136065 0 0.0417487
0.140505 0 0.0431525
0.143267 0 0.0442664
0.145129 0 0.0450141
0.146349 0 0.0453193
0.143313 0 0.0443885
0.134707 0 0.0417334
0.124376 0 0.0384222
0.109499 0 0.0336461
0.0900893 0 0.0274662
0.0682841 0 0.0205997
0.0431525 0 0.0128023
0.0319524 0 0.00939956
0.0331579 0 0.00975052
0.0342565 0 0.0100862
0.0353704 0 0.0104219
0.0364843 0 0.0107729
0.0376135 0 0.0111086
0.0387274 0 0.0114443
0.0398566 0 0.0117952
0.0409857 0 0.0121309
0.0421149 0 0.0124819
0.0432288 0 0.0128328
0.044358 0 0.0131685
0.0454719 0 0.0135195
0.545937 0 0.145281
0.570459 0 0.146151
0.594583 0 0.145846
0.618112 0 0.144137
0.640894 0 0.140764
0.662745 0 0.135363
0.683543 0 0.127474
0.703136 0 0.116335
0.72137 0 0.100587
0.73959 0 0.0737011
0.756542 0 0
0.771649 0 0
0.784741 0 0
0.795697 0 0
0.804318 0 0
0.810422 0 0
0.813703 0 0
0.813794 0 0
0.810147 0 0
0.800061 0 0
0.783352 0 0
0.759441 0 0
0.726421 0 0.0947433
0.0375067 0.0585031 0.0423743
0.0450141 0.0594797 0.0425574
0.0522621 0.0602121 0.0427253
0.0595407 0.0603342 0.0427405
0.0640574 0.0582589 0.0420691
0.0687877 0.0552529 0.0411841
0.0736706 0.0510262 0.0400854
0.0787671 0.045182 0.03888
0.0840925 0.0368353 0.0376898
0.0893111 0.0232242 0.0366674
0.0949569 0 0.0359197
0.100984 0 0.0355383
0.107393 0 0.0355993
0.114153 0 0.0361791
0.121218 0 0.0372625
0.12842 0 0.0388037
0.135271 0 0.0406043
0.141421 0 0.0424964
0.146471 0 0.0442969
0.14992 0 0.0457923
0.151354 0 0.0468147
0.153048 0 0.0474556
0.151095 0 0.0469062
0.145296 0 0.0451209
0.137316 0 0.0425727
0.122591 0 0.0378424
0.102037 0 0.0312657
0.078172 0 0.0236973
0.0530251 0 0.0158389
0.0318608 0 0.00936904
0.033051 0 0.00972
0.034165 0 0.0100557
0.0352789 0 0.0103914
0.0363928 0 0.0107424
0.0375067 0 0.0110781
0.0386206 0 0.0114137
0.0397498 0 0.0117647
0.0408789 0 0.0121004
0.0419928 0 0.0124514
0.043122 0 0.0127871
0.0442512 0 0.013138
0.0453651 0 0.0134737
0.543389 0 0.145144
0.567895 0 0.14612
0.592004 0 0.145937
0.615534 0 0.144411
0.638331 0 0.141253
0.660212 0 0.136126
0.681041 0 0.128603
0.700648 0 0.118013
0.718914 0 0.103151
0.737194 0 0.0784161
0.754192 0 0
0.769345 0 0
0.782483 0 0
0.793469 0 0
0.802136 0 0
0.808255 0 0
0.811551 0 0
0.811627 0 0
0.80795 0 0
0.797787 0 0
0.780972 0 0
0.756939 0 0
0.723781 0 0.0979019
0.0283818 0.060029 0.0377661
0.0370336 0.0612497 0.0377813
0.044831 0.0622721 0.0377661
0.0530709 0.0631113 0.0377356
0.0620584 0.0634623 0.037644
0.0674296 0.0610513 0.0369421
0.073106 0.0575418 0.0361028
0.078996 0.0524758 0.0351568
0.0849928 0.0452735 0.0342412
0.0907301 0.03505 0.0334783
0.0968643 0.0108644 0.0330358
0.10338 0 0.0330358
0.110323 0 0.0335546
0.117678 0 0.0346685
0.125399 0 0.0363317
0.13315 0 0.0384222
0.140536 0 0.0407111
0.147295 0 0.0430915
0.153017 0 0.0453651
0.157259 0 0.0473487
0.159609 0 0.0488594
0.160464 0 0.049836
0.159792 0 0.0497292
0.158206 0 0.0492256
0.151919 0 0.0472267
0.138842 0 0.043061
0.117586 0 0.0362402
0.0912947 0 0.0278477
0.0641184 0 0.0192874
0.032105 0 0.00943008
0.0329442 0 0.00968948
0.0340429 0 0.0100252
0.0351568 0 0.0103609
0.0362707 0 0.0106966
0.0373846 0 0.0110475
0.0384985 0 0.0113832
0.0396277 0 0.0117189
0.0407568 0 0.0120699
0.0418708 0 0.0124056
0.0429999 0 0.0127565
0.0441138 0 0.0130922
0.0452277 0 0.0134432
0.540444 0 0.144961
0.564935 0 0.146044
0.589029 0 0.146029
0.612558 0 0.144686
0.635355 0 0.141772
0.657252 0 0.136965
0.678111 0 0.129854
0.697765 0 0.11986
0.716075 0 0.105913
0.734401 0 0.0833143
0.751461 0 0.0317998
0.766659 0 0
0.779858 0 0
0.79089 0 0
0.799588 0 0
0.805722 0 0
0.809018 0 0
0.809094 0 0
0.805386 0 0
0.795132 0 0
0.778195 0 0
0.75404 0 0
0.720699 0 0.101305
0.0103761 0.0613718 0.0320897
0.0258183 0.0627909 0.0318151
0.0352789 0.0640726 0.0314946
0.0443275 0.0652781 0.0311284
0.0541085 0.0663157 0.0306859
0.0650339 0.0669108 0.0301823
0.071458 0.0640879 0.0294194
0.078233 0.0598917 0.0287022
0.0851911 0.0537881 0.0281376
0.0917525 0.0453803 0.0278477
0.0986038 0.0318761 0.027985
0.105791 0 0.028687
0.113405 0 0.0300298
0.121477 0 0.0320134
0.129885 0 0.0345617
0.138201 0 0.0373846
0.146197 0 0.0403754
0.153643 0 0.0433814
0.160159 0 0.0462806
0.165286 0 0.0488441
0.168673 0 0.0509499
0.170062 0 0.052491
0.171817 0 0.0535286
0.172519 0 0.0537575
0.168185 0 0.0523842
0.157229 0 0.0489204
0.137682 0 0.0426947
0.108965 0 0.0334783
0.0776532 0 0.0235447
0.0462654 0 0.0137484
0.0328069 0 0.00965896
0.0339055 0 0.0099794
0.0350195 0 0.0103151
0.0361334 0 0.0106661
0.0372473 0 0.0110018
0.0383612 0 0.0113375
0.0394903 0 0.0116732
0.0406043 0 0.0120241
0.0417334 0 0.0123598
0.0428473 0 0.0127108
0.0439612 0 0.0130465
0.0450752 0 0.0133974
0.537026 0 0.144732
0.561486 0 0.145953
0.585565 0 0.146105
0.609094 0 0.144976
0.631907 0 0.142336
0.653834 0 0.137881
0.674708 0 0.131228
0.694408 0 0.121859
0.712764 0 0.108888
0.731151 0 0.0883497
0.748272 0 0.0491493
0.763531 0 0
0.776791 0 0
0.787884 0 0
0.796613 0 0
0.802777 0 0
0.806088 0 0
0.806134 0 0
0.80238 0 0
0.79205 0 0
0.77499 0 0
0.750637 0 0.0375067
0.717113 0 0.104921
0 0.0625162 0.0246433
0 0.0640574 0.0236973
0.0203555 0.065568 0.0227207
0.0327306 0.0670787 0.0215
0.0438087 0.0685588 0.019913
0.0554055 0.0698558 0.0178531
0.0683299 0.070573 0.0152438
0.0763104 0.0673686 0.013962
0.0842603 0.0623331 0.0136873
0.0918746 0.055375 0.0146181
0.0996872 0.0450752 0.0167086
0.107805 0.0263218 0.0196231
0.116335 0 0.0231174
0.125322 0 0.0270542
0.134401 0 0.0310979
0.143389 0 0.035172
0.152117 0 0.0392004
0.160357 0 0.0431067
0.167788 0 0.0467994
0.173938 0 0.0501259
0.1785 0 0.0529641
0.183093 0 0.0557412
0.186053 0 0.0578164
0.18819 0 0.0586709
0.18616 0 0.0580453
0.177707 0 0.055375
0.160815 0 0.0500496
0.13312 0 0.0412299
0.0967422 0 0.0295872
0.0620584 0 0.0186465
0.0326543 0 0.00959792
0.033753 0 0.00993362
0.0348669 0 0.0102693
0.0359655 0 0.010605
0.0370794 0 0.010956
0.0381933 0 0.0112917
0.0393225 0 0.0116274
0.0404364 0 0.0119783
0.0415656 0 0.012314
0.0426795 0 0.0126497
0.0437934 0 0.0130007
0.0449073 0 0.0133364
0.533074 0 0.144442
0.557488 0 0.14583
0.581552 0 0.146166
0.605066 0 0.145281
0.627894 0 0.142931
0.649836 0 0.138857
0.670771 0 0.132708
0.690501 0 0.124025
0.708919 0 0.112062
0.727352 0 0.0935531
0.744549 0 0.061677
0.759899 0 0
0.77322 0 0
0.78436 0 0
0.793149 0 0
0.799344 0 0
0.802655 0 0
0.802686 0 0
0.798871 0 0
0.788434 0 0
0.771206 0 0
0.74667 0 0.0551003
0.712917 0 0.108751
0 0.063447 0.0111696
0 0.0649729 0.00370794
0 0.0666819 0
0.00679026 0.0684672 0
0.0294804 0.0703288 0
0.0432593 0.0721752 0
0.0570687 0.0737621 0
0.0723278 0.0746471 0
0.0821088 0.0709697 0
0.0907301 0.0652628 0
0.0995346 0.0570687 0
0.108782 0.0444495 0
0.118502 0.0122225 0
0.128542 0 0.0142672
0.138521 0 0.0237278
0.148379 0 0.0305638
0.158007 0 0.0364538
0.167208 0 0.0417639
0.175677 0 0.0466011
0.183017 0 0.0509194
0.190921 0 0.0552529
0.198352 0 0.0592203
0.203387 0 0.062211
0.205127 0 0.0639658
0.205753 0 0.0641642
0.200244 0 0.0624399
0.186526 0 0.0581521
0.162142 0 0.0504768
0.1243 0 0.0383917
0.0814679 0 0.0247349
0.0420233 0 0.0124514
0.0335699 0 0.00988785
0.0346838 0 0.0102235
0.0357824 0 0.0105592
0.0368963 0 0.0108949
0.0380102 0 0.0112306
0.0391241 0 0.0115663
0.040238 0 0.0119173
0.0413672 0 0.012253
0.0424811 0 0.0125887
0.043595 0 0.0129397
0.0446937 0 0.0132753
0.528496 0 0.144076
0.552865 0 0.145632
0.576898 0 0.146197
0.600412 0 0.145571
0.62324 0 0.143542
0.645212 0 0.139895
0.666163 0 0.134279
0.685954 0 0.126329
0.704433 0 0.115434
0.722942 0 0.0988479
0.74023 0 0.0723583
0.755642 0 0
0.769039 0 0
0.780255 0 0
0.78909 0 0
0.795316 0 0
0.798642 0 0
0.798642 0 0
0.794766 0 0
0.784207 0 0
0.766796 0 0
0.742046 0 0.0682231
0.708064 0 0.112734
0 0.0640269 0
0 0.0654612 0
0 0.0673533 0
0 0.0693675 0
0 0.0715648 0
0.02533 0.0738537 0
0.0428168 0.0761425 0
0.0592355 0.0780957 0
0.0771954 0.0791485 0
0.088304 0.075227 0
0.0979782 0.0686503 0
0.108186 0.0591287 0
0.119127 0.0434424 0
0.130327 0 0
0.141466 0 0
0.152468 0 0.0191196
0.163256 0 0.0303044
0.173648 0 0.0383001
0.184482 0 0.0452888
0.194995 0 0.051545
0.204868 0 0.057084
0.214359 0 0.0621958
0.221729 0 0.0663462
0.226032 0 0.0693065
0.226749 0 0.0706645
0.224674 0 0.0700236
0.214755 0 0.0669566
0.19443 0 0.0606241
0.160555 0 0.0499733
0.111162 0 0.0341802
0.0643168 0 0.0193484
0.0333715 0 0.00982681
0.0344701 0 0.0101472
0.0355688 0 0.0104829
0.0366827 0 0.0108339
0.0377966 0 0.0111696
0.0389105 0 0.0115053
0.0400244 0 0.011841
0.0411383 0 0.012192
0.0422522 0 0.0125277
0.0433661 0 0.0128634
0.0444648 0 0.0131991
0.523201 0 0.143618
0.547509 0 0.145373
0.571496 0 0.146166
0.59498 0 0.14583
0.617823 0 0.144167
0.639826 0 0.140963
0.660822 0 0.135943
0.680659 0 0.128771
0.699199 0 0.118959
0.7178 0 0.104265
0.735164 0 0.0820325
0.750668 0 0.0372778
0.764157 0 0
0.775448 0 0
0.784344 0 0
0.790616 0 0
0.793927 0 0
0.793896 0 0
0.78996 0 0
0.779248 0 0
0.761654 0 0
0.736645 0 0.0794232
0.702388 0 0.116854
0 0.0644236 0
0 0.0654154 0
0 0.0674601 0
0 0.0696574 0
0 0.0720989 0
0 0.0747692 0
0.0219883 0.0775616 0
0.0438697 0.0803082 0
0.0631113 0.0826429 0
0.0825513 0.0836805 0
0.0953231 0.0793927 0
0.106081 0.0719768 0
0.117845 0.0608988 0
0.130068 0.0420691 0
0.142519 0 0
0.155428 0 0
0.168505 0 0.0113375
0.181598 0 0.0312047
0.194446 0 0.0418097
0.206821 0 0.0501564
0.218738 0 0.0573739
0.23061 0 0.0639963
0.240635 0 0.0696269
0.247944 0 0.0740978
0.251362 0 0.0770733
0.250599 0 0.0779583
0.245151 0 0.0763104
0.22974 0 0.0715801
0.201038 0 0.0626841
0.155261 0 0.0482948
0.0943008 0 0.028809
0.0428016 0 0.0126955
0.034226 0 0.0100862
0.0353246 0 0.0104219
0.0364385 0 0.0107576
0.0375372 0 0.0110933
0.0386511 0 0.011429
0.039765 0 0.0117647
0.0408789 0 0.0121004
0.0419776 0 0.0124514
0.0430915 0 0.0127871
0.0441901 0 0.0131228
0.517052 0 0.143053
0.541299 0 0.145006
0.565225 0 0.146059
0.588693 0 0.146044
0.611536 0 0.144778
0.633555 0 0.142061
0.654597 0 0.137682
0.674495 0 0.131304
0.693095 0 0.122606
0.711788 0 0.109728
0.729259 0 0.0910353
0.744854 0 0.0608072
0.758434 0 0
0.769818 0 0
0.778775 0 0
0.785077 0 0
0.788418 0 0
0.788357 0 0
0.784329 0 0
0.773449 0 0
0.755627 0 0
0.730343 0 0.0895094
0.69575 0 0.121065
0 0.0658732 0
0 0.0663462 0
0 0.0676432 0
0 0.0697032 0
0 0.0723278 0
0 0.0752422 0
0 0.0784161 0
0.0212863 0.0817426 0
0.0472572 0.0849775 0
0.0681315 0.0874037 0
0.0895399 0.0883345 0
0.103441 0.0834974 0
0.115969 0.0749981 0
0.129351 0.0630045 0
0.143267 0.0422522 0
0.157626 0 0
0.172335 0 0
0.187274 0 0
0.202243 0 0.0316777
0.216999 0 0.0444038
0.231479 0 0.0543984
0.246143 0 0.0633402
0.259236 0 0.0710155
0.269978 0 0.0774395
0.277302 0 0.0824292
0.279728 0 0.0855573
0.276997 0 0.0859388
0.26743 0 0.0830701
0.245197 0 0.0763104
0.205982 0 0.0642252
0.14519 0 0.0450904
0.0745251 0 0.0225528
0.0339361 0 0.00999466
0.0350347 0 0.0103304
0.0361486 0 0.0106661
0.0372473 0 0.0110018
0.0383459 0 0.0113375
0.0394598 0 0.0116732
0.0405737 0 0.0120089
0.0416724 0 0.0123445
0.0427863 0 0.0126802
0.0438849 0 0.0130312
0.509957 0 0.142321
0.534096 0 0.144518
0.557977 0 0.145846
0.581399 0 0.146166
0.604227 0 0.145327
0.626261 0 0.14316
0.647349 0 0.139422
0.667308 0 0.133913
0.685985 0 0.126314
0.704753 0 0.11519
0.722332 0 0.0995346
0.738064 0 0.0767834
0.751736 0 0.0294804
0.76321 0 0
0.772244 0 0
0.778592 0 0
0.781933 0 0
0.781826 0 0
0.777707 0 0
0.766644 0 0
0.748531 0 0.0480354
0.722942 0 0.0988479
0.688014 0 0.125307
0 0.0686351 0
0 0.0690318 0
0 0.0704204 0
0 0.0719463 0
0 0.0737926 0
0 0.0769665 0
0 0.0804761 0
0 0.0842908 0
0.0218814 0.0882582 0
0.0514534 0.0919203 0
0.0746471 0.0946975 0
0.0976577 0.0958114 0
0.113695 0.0905928 0
0.12755 0.0818036 0
0.142107 0.0692607 0
0.157351 0.0480354 0
0.17322 0 0
0.189609 0 0
0.206378 0 0
0.223301 0 0.029221
0.240482 0 0.0454719
0.25864 0 0.0579232
0.275731 0 0.068452
0.290761 0 0.0776379
0.302556 0 0.0853285
0.310063 0 0.0912184
0.311467 0 0.0947585
0.30634 0 0.0946365
0.291829 0 0.0903639
0.261158 0 0.081178
0.208698 0 0.0650797
0.128222 0 0.0396582
0.053193 0 0.0158999
0.034699 0 0.0102235
0.0357977 0 0.0105592
0.0369116 0 0.0108949
0.0380102 0 0.0112306
0.0391089 0 0.0115663
0.0402228 0 0.011902
0.0413214 0 0.0122377
0.0424201 0 0.0125734
0.0435187 0 0.0129091
0.501747 0 0.141375
0.52578 0 0.143847
0.549554 0 0.14548
0.572946 0 0.146181
0.595743 0 0.1458
0.617792 0 0.144183
0.638911 0 0.141146
0.658915 0 0.136507
0.677668 0 0.130037
0.696544 0 0.120592
0.714244 0 0.107591
0.730083 0 0.0898756
0.743877 0 0.0635538
0.755444 0 0
0.764569 0 0
0.770962 0 0
0.774304 0 0
0.774151 0 0
0.769924 0 0
0.758633 0 0
0.740246 0 0.0722972
0.71429 0 0.107546
0.678996 0 0.129488
0 0.0720836 0
0 0.0718242 0
0 0.0730907 0
0 0.0747082 0
0 0.0765545 0
0 0.0786603 0
0 0.0822309 0
0 0.0865339 0
0 0.0913252 0
0.0241398 0.0962539 0
0.0565347 0.10071 0
0.0816205 0.104112 0
0.106798 0.105684 0
0.124468 0.100252 0
0.139391 0.0908827 0
0.155077 0.0777142 0
0.171603 0.0563821 0
0.188937 0 0
0.207004 0 0
0.225605 0 0
0.244907 0 0.0196384
0.265873 0 0.04448
0.286564 0 0.0595407
0.306325 0 0.0720226
0.324117 0 0.0830396
0.338186 0 0.092607
0.346303 0 0.100053
0.346853 0 0.104509
0.338979 0 0.104051
0.318685 0 0.0982376
0.277699 0 0.0861524
0.207446 0 0.064683
0.105898 0 0.0325017
0.0343175 0 0.0101167
0.0354162 0 0.0104372
0.0365148 0 0.0107729
0.0376135 0 0.0111086
0.0387121 0 0.0114443
0.0398108 0 0.01178
0.0409094 0 0.0121157
0.0420081 0 0.0124514
0.0430915 0 0.0127871
0.492256 0 0.140078
0.516152 0 0.142962
0.539818 0 0.144915
0.563119 0 0.146014
0.58587 0 0.146105
0.607919 0 0.145068
0.629068 0 0.142763
0.649134 0 0.13901
0.667964 0 0.133684
0.686946 0 0.125841
0.704753 0 0.11519
0.720729 0 0.101274
0.734646 0 0.082887
0.746319 0 0.05626
0.755535 0 0
0.761975 0 0
0.765316 0 0
0.765103 0 0
0.760739 0 0
0.749218 0 0.0450141
0.730495 0 0.0892805
0.704143 0 0.115633
0.668406 0 0.133532
0 0.0768749 0
0 0.0766155 0
0 0.0768444 0
0 0.0773785 0
0 0.0793164 0
0 0.0815595 0
0 0.0841077 0
0 0.0883345 0
0 0.0938582 0
0 0.0999008 0
0.0272831 0.105776 0
0.0620737 0.111101 0
0.0890211 0.115221 0
0.116182 0.117754 0
0.135256 0.112474 0
0.151324 0.102663 0
0.168215 0.0892805 0
0.186023 0.0687266 0
0.204761 0 0
0.224384 0 0
0.245106 0 0
0.268147 0 0
0.291539 0 0.0381628
0.314839 0 0.0577401
0.337392 0 0.0728618
0.358144 0 0.0861372
0.375372 0 0.0980697
0.385763 0 0.108095
0.385962 0 0.114458
0.37525 0 0.114076
0.348394 0 0.106706
0.293477 0 0.0908522
0.202472 0 0.0631418
0.081178 0 0.0246586
0.0349584 0 0.0102998
0.0360571 0 0.0106355
0.0371557 0 0.0109712
0.0382391 0 0.0113069
0.0393378 0 0.0116426
0.0404364 0 0.0119631
0.0415198 0 0.0122988
0.0426032 0 0.0126345
0.48127 0 0.138338
0.505028 0 0.141772
0.528542 0 0.144076
0.551736 0 0.145586
0.574426 0 0.146181
0.596445 0 0.145769
0.617609 0 0.144198
0.63772 0 0.14136
0.656611 0 0.137133
0.675715 0 0.130831
0.693645 0 0.122301
0.709743 0 0.111406
0.723796 0 0.0978866
