BMD Gen 5 to wyCol AgX BT.709 2.4.cube
TITLE "wyCol AgX V1"
LUT_3D_SIZE 9
0.0303502 0.0265354 0.0273289
0.0473945 0 0.0227054
0.0709392 0 0.0245518
0.117037 0 0.0360571
0.127565 0 0.0394446
0.04271 0 0.012665
0.618784 0 0.14406
0.442359 0 0.130694
0 0 0
0.0281224 0.0489815 0.0307469
0.0495613 0.0489357 0
0.0894942 0 0
0.175036 0 0.0518654
0.272633 0 0.0846265
0.0418402 0 0.0124056
0.597513 0 0.145708
0.420844 0 0.125734
0 0 0
0 0.0619364 0
0 0.0696727 0
0.0918135 0.0934005 0
0.243 0 0
0.476448 0 0.116121
0.305898 0 0.0945144
0.55433 0 0.145708
0.378729 0 0.115007
0 0 0
0 0.121447 0
0 0.131167 0
0 0.167163 0
0.19881 0.24477 0
0.500435 0 0
0.76318 0 0
0.379294 0 0.11516
0.227039 0 0.0707561
0 0 0
0 0.25301 0
0 0.268391 0
0 0.293538 0
0 0.380804 0
0.393652 0.470756 0
0.614328 0.266026 0
0.372732 0 0.0889143
0 0 0
0 0 0
0 0.424842 0
0 0.440421 0
0 0.460472 0
0 0.499214 0
0 0.601755 0.0521401
0.438361 0.595132 0
0.273365 0.160311 0
0 0 0
0 0 0
0 0.501869 0
0 0.506157 0
0 0.514122 0
0 0.535576 0
0 0.563668 0
0 0.537743 0
0 0.279789 0
0 0 0
0 0 0
0 0.0802472 0
0 0.0804303 0
0 0.0807813 0
0 0.0818036 0
0 0.0827802 0
0 0.0720378 0
0 0.00726329 0
0 0 0
0 0 0
0 0 0
0 0 0
0 0 0
0 0 0
0 0 0
0 0 0
0 0 0
0 0 0
0 0 0
0.0296483 0.0186618 0.0460059
0.0642557 0 0.0363775
0.0881208 0 0.0352483
0.158267 0 0.0502785
0.159777 0 0.0496071
0.0435492 0 0.0129244
0.638758 0 0.141161
0.463035 0 0.135012
0 0 0
0.028687 0.0573739 0.0646677
0.0621195 0.0610208 0.0612192
0.104219 0 0.0512551
0.198886 0 0.0621958
0.272923 0 0.0845808
0.0426795 0 0.0126497
0.617655 0 0.144183
0.441169 0 0.130434
0 0 0
0 0.077409 0
0 0.0800793 0
0.104524 0.108736 0
0.2542 0 0
0.476692 0 0.112825
0.291585 0 0.0902876
0.574578 0 0.146181
0.398199 0 0.120104
0 0 0
0 0.13901 0
0 0.140581 0
0 0.185992 0
0.217609 0.262699 0
0.528801 0 0
0.787671 0 0
0.0398413 0 0.0117952
0.241779 0 0.0752728
0 0 0
0 0.266194 0
0 0.281987 0
0 0.30753 0
0 0.406485 0
0.421454 0.496101 0
0.647089 0.296635 0
0.403555 0 0.0874952
0 0 0
0 0 0
0 0.442924 0
0 0.458564 0
0 0.478706 0
0 0.521187 0
0 0.628779 0.129152
0.466697 0.619547 0.104433
0.291447 0.170504 0
0 0 0
0 0 0
0 0.521431 0
0 0.525734 0
0 0.5337 0
0 0.555108 0
0 0.583078 0
0 0.556939 0
0 0.294575 0
0 0 0
0 0 0
0 0.0857252 0
0 0.0859236 0
0 0.0863203 0
0 0.0874342 0
0 0.0885328 0
0 0.0772106 0
0 0.0110933 0
0 0 0
0 0 0
0 0 0
0 0 0
0 0 0
0 0 0
0 0 0
0 0 0
0 0 0
0 0 0
0 0 0
0.028687 0 0.075227
0.0648814 0 0.0667735
0.134813 0 0.0582437
0.250523 0 0.0811627
0.298314 0 0.0918288
0.0482338 0 0.0143587
0.0527047 0 0.0157473
0.505577 0 0.141848
0 0 0
0.0104067 0.0295415 0.106859
0.0567483 0.0418555 0.103014
0.158343 0 0.0825818
0.292744 0 0.0947127
0.412375 0 0.121355
0.0449073 0 0.0133364
0.0517128 0 0.0154421
0.483207 0 0.138659
0 0 0
0 0.126848 0.172534
0 0.138384 0.165438
0.143084 0.148333 0.14934
0.297108 0 0.114946
0.518685 0 0.101015
0.26717 0 0.0829938
0.0497292 0 0.0148318
0.438804 0 0.1299
0 0 0
0 0.209613 0.0586099
0 0.21648 0.0213779
0 0.230411 0
0.261692 0.307408 0
0.575647 0 0
0.821286 0 0
0.0416266 0 0.0123293
0.273182 0 0.0847944
0 0 0
0 0.331258 0
0 0.327108 0
0 0.344213 0
0 0.461112 0
0.47863 0.547127 0
0.709514 0.364767 0
0.470466 0 0.0766766
0.00456245 0 0.00129702
0 0 0
0 0.480217 0
0 0.495827 0
0 0.515999 0
0 0.580011 0
0 0.681956 0.220417
0.524453 0.667292 0.211582
0.335149 0.194537 0
0 0 0
0 0 0
0 0.561044 0
0 0.565347 0
0 0.573236 0
0 0.594339 0.0323796
0 0.621714 0.118242
0 0.595346 0
0.0680858 0.325856 0
0 0 0
0 0 0
0 0.0986801 0
0 0.0989395 0
0 0.0993973 0
0 0.100786 0
0 0.102144 0
0 0.0883803 0
0 0.0188602 0
0 0 0
0 0 0
0 0 0
0 0 0
0 0 0
0 0 0
0 0 0
0 0 0
0 0 0
0 0 0
0 0 0
0.0475929 0 0.146914
0.0729534 0 0.133745
0.146899 0 0.110323
0.41471 0 0.128618
0.573999 0 0.136141
0.20177 0 0.0628824
0.0726329 0 0.0219577
0.685771 0 0.126421
0 0 0
0.0242466 0 0.206317
0.0637064 0 0.201755
0.162783 0 0.175463
0.457725 0 0.14229
0.674815 0 0.117983
0.252186 0 0.0783398
0.0682689 0 0.0205844
0.664027 0 0.134966
0 0 0
0 0 0.308324
0 0.0670329 0.301442
0.133471 0.102617 0.282094
0.461234 0 0.208911
0.745724 0 0.0717174
0.699626 0 0.0981613
0.0603342 0 0.0181125
0.619074 0 0.14403
0 0 0
0 0.332891 0.461006
0 0.346532 0.450843
0.0805829 0.366506 0.431159
0.372992 0.386542 0.389075
0.678447 0.215167 0.286259
0.889784 0.314794 0
0.0492866 0 0.0146944
0.428855 0 0.127626
0 0 0
0 0.517418 0.271382
0 0.530739 0.265736
0 0.546593 0.255558
0 0.565332 0.236042
0.602884 0.651438 0.312764
0.859648 0.599847 0
0.777203 0 0
0.0316777 0 0.009308
0 0 0
0 0.643885 0.205966
0 0.652735 0.209995
0 0.663264 0.214115
0 0.714687 0.276631
0.356603 0.804822 0.428367
0.733516 0.820432 0.50309
0.581643 0.354314 0
0 0 0
0 0 0
0 0.717525 0.268467
0 0.721126 0.273808
0 0.72755 0.283375
0 0.744518 0.308934
0.11191 0.796628 0.394781
0.291371 0.791577 0.395392
0.222065 0.474037 0
0 0 0
0 0 0
0 0.191821 0
0 0.192309 0
0 0.193164 0
0 0.195712 0
0 0.198138 0
0 0.170947 0
0 0.0548562 0
0 0 0
0 0 0
0 0 0
0 0 0
0 0 0
0 0 0
0 0 0
0 0 0
0 0 0
0 0 0
0 0 0
0.0844892 0 0.305135
0.12726 0 0.295338
0.200214 0 0.270726
0.451011 0 0.218433
0.830533 0 0
0.492531 0 0.133394
0.351232 0 0.1075
1 1 0.794965
0.0501717 0 0.0149538
0.0398108 0 0.396536
0.117845 0 0.388861
0.201617 0 0.364309
0.470253 0 0.291096
0.877668 0 0
0.740246 0 0
0.368322 0 0.1122
1 1 0.750225
0.0460822 0 0.0137026
0 0 0.522133
0.084596 0 0.512825
0.167926 0 0.495109
0.452873 0 0.42359
0.900053 0.268284 0
0.94519 0.396597 0
0.398413 0 0.119844
1 1 0.620645
0.0380865 0 0.0112459
0 0.357 0.678965
0 0.363195 0.670085
0.13875 0.36936 0.655802
0.352789 0.368933 0.616907
0.856519 0.335256 0.439582
0.976974 0.669322 0
0.438972 0 0.12697
0.992264 0.884352 0
0.00740063 0 0.002121
0.280064 0.686671 0.779385
0.303624 0.691737 0.772183
0.341299 0.697581 0.762142
0.455711 0.704601 0.740093
0.710185 0.698878 0.700954
0.908858 0.657633 0.593805
0.98761 0.845899 0
0.387961 0 0.117449
0 0 0
0.359442 0.83827 0.618631
0.373648 0.841779 0.618311
0.392599 0.846571 0.617777
0.430503 0.855787 0.615915
0.524224 0.864439 0.619928
0.834104 0.879316 0.695003
0.955657 0.890578 0.542473
0.0569009 0 0.0170443
0 0 0
0.514458 0.913024 0.648051
0.516945 0.913771 0.649546
0.521157 0.915022 0.652064
0.53753 0.917693 0.658869
0.608774 0.932418 0.701457
0.737713 0.948669 0.771466
0.887892 0.938155 0.795102
0 0.0163577 0
0 0 0
0.149569 0.821057 0.433967
0.152132 0.821485 0.434714
0.156771 0.822263 0.436103
0.169055 0.824445 0.44004
0.179736 0.826474 0.443717
0.0417487 0.798825 0.397299
0 0.526848 0
0 0 0
0 0 0
0 0 0
0 0 0
0 0 0
0 0 0
0 0 0
0 0 0
0 0 0
0 0 0
0 0 0
0.223499 0 0.674235
0.259586 0 0.667292
0.323339 0 0.653193
0.540139 0 0.59617
0.896117 0.209476 0.365026
0.978241 0.619333 0
0.744152 0 0.0149844
0.992248 0.888197 0
1 1 1
0.195453 0 0.718776
0.235935 0 0.713603
0.303777 0 0.702571
0.52488 0 0.654108
0.894621 0.239231 0.456504
0.990509 0.760571 0
0.74789 0 0
0.992309 0.868925 0
1 1 1
0.155215 0.265476 0.768963
0.192142 0.255055 0.765362
0.267552 0.221286 0.758801
0.49366 0 0.724193
0.883314 0.24094 0.56733
0.995422 0.866773 0
0.750439 0 0
0.991943 0.826139 0
1 1 1
0.238132 0.528099 0.843976
0.256718 0.524498 0.841276
0.289723 0.517601 0.836347
0.417334 0.482719 0.819989
0.825055 0.35761 0.743542
0.997971 0.835248 0.388586
0.98323 0.665766 0
0.976226 0.58616 0
1 1 1
0.477195 0.756039 0.894057
0.482673 0.755169 0.892348
0.493629 0.753445 0.889372
0.541314 0.745541 0.879683
0.700435 0.712062 0.856413
0.976165 0.748714 0.733639
1 0.936782 0.586389
0.654871 0 0.137606
1 1 0.959243
0.712688 0.893431 0.921126
0.714427 0.893736 0.920104
0.717922 0.894224 0.918242
0.732311 0.895064 0.912581
0.78265 0.892668 0.901823
0.887922 0.885893 0.886275
0.976333 0.873899 0.837125
1 0.984527 0.685817
0 0 0
0.764691 0.955825 0.852262
0.765606 0.956191 0.852247
0.767285 0.956847 0.852232
0.772747 0.95874 0.85214
0.785321 0.961517 0.851728
0.815534 0.961944 0.8533
0.939345 0.961944 0.886137
0.994537 0.974075 0.828412
0 0 0
0.828458 0.982345 0.871794
0.828641 0.982391 0.871916
0.829007 0.982452 0.872129
0.83032 0.982712 0.872923
0.833844 0.983337 0.874998
0.856214 0.986938 0.89012
0.903151 0.991226 0.917037
0.966217 0.985016 0.925673
0 0 0
0 0.502602 0
0 0.502266 0
0 0.501595 0
0 0.498711 0
0 0.485557 0
0 0.420523 0
0 0.160281 0
0 0 0
0 0 0
0.535332 0.620722 0.918685
0.545907 0.616205 0.918059
0.566979 0.607172 0.916747
0.648798 0.571038 0.910536
0.85359 0.50222 0.875044
1 0.775113 0.679744
0.88838 0 0
0.989609 0.752331 0
1 1 1
0.534661 0.63769 0.921675
0.544656 0.633478 0.921126
0.56466 0.624964 0.919966
0.643519 0.590631 0.914473
0.847059 0.518624 0.882383
0.999786 0.768566 0.700389
0.980743 0.640787 0
0.988174 0.725231 0
1 1 1
0.535531 0.666484 0.926467
0.544427 0.662745 0.926024
0.562402 0.655177 0.925124
0.635203 0.624079 0.920745
0.834913 0.548836 0.89424
0.998245 0.757443 0.734035
0.993271 0.982162 0
0.984024 0.666133 0
1 1 1
0.555444 0.741924 0.937087
0.560937 0.739528 0.936934
0.572366 0.734585 0.936599
0.62295 0.713176 0.934722
0.796475 0.64268 0.921309
0.989319 0.732509 0.815976
1 1 0.628153
0.940352 0.331548 0
1 1 1
0.670756 0.838727 0.953994
0.672084 0.837949 0.953704
0.67483 0.836408 0.95314
0.686946 0.830213 0.951003
0.748821 0.803677 0.9458
0.948394 0.755856 0.912444
1 0.963851 0.773938
0.943893 0.374319 0
1 1 1
0.800488 0.91754 0.967651
0.800946 0.917357 0.967437
0.801877 0.917006 0.967025
0.805997 0.915541 0.965515
0.823377 0.910292 0.96141
0.882506 0.894163 0.952514
1 0.907942 0.901106
1 0.994949 0.850431
0.99469 1 0.216831
0.895766 0.967346 0.978195
0.895918 0.967361 0.978058
0.896254 0.967407 0.977813
0.897612 0.967559 0.976883
0.902678 0.967666 0.974472
0.920623 0.966308 0.970031
0.963119 0.963424 0.963485
1 0.959472 0.941558
1 1 0.885603
0.916167 0.994141 0.949569
0.916228 0.994171 0.949554
0.916381 0.994232 0.949554
0.91693 0.994476 0.949523
0.918715 0.995193 0.949432
0.923018 0.996277 0.949187
0.933715 0.996323 0.949355
0.98819 0.996124 0.962722
1 1 0.940017
0.940642 1 0.957916
0.940658 1 0.957916
0.940688 1 0.957946
0.94081 1 0.958022
0.941268 1 0.958312
0.942473 1 0.959045
0.950759 1 0.964858
0.971557 1 0.976913
0.997162 1 0.979995
0.817975 0.868528 0.982055
0.818936 0.86807 0.982025
0.820859 0.86714 0.981949
0.828962 0.863279 0.981674
0.861799 0.848646 0.980102
0.952026 0.823224 0.966308
1 0.927337 0.881758
0.990494 0.773556 0
1 1 1
0.818082 0.870054 0.982223
0.819013 0.869596 0.982193
0.820905 0.868681 0.982132
0.82887 0.864881 0.981872
0.86125 0.850401 0.980362
0.951156 0.824537 0.966964
1 0.926345 0.883772
0.990585 0.775753 0
1 1 1
0.818341 0.872984 0.982559
0.819226 0.872541 0.982528
0.821057 0.871656 0.982483
0.828748 0.867964 0.982223
0.860227 0.853773 0.980819
0.949432 0.827176 0.9682
1 0.924453 0.887633
0.990555 0.774701 0
1 1 1
0.820066 0.88365 0.983749
0.820829 0.883253 0.983719
0.8224 0.882475 0.983688
0.829038 0.879194 0.98349
0.857038 0.866224 0.982437
0.94287 0.837552 0.972473
1 0.91783 0.901411
0.984741 0.682445 0
1 1 1
0.831861 0.911208 0.986618
0.832303 0.910964 0.986603
0.833173 0.91046 0.986587
0.836988 0.908354 0.986526
0.854536 0.899428 0.986114
0.923888 0.871153 0.981674
1 0.904067 0.935546
1 1 0.882445
1 1 1
0.879118 0.945922 0.992996
0.87921 0.945846 0.992966
0.879408 0.945693 0.992905
0.880247 0.945037 0.99266
0.884047 0.942489 0.99176
0.905486 0.931716 0.989578
0.989288 0.911467 0.975769
1 1 0.918807
0.954177 0.422522 0
0.929244 0.976699 0.99939
0.92929 0.976684 0.999359
0.929351 0.976638 0.999313
0.929656 0.976501 0.99913
0.931014 0.975891 0.998428
0.937331 0.973632 0.99649
0.960418 0.967025 0.992294
1 0.974685 0.968017
1 1 0.948013
0.967193 0.999008 1
0.967208 0.999008 1
0.967239 0.999023 1
0.967361 0.999039 1
0.967849 0.999115 1
0.969894 0.999191 1
0.977523 0.998672 1
0.998291 0.99678 0.997055
1 0.994598 0.987671
0.975677 1 0.990829
0.975677 1 0.990829
0.975692 1 0.990829
0.975753 1 0.990814
0.975982 1 0.990799
0.976715 1 0.990723
0.978546 1 0.990555
0.984573 1 0.991119
1 1 0.996948
0.935119 0.957717 1
0.935195 0.957671 1
0.935363 0.957595 1
0.93608 0.957214 1
0.939147 0.955642 1
0.951995 0.949676 1
0.991913 0.938827 0.998978
1 0.987396 0.959838
0.995468 1 0.298817
0.935134 0.957855 1
0.93521 0.957824 1
0.935378 0.957732 1
0.936095 0.957351 1
0.939132 0.955795 1
0.951934 0.949844 1
0.991821 0.938949 0.999039
1 0.987289 0.960021
0.994644 1 0.209934
0.935164 0.958144 1
0.935241 0.958099 1
0.935409 0.958007 1
0.93611 0.957641 1
0.939132 0.956085 1
0.951843 0.950164 1
0.991623 0.939178 0.999176
1 0.987045 0.960403
0.993118 1 0
0.935302 0.959274 1
0.935378 0.959228 1
0.935546 0.959152 1
0.936217 0.958785 1
0.939132 0.957275 1
0.951446 0.951476 1
0.990829 0.940169 0.999741
1 0.986099 0.961959
0.989807 1 0
0.936141 0.963424 1
0.936217 0.963394 1
0.936355 0.963317 1
0.936919 0.962997 1
0.939406 0.961654 1
0.950256 0.956329 1
0.987823 0.944121 1
1 0.982727 0.96762
0.990616 0.984482 0
0.941176 0.974411 1
0.941222 0.974395 1
0.941299 0.97435 1
0.941619 0.974136 1
0.943008 0.973266 1
0.94963 0.969543 1
0.979309 0.957336 1
1 0.975067 0.982498
1 1 0.962173
0.960388 0.989136 1
0.960403 0.98912 1
0.960418 0.989105 1
0.960479 0.989044 1
0.9608 0.988754 1
0.962249 0.98761 1
0.971313 0.982727 1
1 0.974609 1
1 1 0.976806
0.981445 1 1
0.981445 1 1
0.981445 1 1
0.981476 1 1
0.981598 1 1
0.982162 1 1
0.985061 1 1
0.997818 0.998199 1
1 1 1
0.998886 1 1
0.998886 1 1
0.998886 1 1
0.998901 1 1
0.998947 1 1
0.999176 1 1
1 1 1
1 1 1
1 1 1
