BT.709 2.4 to wyCol AgX BT.709 2.4.cube
TITLE "wyCol AgX V1"
LUT_3D_SIZE 5
0.0536965 0.0517891 0.0521706
0.121035 0 0.0476692
0.237476 0 0.0704204
0.387717 0 0.0871595
0.542092 0 0.062089
0 0.129595 0
0.170809 0.177295 0
0.311101 0.131136 0
0.46482 0 0
0.603128 0 0
0 0.295109 0
0.129076 0.332418 0
0.355047 0.372457 0
0.5037 0.346777 0
0.635019 0.330571 0
0 0.468025 0.135805
0.142641 0.49427 0.153048
0.344152 0.532341 0.180835
0.535134 0.554055 0.19794
0.645838 0.54284 0.173342
0.157321 0.619791 0.267765
0.245258 0.63386 0.282872
0.380377 0.656458 0.311269
0.538109 0.678126 0.345083
0.659693 0.686671 0.36083
0.0548867 0.0457313 0.157855
0.228412 0 0.131884
0.389929 0 0.137545
0.534997 0 0.148272
0.654459 0 0.143542
0.102846 0.231159 0.265644
0.239399 0.249226 0.251102
0.381247 0.193698 0.228794
0.526406 0.0871901 0.212238
0.652003 0 0.189136
0 0.375357 0.220523
0.167758 0.390677 0.217395
0.413596 0.431083 0.2392
0.559365 0.401068 0.223636
0.677134 0.384344 0.193133
0 0.50956 0.243107
0.188037 0.533883 0.260029
0.38233 0.568185 0.288701
0.571405 0.587289 0.309056
0.675853 0.574502 0.294041
0.205844 0.64361 0.332998
0.282048 0.656321 0.347356
0.410224 0.676493 0.374136
0.5626 0.695567 0.405615
0.679774 0.702968 0.420691
0.0975357 0.0953536 0.337224
0.23769 0.0945754 0.315358
0.495338 0 0.272267
0.667338 0 0.252903
0.768078 0 0.232151
0.140505 0.270344 0.426276
0.252705 0.287007 0.410163
0.485039 0.229435 0.367346
0.642161 0.165072 0.342245
0.744747 0.19791 0.325154
0.255085 0.47071 0.518135
0.339559 0.479347 0.508507
0.485481 0.491447 0.492546
0.606424 0.449805 0.468254
0.708705 0.431266 0.444495
0.270848 0.596063 0.468696
0.325536 0.599344 0.461997
0.440681 0.608881 0.460807
0.620615 0.625742 0.483238
0.712306 0.609735 0.471778
0.32578 0.687953 0.471778
0.356893 0.689219 0.469184
0.460685 0.702495 0.487098
0.601495 0.717952 0.514427
0.71046 0.724224 0.528298
0.158602 0.218769 0.519936
0.251881 0.236637 0.503548
0.488319 0.155047 0.466438
0.722744 0.0707866 0.406775
0.829297 0.255818 0.36791
0.202976 0.348424 0.57348
0.290791 0.357824 0.560174
0.480354 0.331609 0.532448
0.705135 0.28426 0.475975
0.809796 0.332509 0.443534
0.30901 0.514046 0.634684
0.376837 0.518654 0.625925
0.495048 0.52398 0.609705
0.67982 0.483299 0.57261
0.772793 0.47512 0.550942
0.446906 0.650492 0.683803
0.489937 0.652323 0.678813
0.570748 0.65539 0.670039
0.666178 0.657938 0.659464
0.73698 0.633326 0.644099
0.481239 0.729961 0.647654
0.50634 0.730663 0.644495
0.556435 0.731319 0.638163
0.642985 0.735683 0.640558
0.741405 0.741802 0.652628
0.239124 0.370733 0.659037
0.311345 0.374762 0.647868
0.488777 0.342214 0.625452
0.700038 0.295872 0.581781
0.849592 0.376669 0.518547
0.28397 0.45272 0.686152
0.349859 0.454932 0.676463
0.486275 0.443153 0.658289
0.687083 0.395315 0.622583
0.835187 0.426383 0.566903
0.378332 0.571298 0.721675
0.428962 0.572183 0.714717
0.520867 0.572457 0.701656
0.670695 0.544045 0.6804
0.808637 0.529595 0.639307
0.493996 0.678355 0.752468
0.526909 0.678676 0.748363
0.591073 0.678965 0.740597
0.670909 0.67953 0.729793
0.782513 0.653193 0.706188
0.597498 0.75816 0.779065
0.617884 0.75816 0.776761
0.659541 0.75819 0.772305
0.714794 0.75903 0.766613
0.767437 0.759289 0.760784
