BT.709 2.4 to wyCol AgX BT.709 2.4.cube
TITLE "wyCol AgX V1"
LUT_3D_SIZE 9
0.0536965 0.0517891 0.0521706
0.0816358 0.0288701 0.0472725
0.121035 0 0.0476692
0.175692 0 0.0571603
0.237476 0 0.0704204
0.310155 0 0.0834821
0.387717 0 0.0871595
0.466026 0 0.0819867
0.542092 0 0.062089
0 0.083299 0.0039826
0.100557 0.0985122 0
0.15819 0.0738994 0
0.219593 0 0
0.285267 0 0.016434
0.35787 0 0.0249027
0.431922 0 0.0100404
0.50518 0 0
0.574807 0 0
0 0.129595 0
0.0733349 0.157809 0
0.170809 0.177295 0
0.237537 0.161837 0
0.311101 0.131136 0
0.388861 0.044358 0
0.46482 0 0
0.536782 0 0
0.603128 0 0
0 0.210849 0
0.0262913 0.230701 0
0.14757 0.25359 0
0.256489 0.27306 0
0.332433 0.25861 0
0.41088 0.238178 0
0.487221 0.213016 0
0.558572 0.187549 0
0.623178 0.171298 0
0 0.295109 0
0 0.311269 0
0.129076 0.332418 0
0.237903 0.356268 0
0.355047 0.372457 0
0.430228 0.359899 0
0.5037 0.346777 0
0.57261 0.335805 0
0.635019 0.330571 0
0 0.382361 0.0544594
0 0.395285 0.0658122
0.120821 0.413748 0.0793317
0.233036 0.436561 0.0936904
0.346288 0.458213 0.105882
0.45066 0.468208 0.106996
0.518715 0.458412 0.0860761
0.583139 0.450568 0.0308232
0.641474 0.446693 0
0 0.468025 0.135805
0 0.478828 0.142794
0.142641 0.49427 0.153048
0.243091 0.513222 0.166278
0.344152 0.532341 0.180835
0.449958 0.549477 0.195239
0.535134 0.554055 0.19794
0.593515 0.546914 0.186923
0.645838 0.54284 0.173342
0 0.548974 0.201572
0.106569 0.556939 0.20795
0.187686 0.568582 0.217777
0.269139 0.583307 0.231342
0.356207 0.598718 0.247379
0.448035 0.613062 0.264378
0.540734 0.626047 0.280705
0.606149 0.626474 0.281987
0.651423 0.622126 0.275685
0.157321 0.619791 0.267765
0.194995 0.625452 0.273655
0.245258 0.63386 0.282872
0.308354 0.644739 0.295766
0.380377 0.656458 0.311269
0.458152 0.667765 0.32813
0.538109 0.678126 0.345083
0.613703 0.687816 0.360601
0.659693 0.686671 0.36083
0.0530098 0.054139 0.0920119
0.115328 0 0.0820478
0.178927 0 0.0817273
0.241535 0 0.0894026
0.307698 0 0.0980545
0.378836 0 0.105562
0.448707 0 0.113191
0.515267 0 0.118471
0.577249 0 0.118898
0.0623636 0.125475 0.140978
0.129335 0.133959 0.134859
0.187869 0.110323 0.125322
0.250843 0.0608988 0.119692
0.319188 0 0.117617
0.393408 0 0.117342
0.467185 0 0.116442
0.538109 0 0.111131
0.604166 0 0.0952468
0 0.185397 0.117662
0.0895247 0.194003 0.112001
0.202258 0.214618 0.119249
0.275914 0.196841 0.115587
0.350134 0.164752 0.110689
0.425559 0.10901 0.105638
0.498268 0 0.0982376
0.566506 0 0.0822919
0.62887 0 0.0254215
0 0.247822 0.106538
0.0454566 0.262364 0.107927
0.167452 0.285481 0.113817
0.286809 0.306096 0.116503
0.366735 0.289555 0.10927
0.445457 0.267475 0.0986648
0.519234 0.243183 0.081178
0.586618 0.222232 0.0348516
0.646891 0.212375 0
0 0.322301 0.113756
0 0.338338 0.119173
0.145357 0.359335 0.125628
0.259007 0.382971 0.132113
0.38146 0.399222 0.13434
0.457496 0.385504 0.123598
0.530053 0.371572 0.106661
0.596521 0.360479 0.0746166
0.655711 0.355596 0
0 0.404868 0.14081
0 0.417578 0.14638
0.138796 0.435813 0.154635
0.250629 0.458045 0.165301
0.365576 0.478874 0.176181
0.471504 0.488609 0.180255
0.538903 0.478218 0.16965
0.601892 0.469902 0.154299
0.658137 0.465644 0.131472
0 0.486107 0.182132
0 0.496605 0.188525
0.161257 0.511604 0.198199
0.259098 0.52987 0.211109
0.360128 0.54815 0.225803
0.465675 0.564355 0.240391
0.550698 0.568673 0.244388
0.608011 0.561181 0.23563
0.65893 0.556756 0.225254
0.0288548 0.562737 0.235065
0.132174 0.570428 0.241367
0.204822 0.581643 0.251102
0.28394 0.595758 0.2645
0.370047 0.610422 0.280293
0.461082 0.624002 0.296986
0.552712 0.636255 0.312886
0.617548 0.636561 0.314687
0.661753 0.632013 0.308995
0.177462 0.629862 0.29366
0.2121 0.635294 0.299428
0.260044 0.643366 0.308446
0.321523 0.653773 0.321065
0.392432 0.664973 0.336217
0.4692 0.675715 0.352636
0.548135 0.685557 0.369085
0.622431 0.694728 0.384039
0.667964 0.693584 0.384558
0.0548867 0.0457313 0.157855
0.125292 0.0344244 0.148486
0.228412 0 0.131884
0.316884 0 0.131289
0.389929 0 0.137545
0.465034 0 0.143954
0.534997 0 0.148272
0.598321 0 0.148638
0.654459 0 0.143542
0.0698405 0.136385 0.211063
0.132677 0.146654 0.203769
0.233341 0.120333 0.185977
0.314885 0 0.177264
0.386465 0 0.176577
0.459953 0 0.177661
0.528801 0 0.178943
0.591531 0 0.178531
0.64741 0 0.174975
0.102846 0.231159 0.265644
0.165103 0.240208 0.259068
0.239399 0.249226 0.251102
0.309041 0.226108 0.239109
0.381247 0.193698 0.228794
0.455329 0.151049 0.220233
0.526406 0.0871901 0.212238
0.592386 0 0.202701
0.652003 0 0.189136
0.0425574 0.307347 0.234958
0.122805 0.312306 0.228305
0.191394 0.319326 0.221271
0.317464 0.340932 0.233631
0.403815 0.324025 0.229435
0.479133 0.299443 0.2206
0.548501 0.276036 0.210193
0.611765 0.259068 0.197452
0.668376 0.253819 0.180194
0 0.375357 0.220523
0.0719005 0.378668 0.215824
0.167758 0.390677 0.217395
0.285588 0.41413 0.229755
0.413596 0.431083 0.2392
0.489372 0.41619 0.233082
0.559365 0.401068 0.223636
0.621973 0.389364 0.21062
0.677134 0.384344 0.193133
0 0.442725 0.223835
0 0.445243 0.220874
0.164553 0.463111 0.231067
0.274784 0.484428 0.244144
0.390692 0.504143 0.257649
0.498009 0.513771 0.265034
0.563973 0.50277 0.257939
0.624613 0.493751 0.247959
0.677821 0.488792 0.234989
0 0.50956 0.243107
0.0863813 0.519615 0.249866
0.188037 0.533883 0.260029
0.28217 0.551125 0.273503
0.38233 0.568185 0.288701
0.486839 0.583169 0.3037
0.571405 0.587289 0.309056
0.627039 0.5794 0.302159
0.675853 0.574502 0.294041
0.108461 0.581094 0.284382
0.165499 0.588373 0.290654
0.229908 0.598932 0.300313
0.305715 0.612131 0.313558
0.390051 0.625772 0.329061
0.479545 0.638331 0.345296
0.569329 0.649638 0.360616
0.63328 0.649882 0.363088
0.675914 0.645075 0.358129
0.205844 0.64361 0.332998
0.237079 0.648722 0.338598
0.282048 0.656321 0.347356
0.341192 0.666056 0.359564
0.410224 0.676493 0.374136
0.485359 0.686473 0.389914
0.5626 0.695567 0.405615
0.634867 0.704051 0.41976
0.679774 0.702968 0.420691
0.0675975 0.0640879 0.242847
0.131502 0.0777905 0.234852
0.232929 0 0.217655
0.35877 0 0.199954
0.464652 0 0.194598
0.541054 0 0.19559
0.609293 0 0.194598
0.668589 0 0.189792
0.719295 0 0.179919
0.0884871 0.151904 0.292042
0.144518 0.163912 0.284153
0.233066 0.155398 0.270756
0.356985 0.0796521 0.247242
0.457404 0 0.236027
0.532418 0 0.233387
0.600137 0 0.230503
0.659464 0 0.225757
0.710552 0 0.218112
0.11783 0.247181 0.345556
0.174365 0.256107 0.338827
0.242329 0.265049 0.329625
0.354498 0.241703 0.309987
0.446433 0.200168 0.29485
0.518685 0.158846 0.288319
0.585168 0.115084 0.282948
0.644358 0.086244 0.277485
0.695994 0.107271 0.271031
0.168002 0.352789 0.399222
0.217639 0.359274 0.393713
0.281865 0.367193 0.386481
0.361135 0.375372 0.378058
0.436027 0.352499 0.364462
0.50602 0.326268 0.351781
0.57203 0.305013 0.340002
0.632395 0.291844 0.328206
0.68632 0.290043 0.315419
0.150683 0.431006 0.36672
0.193317 0.434806 0.361776
0.246464 0.439399 0.354528
0.31693 0.444968 0.346136
0.44947 0.46363 0.361273
0.522087 0.446799 0.355489
0.586404 0.428992 0.345266
0.643992 0.416007 0.333455
0.695232 0.41062 0.320455
0.141131 0.49633 0.34844
0.177966 0.498634 0.345022
0.227314 0.501778 0.339483
0.305425 0.511894 0.341665
0.420294 0.530251 0.357443
0.528145 0.540139 0.367559
0.591318 0.528313 0.362005
0.648142 0.517906 0.353445
0.69723 0.511574 0.342947
0.156466 0.55584 0.34786
0.187076 0.557427 0.345464
0.227512 0.559625 0.341878
0.312322 0.574105 0.35407
0.410086 0.589654 0.369726
0.512108 0.603235 0.384924
0.595697 0.60737 0.391531
0.648798 0.599008 0.385992
0.694682 0.593378 0.379156
0.193149 0.610117 0.361379
0.214405 0.611185 0.359991
0.263005 0.618402 0.366079
0.334493 0.630457 0.379034
0.4159 0.642847 0.394064
0.502724 0.654231 0.409628
0.58967 0.664439 0.424109
0.652369 0.664775 0.427329
0.692805 0.659663 0.423117
0.241917 0.659693 0.386786
0.269825 0.664408 0.392157
0.311376 0.671366 0.400504
0.367376 0.680278 0.4121
0.433692 0.689784 0.425925
0.50634 0.698817 0.440787
0.581064 0.707057 0.455528
0.650446 0.714733 0.468574
0.69456 0.713817 0.470085
0.0975357 0.0953536 0.337224
0.145373 0.116197 0.329091
0.23769 0.0945754 0.315358
0.357778 0 0.294011
0.495338 0 0.272267
0.602426 0 0.258564
0.667338 0 0.252903
0.722255 0 0.244343
0.768078 0 0.232151
0.112413 0.178012 0.378637
0.162905 0.189731 0.37084
0.234775 0.193484 0.359716
0.355077 0.154269 0.339239
0.4907 0 0.312673
0.592813 0 0.296712
0.65742 0 0.290074
0.712657 0 0.281956
0.759121 0 0.271702
0.140505 0.270344 0.426276
0.190433 0.278325 0.419562
0.252705 0.287007 0.410163
0.350988 0.27689 0.395895
0.485039 0.229435 0.367346
0.578576 0.18674 0.350225
0.642161 0.165072 0.342245
0.697505 0.168582 0.334081
0.744747 0.19791 0.325154
0.18912 0.37232 0.474449
0.233021 0.377935 0.469154
0.291417 0.384878 0.46186
0.364904 0.391699 0.452171
0.480873 0.367605 0.431067
0.561746 0.339483 0.415473
0.622965 0.322484 0.406394
0.677562 0.315572 0.397925
0.725185 0.320394 0.389654
0.255085 0.47071 0.518135
0.290013 0.474403 0.514107
0.339559 0.479347 0.508507
0.408469 0.485283 0.500816
0.485481 0.491447 0.492546
0.547936 0.469535 0.480293
0.606424 0.449805 0.468254
0.660395 0.436622 0.456397
0.708705 0.431266 0.444495
0.258366 0.539544 0.488533
0.285939 0.541924 0.485008
0.328008 0.545113 0.479377
0.3823 0.548348 0.471641
0.451347 0.552911 0.466453
0.558663 0.563851 0.478706
0.616861 0.550225 0.472953
0.668055 0.537163 0.46331
0.712581 0.529061 0.452873
0.270848 0.596063 0.468696
0.292836 0.597482 0.466056
0.325536 0.599344 0.461997
0.369039 0.601312 0.456458
0.440681 0.608881 0.460807
0.538613 0.621256 0.475731
0.620615 0.625742 0.483238
0.670283 0.616617 0.478401
0.712306 0.609735 0.471778
0.294682 0.645029 0.464118
0.31104 0.645899 0.462425
0.336095 0.647044 0.459785
0.37055 0.648356 0.456199
0.44509 0.658701 0.469062
0.528115 0.66891 0.483696
0.611246 0.678096 0.497154
0.672099 0.678737 0.501091
0.71014 0.673198 0.497459
0.32578 0.687953 0.471778
0.337865 0.688472 0.470756
0.356893 0.689219 0.469184
0.397818 0.69398 0.474235
0.460685 0.702495 0.487098
0.530022 0.710567 0.500877
0.601495 0.717952 0.514427
0.667231 0.724834 0.526177
0.71046 0.724224 0.528298
0.126207 0.149294 0.43209
0.170642 0.163561 0.424384
0.24361 0.162982 0.413489
0.3579 0.118883 0.394858
0.491051 0 0.369558
0.622629 0 0.341985
0.711482 0 0.320821
0.762051 0 0.309941
0.803571 0.128328 0.296986
0.141039 0.219501 0.4645
0.186252 0.228763 0.457298
0.243534 0.238895 0.44715
0.354437 0.214191 0.431724
0.486885 0.15671 0.405798
0.615778 0 0.376333
0.701976 0 0.355688
0.752926 0.116808 0.345281
0.795178 0.195331 0.333639
0.169162 0.304128 0.503441
0.212604 0.310399 0.497215
0.269215 0.317739 0.488365
0.351339 0.316258 0.476417
0.481941 0.279301 0.453605
0.606287 0.238102 0.423484
0.687572 0.225925 0.404135
0.738766 0.239719 0.394064
0.781857 0.270466 0.383566
0.216526 0.398672 0.543694
0.254414 0.40296 0.538766
0.306493 0.408377 0.531731
0.374838 0.41384 0.521798
0.478264 0.399252 0.506737
0.595895 0.365164 0.479194
0.669032 0.349081 0.462638
0.719783 0.34757 0.452964
0.763455 0.357549 0.443381
0.279835 0.490166 0.580163
0.310262 0.493019 0.576455
0.355947 0.496941 0.570901
0.418296 0.501457 0.563272
0.487907 0.505409 0.554086
0.58854 0.481956 0.534722
0.650095 0.46305 0.522347
0.699107 0.452979 0.51339
0.741955 0.450813 0.504936
0.351003 0.571038 0.612589
0.376318 0.572885 0.609583
0.414542 0.575479 0.605158
0.465965 0.578637 0.599451
0.52546 0.582223 0.593042
0.587777 0.585977 0.586313
0.63624 0.566796 0.576165
0.682506 0.55201 0.566018
0.723674 0.543145 0.556252
0.368338 0.626703 0.587366
0.387243 0.627939 0.584878
0.416342 0.629633 0.581064
0.45623 0.63151 0.575738
0.503075 0.633051 0.569116
0.56463 0.636805 0.567254
0.644648 0.642191 0.575479
0.689448 0.631403 0.570184
0.726665 0.622461 0.562692
0.385229 0.67248 0.56878
0.39942 0.673198 0.566964
0.421653 0.674144 0.564157
0.452827 0.675151 0.560174
0.490578 0.675914 0.555276
0.55407 0.681498 0.561074
0.632639 0.689906 0.573373
0.691325 0.691051 0.577829
0.726497 0.684886 0.574441
0.40705 0.711604 0.561959
0.417731 0.712001 0.560739
0.434745 0.712535 0.558831
0.459144 0.7131 0.55613
0.489509 0.713527 0.55288
0.554864 0.720745 0.565408
0.622431 0.727398 0.577646
0.684001 0.733593 0.587991
0.726314 0.73344 0.590661
0.158602 0.218769 0.519936
0.199023 0.227039 0.513161
0.251881 0.236637 0.503548
0.35993 0.209613 0.489769
0.488319 0.155047 0.466438
0.613611 0.0507515 0.438819
0.722744 0.0707866 0.406775
0.79147 0.185611 0.381064
0.829297 0.255818 0.36791
0.174304 0.275349 0.54374
0.214099 0.281392 0.537484
0.266743 0.288579 0.528496
0.358144 0.277226 0.516365
0.484657 0.238209 0.495094
0.60763 0.194095 0.467613
0.715618 0.18912 0.435752
0.783246 0.236347 0.411917
0.821744 0.285756 0.399619
0.202976 0.348424 0.57348
0.240162 0.352636 0.568048
0.290791 0.357824 0.560174
0.357214 0.362387 0.549218
0.480354 0.331609 0.532448
0.599512 0.297551 0.506813
0.705135 0.28426 0.475975
0.770459 0.303075 0.454871
0.809796 0.332509 0.443534
0.249042 0.432105 0.605249
0.281193 0.434989 0.600885
0.326879 0.438682 0.594476
0.390265 0.442466 0.58497
0.477745 0.434287 0.573053
0.590936 0.404334 0.552254
0.692149 0.383932 0.524102
0.753124 0.385229 0.506722
0.79292 0.397757 0.496559
0.30901 0.514046 0.634684
0.334981 0.515984 0.631357
0.376837 0.518654 0.625925
0.432258 0.521538 0.618601
0.495048 0.52398 0.609705
0.585687 0.507836 0.596399
0.67982 0.483299 0.57261
0.733791 0.474586 0.559625
0.772793 0.47512 0.550942
0.377356 0.58764 0.66067
0.399344 0.588922 0.657938
0.43299 0.590707 0.653864
0.47892 0.592874 0.648432
0.532692 0.595178 0.642054
0.589273 0.59736 0.634485
0.671687 0.575936 0.617533
0.715892 0.562997 0.608911
0.75256 0.556344 0.60177
0.446906 0.650492 0.683803
0.463691 0.65124 0.681819
0.489937 0.652323 0.678813
0.526635 0.653712 0.674754
0.570748 0.65539 0.670039
0.61883 0.657633 0.664973
0.666178 0.657938 0.659464
0.7037 0.643381 0.651469
0.73698 0.633326 0.644099
0.465446 0.693828 0.663844
0.478111 0.694362 0.662181
0.498177 0.695125 0.659617
0.52665 0.695994 0.65597
0.56144 0.696773 0.651423
0.599908 0.697322 0.645975
0.652934 0.70071 0.646586
0.709361 0.702708 0.651438
0.740826 0.695232 0.647532
0.481239 0.729961 0.647654
0.490913 0.730266 0.646448
0.50634 0.730663 0.644495
0.528634 0.731075 0.641688
0.556435 0.731319 0.638163
0.588052 0.731319 0.634012
0.642985 0.735683 0.640558
0.700038 0.74136 0.649577
0.741405 0.741802 0.652628
0.196048 0.295079 0.595972
0.231479 0.299321 0.590356
0.279774 0.30457 0.582208
0.367239 0.292302 0.571252
0.487312 0.256184 0.553185
0.605768 0.21735 0.528862
0.711009 0.210529 0.499992
0.796719 0.264698 0.465599
0.848066 0.332387 0.439048
0.212665 0.339483 0.612696
0.246708 0.342763 0.607507
0.293782 0.346883 0.599924
0.366613 0.344259 0.589471
0.484382 0.31281 0.57377
0.600717 0.279103 0.550881
0.704723 0.267002 0.522835
0.790341 0.300542 0.489677
0.841413 0.352605 0.465263
0.241489 0.399588 0.63444
0.272725 0.401968 0.629892
0.316976 0.40499 0.623194
0.378256 0.407858 0.613214
0.481437 0.387045 0.600778
0.593988 0.356756 0.580804
0.695613 0.339223 0.554635
0.780621 0.353384 0.523568
0.830747 0.386709 0.502235
0.28571 0.470466 0.658656
0.312551 0.472114 0.654948
0.354177 0.474205 0.648981
0.410239 0.476204 0.640574
0.481178 0.472953 0.630533
0.587335 0.44622 0.615457
0.684596 0.42443 0.592676
0.767727 0.422705 0.564782
0.815412 0.43801 0.547524
0.341573 0.541573 0.681804
0.365408 0.542702 0.678584
0.401511 0.544152 0.673716
0.450126 0.545602 0.667048
0.506294 0.546715 0.6589
0.584161 0.535561 0.648768
0.674708 0.512657 0.630961
0.753933 0.500282 0.607034
0.797177 0.502434 0.594263
0.406073 0.606867 0.70219
0.424933 0.607584 0.699763
0.45417 0.60856 0.696071
0.494621 0.609674 0.69099
0.542611 0.610727 0.684855
0.593942 0.611658 0.677592
0.669123 0.595911 0.666133
0.741939 0.578058 0.64654
0.778485 0.572824 0.638163
0.46981 0.663645 0.720684
0.484489 0.664073 0.718883
0.507622 0.664683 0.716121
0.540322 0.665461 0.712337
0.580041 0.666362 0.707805
0.623743 0.667536 0.702693
0.669352 0.668055 0.696544
0.732341 0.650233 0.682811
0.762219 0.641932 0.677378
0.529198 0.711482 0.737774
0.540536 0.711711 0.736461
0.558572 0.712032 0.734401
0.584482 0.712474 0.731563
0.616571 0.713069 0.728161
0.652659 0.713985 0.724407
0.690547 0.715572 0.720424
0.724834 0.714305 0.716243
0.7514 0.704356 0.710658
0.546426 0.745022 0.72224
0.555123 0.74519 0.721126
0.5691 0.745434 0.719371
0.58938 0.745724 0.716854
0.614832 0.745968 0.71368
0.64387 0.746166 0.709911
0.674617 0.746273 0.705486
0.714916 0.749126 0.707073
0.755428 0.750362 0.710445
0.239124 0.370733 0.659037
0.268925 0.372534 0.654551
0.311345 0.374762 0.647868
0.378805 0.371496 0.6383
0.488777 0.342214 0.625452
0.599435 0.310842 0.606241
0.700038 0.295872 0.581781
0.784161 0.318212 0.552651
0.849592 0.376669 0.518547
0.25597 0.404883 0.670588
0.28423 0.406302 0.666407
0.325917 0.408026 0.659998
0.3832 0.409445 0.650614
0.487114 0.384543 0.63949
0.595453 0.354925 0.621958
0.694713 0.337224 0.598749
0.778454 0.349538 0.570794
0.843992 0.395315 0.538415
0.28397 0.45272 0.686152
0.309667 0.453758 0.68246
0.349859 0.454932 0.676463
0.403861 0.455787 0.668009
0.486275 0.443153 0.658289
0.590417 0.415793 0.643565
0.687083 0.395315 0.622583
0.769833 0.396597 0.596643
0.835187 0.426383 0.566903
0.3252 0.51104 0.704219
0.348775 0.511727 0.700908
0.385092 0.512444 0.695674
0.43386 0.512932 0.688472
0.490135 0.512932 0.679652
0.586084 0.489601 0.668833
0.678157 0.467521 0.651347
0.758618 0.459052 0.628412
0.822919 0.472435 0.602289
0.378332 0.571298 0.721675
0.39826 0.57171 0.718944
0.428962 0.572183 0.714717
0.471153 0.572488 0.708873
0.520867 0.572457 0.701656
0.585504 0.565301 0.69337
0.670695 0.544045 0.6804
0.74696 0.529213 0.661265
0.808637 0.529595 0.639307
0.436301 0.62797 0.737743
0.452354 0.628229 0.735622
0.477516 0.628534 0.732341
0.512795 0.628748 0.727764
0.555276 0.628809 0.722118
0.601495 0.628763 0.71548
0.667308 0.616907 0.706981
0.737423 0.599695 0.692149
0.794446 0.591836 0.674464
0.493996 0.678355 0.752468
0.506722 0.678492 0.750866
0.526909 0.678676 0.748363
0.555703 0.678828 0.744869
0.591073 0.678965 0.740597
0.630411 0.679179 0.735637
0.670909 0.67953 0.729793
0.731136 0.665248 0.720211
0.782513 0.653193 0.706188
0.548287 0.721645 0.76614
0.558267 0.721706 0.76495
0.574258 0.721782 0.763073
0.597391 0.721859 0.760433
0.626276 0.721996 0.757214
0.659068 0.722316 0.753552
0.693736 0.723018 0.749493
0.72903 0.72221 0.744793
0.773281 0.709651 0.734859
0.597498 0.75816 0.779065
0.605295 0.75816 0.778164
0.617884 0.75816 0.776761
0.636271 0.758144 0.774762
0.659541 0.75819 0.772305
0.686397 0.758404 0.769512
0.714794 0.75903 0.766613
0.742061 0.760281 0.763851
0.767437 0.759289 0.760784
