BT.709 2.4 to wyCol AgX BT.709 2.4.cube
TITLE "wyCol AgX V1"
LUT_3D_SIZE 65
0.0536965 0.0517891 0.0521706
0.0572976 0.0501411 0.0514382
0.0608072 0.0482795 0.0507362
0.0642252 0.0462196 0.0500649
0.0675669 0.0439307 0.0494392
0.0708324 0.0413519 0.0488594
0.0741131 0.0383612 0.0483253
0.0777295 0.0343938 0.0477913
0.0816358 0.0288701 0.0472725
0.0856031 0.0205997 0.0468452
0.0896773 0 0.0465248
0.0941176 0 0.0462959
0.0988327 0 0.0462348
0.103868 0 0.0463264
0.109224 0 0.0465858
0.114946 0 0.0470283
0.121035 0 0.0476692
0.127489 0 0.0484932
0.134066 0 0.0494392
0.140749 0 0.0505074
0.147539 0 0.051667
0.154421 0 0.0529335
0.16141 0 0.0542763
0.168505 0 0.0556802
0.175692 0 0.0571603
0.182986 0 0.0587015
0.190387 0 0.0602731
0.197879 0 0.0618906
0.205493 0 0.0635386
0.213199 0 0.0652171
0.220996 0 0.0669108
0.228916 0 0.0685893
0.237476 0 0.0704204
0.246174 0 0.0722362
0.254994 0 0.0740368
0.263905 0 0.0757916
0.272953 0 0.0775158
0.282094 0 0.0791638
0.291341 0 0.0807202
0.30071 0 0.0821698
0.310155 0 0.0834821
0.319707 0 0.0846418
0.329351 0 0.0855879
0.33901 0 0.086305
0.348699 0 0.0867475
0.358419 0 0.0869917
0.36817 0 0.0871595
0.377935 0 0.0872053
0.387717 0 0.0871595
0.397528 0 0.0870069
0.40734 0 0.086717
0.417151 0 0.0863203
0.426947 0 0.085771
0.436744 0 0.0850843
0.446525 0 0.0842298
0.456291 0 0.0832074
0.466026 0 0.0819867
0.475715 0 0.0805676
0.485374 0 0.0789197
0.494987 0 0.0770275
0.504555 0 0.0748302
0.514076 0 0.0723278
0.523491 0 0.0694285
0.532845 0 0.066041
0.542092 0 0.062089
0.051606 0.0572213 0.0500649
0.0585794 0.057557 0.0504616
0.0628214 0.0561685 0.0500649
0.0666972 0.0543374 0.0495003
0.0703746 0.0522316 0.0489052
0.0739452 0.0498817 0.0483406
0.0774853 0.0472114 0.0478218
0.0813764 0.0438087 0.047303
0.0854963 0.0394751 0.0468299
0.0896162 0.0341344 0.0464485
0.0940566 0.0263066 0.0461738
0.0988327 0.00712596 0.0460212
0.103914 0 0.0460212
0.109331 0 0.0461891
0.115114 0 0.0465553
0.121263 0 0.0471046
0.127733 0 0.0478218
0.13431 0 0.0486763
0.140993 0 0.0496529
0.147784 0 0.050721
0.154681 0 0.0518959
0.161669 0 0.0531472
0.168765 0 0.0544747
0.175967 0 0.0558785
0.183276 0 0.0573281
0.190661 0 0.0588235
0.198169 0 0.0603647
0.205753 0 0.0619211
0.213458 0 0.063508
0.221241 0 0.065095
0.229145 0 0.0666819
0.237186 0 0.0682689
0.245853 0 0.0699779
0.254627 0 0.0716411
0.263508 0 0.0732586
0.272496 0 0.074815
0.28159 0 0.0762951
0.290791 0 0.0776684
0.300069 0 0.0789044
0.309422 0 0.0799878
0.318837 0 0.0809186
0.328267 0 0.0816205
0.337728 0 0.0820935
0.347219 0 0.0823835
0.356756 0 0.0825971
0.366323 0 0.0827192
0.375921 0 0.0827497
0.38555 0 0.0826734
0.395193 0 0.0825055
0.404837 0 0.0822003
0.414496 0 0.0817884
0.42417 0 0.081239
0.433829 0 0.0805371
0.443473 0 0.0796826
0.453101 0 0.078645
0.462715 0 0.0774395
0.472297 0 0.0760052
0.481849 0 0.0743572
0.491371 0 0.0724346
0.500832 0 0.0702373
0.510246 0 0.067689
0.5196 0 0.0647288
0.528878 0 0.061265
0.538064 0 0.0571603
0.547158 0 0.0522011
0.0475319 0.061387 0.0470436
0.0563058 0.0628061 0.0476692
0.0635843 0.0631113 0.0479591
0.0681926 0.0618296 0.047715
0.0725109 0.0601358 0.047364
0.0765698 0.0581064 0.046952
0.0805066 0.0557107 0.0465095
0.0847639 0.0526589 0.046067
0.0891127 0.0489967 0.0456703
0.093492 0.0446937 0.0453651
0.0983291 0.038941 0.0451514
0.103471 0.0309148 0.0450752
0.108934 0.0153964 0.0451667
0.114763 0 0.0454261
0.120958 0 0.0458991
0.127428 0 0.0465248
0.133989 0 0.0472877
0.140658 0 0.0481575
0.147448 0 0.049134
0.154345 0 0.0502174
0.161334 0 0.0513924
0.168429 0 0.0526284
0.175631 0 0.0539406
0.182925 0 0.055314
0.190326 0 0.0567178
0.197818 0 0.0581674
0.205402 0 0.0596323
0.213092 0 0.0611124
0.220874 0 0.0625925
0.228733 0 0.0640726
0.236698 0 0.0655375
0.244892 0 0.0669871
0.253635 0 0.068513
0.262486 0 0.0699779
0.271427 0 0.0713664
0.280446 0 0.0726482
0.289525 0 0.0738384
0.298665 0 0.0749065
0.307851 0 0.0758068
0.317082 0 0.076524
0.326345 0 0.0770123
0.335653 0 0.077348
0.345006 0 0.0776074
0.354406 0 0.0778058
0.363836 0 0.0779126
0.373312 0 0.0779278
0.382788 0 0.0778363
0.392309 0 0.0776532
0.401846 0 0.0773632
0.411383 0 0.076936
0.420935 0 0.0763867
0.430488 0 0.0756847
0.440024 0 0.0748302
0.449546 0 0.0737926
0.459052 0 0.0725719
0.468544 0 0.0711376
0.478004 0 0.0694743
0.487449 0 0.0675364
0.496834 0 0.0652934
0.506188 0 0.0626841
0.51545 0 0.0596323
0.524666 0 0.0560159
0.533791 0 0.0516823
0.542855 0 0.0463417
0.551827 0 0.0393835
0.0429999 0.0652781 0.0437171
0.0522927 0.0670024 0.0441749
0.0613413 0.0683909 0.0446021
0.0688792 0.0686656 0.0447852
0.0737316 0.0673838 0.0445869
0.0783551 0.0657511 0.0443427
0.0828412 0.0637369 0.0440833
0.087602 0.0610971 0.0437934
0.0922713 0.0579843 0.0435187
0.0971237 0.0542306 0.0433204
0.102373 0.0494698 0.0432136
0.107912 0.0434272 0.0432441
0.113802 0.0349584 0.0434424
0.120043 0.0193942 0.0438392
0.126497 0 0.0443732
0.133059 0 0.0450446
0.139727 0 0.0458228
0.146517 0 0.0467231
0.153399 0 0.047715
0.160388 0 0.0487984
0.167483 0 0.049958
0.174685 0 0.0511788
0.181964 0 0.0524605
0.189364 0 0.0537881
0.196841 0 0.0551308
0.204425 0 0.0565042
0.2121 0 0.0578775
0.219852 0 0.0592508
0.227695 0 0.0606088
0.235645 0 0.0619364
0.243656 0 0.0632181
0.251957 0 0.0645151
0.260716 0 0.0658427
0.269535 0 0.0670939
0.278431 0 0.0682383
0.287388 0 0.069276
0.296391 0 0.0701762
0.305455 0 0.0708934
0.314549 0 0.0714122
0.32369 0 0.0717937
0.332891 0 0.0721141
0.342138 0 0.0723735
0.351431 0 0.0725567
0.360754 0 0.0726635
0.370123 0 0.0726787
0.379522 0 0.0725872
0.388937 0 0.0724041
0.398367 0 0.0721141
0.407813 0 0.0717021
0.417273 0 0.0711528
0.426719 0 0.0704509
0.436194 0 0.0695964
0.445624 0 0.0685588
0.455055 0 0.0673228
0.464469 0 0.0658885
0.473869 0 0.0641794
0.483238 0 0.062211
0.492561 0 0.0599069
0.501854 0 0.0572061
0.51107 0 0.0540017
0.520226 0 0.0501717
0.52932 0 0.0454414
0.538354 0 0.0393988
0.547295 0 0.0308995
0.556146 0 0.0140841
0.0378119 0.0689555 0.0400092
0.0478523 0.0709239 0.0402228
0.0573739 0.0726329 0.0404212
0.0666972 0.073991 0.0406043
0.074464 0.0742199 0.04065
0.0795148 0.0729229 0.0404669
0.0844739 0.0712749 0.0402991
0.089662 0.0690929 0.0401465
0.0947433 0.0665141 0.0400092
0.100175 0.0632181 0.0399481
0.105913 0.0591745 0.0399786
0.11194 0.0541543 0.0401617
0.118288 0.0476844 0.0405127
0.124804 0.0389258 0.041001
0.131395 0.0246586 0.0415961
0.138094 0 0.0423133
0.144884 0 0.0431373
0.151781 0 0.0440681
0.15877 0 0.0450752
0.165866 0 0.0461585
0.173053 0 0.047303
0.180346 0 0.0484932
0.187732 0 0.0497292
0.195209 0 0.0509957
0.202777 0 0.0522621
0.210422 0 0.0535592
0.218143 0 0.0548257
0.22594 0 0.0560922
0.233799 0 0.0573434
0.241733 0 0.0585336
0.249714 0 0.059678
0.258076 0 0.0608225
0.266804 0 0.0619516
0.275593 0 0.0629892
0.284459 0 0.0638743
0.293355 0 0.0646067
0.302312 0 0.0651408
0.31133 0 0.0655833
0.320394 0 0.06598
0.329519 0 0.0663005
0.338689 0 0.0665751
0.347906 0 0.0667735
0.357153 0 0.0668803
0.36643 0 0.0669108
0.375753 0 0.0668345
0.385092 0 0.0666667
0.394461 0 0.0663767
0.40383 0 0.06598
0.413214 0 0.0654307
0.422599 0 0.0647288
0.431983 0 0.0638743
0.441367 0 0.0628367
0.450752 0 0.0615854
0.460105 0 0.0601053
0.469429 0 0.0583658
0.478752 0 0.0563211
0.488029 0 0.0539101
0.497276 0 0.0510414
0.506462 0 0.0475929
0.515587 0 0.0433509
0.524651 0 0.0379187
0.533639 0 0.030396
0.54255 0 0.0168765
0.551385 0 0
0.560143 0 0
0.0314794 0.0724498 0.0357366
0.0428473 0.0746471 0.0356146
0.0529946 0.0766155 0.035462
0.0627298 0.078294 0.0352941
0.072343 0.0796368 0.0351263
0.0803388 0.0798352 0.0349737
0.0856489 0.0784772 0.0347906
0.0911116 0.0767224 0.0346685
0.0965896 0.0745708 0.0346227
0.102525 0.0717784 0.0346838
0.108766 0.0683452 0.0348669
0.115312 0.0641031 0.0352026
0.121981 0.0589456 0.0356909
0.12871 0.0526284 0.0362707
0.1355 0.0444648 0.0369573
0.142367 0.0325017 0.0377508
0.14931 0 0.0386206
0.156344 0 0.0395972
0.163455 0 0.04065
0.170657 0 0.0417639
0.177935 0 0.0429389
0.185306 0 0.0441596
0.192767 0 0.0454108
0.20029 0 0.0466773
0.207889 0 0.0479438
0.215564 0 0.0491951
0.223301 0 0.0504158
0.231113 0 0.051606
0.238972 0 0.0527352
0.246906 0 0.0538033
0.254887 0 0.0547799
0.26331 0 0.0557565
0.272038 0 0.0566567
0.280812 0 0.0574044
0.289647 0 0.0579843
0.298543 0 0.0585031
0.307515 0 0.0589761
0.316518 0 0.0594034
0.325582 0 0.0597543
0.334691 0 0.0600595
0.343847 0 0.0602731
0.353048 0 0.0604105
0.36228 0 0.0604715
0.371527 0 0.0604257
0.380819 0 0.0602731
0.390112 0 0.0599985
0.399451 0 0.0596017
0.408774 0 0.0590677
0.418112 0 0.058381
0.427451 0 0.0575113
0.43679 0 0.0564431
0.446113 0 0.0551614
0.455421 0 0.0536202
0.464729 0 0.0517891
0.473991 0 0.0496071
0.483238 0 0.0469978
0.492454 0 0.0438392
0.50161 0 0.0399176
0.510704 0 0.0348363
0.519753 0 0.0276951
0.52871 0 0.0141909
0.537621 0 0
0.546456 0 0
0.5552 0 0
0.563867 0 0
0.0224918 0.0758831 0.0305028
0.03682 0.0782635 0.0298466
0.0480354 0.0804608 0.029099
0.0583352 0.0824292 0.0282902
0.0682994 0.0841077 0.0274357
0.0782025 0.0854353 0.0265812
0.0864881 0.0856489 0.0259709
0.092134 0.0842298 0.0257572
0.0979934 0.082414 0.0257115
0.104295 0.0800793 0.0258335
0.110948 0.0771801 0.0261997
0.11783 0.0736553 0.0267491
0.124743 0.0695048 0.0274357
0.131701 0.0645914 0.0282444
0.138705 0.0586709 0.02916
0.145769 0.0512398 0.0301976
0.15288 0.0411994 0.0313115
0.160067 0.0239109 0.032517
0.1673 0 0.0337835
0.174624 0 0.0350805
0.181994 0 0.036408
0.189456 0 0.0377661
0.196979 0 0.0391089
0.204562 0 0.0404364
0.212222 0 0.0417182
0.219928 0 0.0429694
0.22771 0 0.0441596
0.235538 0 0.0452735
0.243442 0 0.0462806
0.251377 0 0.0471809
0.259373 0 0.0479438
0.267872 0 0.0486763
0.276616 0 0.0493477
0.28542 0 0.0499886
0.294286 0 0.0505837
0.303212 0 0.0511177
0.312184 0 0.051606
0.321218 0 0.052018
0.330282 0 0.052369
0.339406 0 0.0526436
0.348562 0 0.0528267
0.357748 0 0.0529183
0.366979 0 0.0529183
0.376226 0 0.0527962
0.385489 0 0.0525521
0.394766 0 0.0521706
0.404059 0 0.0516365
0.413367 0 0.0509194
0.42266 0 0.0500191
0.431968 0 0.0488899
0.44126 0 0.0475166
0.450538 0 0.0458534
0.459815 0 0.0438239
0.469062 0 0.0413519
0.478279 0 0.0383154
0.487465 0 0.0344701
0.496605 0 0.0292973
0.505684 0 0.0214237
0.514717 0 0
0.523674 0 0
0.53257 0 0
0.54139 0 0
0.550134 0 0
0.558801 0 0
0.567391 0 0
0 0.07953 0.0228275
0.0285801 0.0821088 0.0209964
0.0420539 0.0845045 0.0187533
0.0533303 0.086717 0.0158846
0.0638895 0.0886854 0.0118715
0.0741741 0.0903487 0.00154116
0.0840314 0.0916457 0
0.0930495 0.0920119 0
0.0992599 0.0904402 0
0.105837 0.0884565 0
0.112764 0.0860151 0
0.119814 0.0831464 0
0.126925 0.0797894 0
0.134081 0.0758831 0
0.141299 0.0713054 0.00764477
0.148547 0.0658732 0.0118563
0.155856 0.0592813 0.0149538
0.16321 0.0509346 0.0175937
0.170611 0.0392767 0.0199588
0.178058 0.0142519 0.0221256
0.18558 0 0.024155
0.193133 0 0.0260471
0.200763 0 0.0278019
0.208438 0 0.0294347
0.216175 0 0.03093
0.223957 0 0.0323033
0.231785 0 0.0335088
0.239658 0 0.0345617
0.247593 0 0.0354162
0.255573 0 0.0361334
0.2636 0 0.0368353
0.272267 0 0.0376898
0.281071 0 0.038529
0.289921 0 0.039292
0.298833 0 0.0400092
0.307805 0 0.04065
0.316823 0 0.0411994
0.325872 0 0.0416724
0.334981 0 0.0420539
0.344106 0 0.0423438
0.353277 0 0.0425116
0.362478 0 0.0425574
0.371695 0 0.0424659
0.380941 0 0.042237
0.390188 0 0.0418402
0.399466 0 0.0412451
0.408743 0 0.0404517
0.418036 0 0.0393988
0.427298 0 0.038056
0.436576 0 0.0363622
0.445838 0 0.0342412
0.4551 0 0.0315099
0.464317 0 0.0279545
0.473518 0 0.0229648
0.482689 0 0.014313
0.491814 0 0
0.500877 0 0
0.509896 0 0
0.518853 0 0
0.527733 0 0
0.536553 0 0
0.545312 0 0
0.553979 0 0
0.56257 0 0
0.571069 0 0
0 0.083299 0.0039826
0.0155795 0.0860304 0
0.0354162 0.0886244 0
0.0482948 0.0910353 0
0.0596475 0.0932479 0
0.0701915 0.0951553 0
0.0800336 0.0967269 0
0.0906691 0.0981308 0
0.100557 0.0985122 0
0.107317 0.0968032 0
0.114305 0.0947585 0
0.121416 0.0924086 0
0.128634 0.0896773 0
0.135927 0.0865339 0
0.143297 0.0829175 0
0.150713 0.0787518 0
0.15819 0.0738994 0
0.165713 0.0681773 0
0.173266 0.061265 0
0.18088 0.0525368 0
0.18854 0.0403906 0
0.196231 0.0141299 0
0.203967 0 0
0.211749 0 0
0.219593 0 0
0.227451 0 0
0.23537 0 0
0.243351 0 0
0.251362 0 0
0.259434 0 0.0041352
0.267567 0 0.0099794
0.276387 0 0.0137942
0.285267 0 0.016434
0.294194 0 0.0184939
0.303181 0 0.0201572
0.3122 0 0.0215305
0.321263 0 0.0226596
0.330373 0 0.0235447
0.339513 0 0.0242161
0.348669 0 0.0246738
0.35787 0 0.0249027
0.367086 0 0.0248875
0.376318 0 0.0245975
0.38558 0 0.0239872
0.394842 0 0.0229953
0.40412 0 0.0215305
0.413397 0 0.019379
0.42266 0 0.0160983
0.431922 0 0.0100404
0.441184 0 0
0.450416 0 0
0.459648 0 0
0.468849 0 0
0.478004 0 0
0.487114 0 0
0.496178 0 0
0.50518 0 0
0.514138 0 0
0.523018 0 0
0.531838 0 0
0.540597 0 0
0.549279 0 0
0.55787 0 0
0.566384 0 0
0.574807 0 0
0 0.0872206 0
0 0.0901045 0
0.0273747 0.0928511 0
0.043122 0.0954604 0
0.0554971 0.0979019 0
0.0662089 0.100053 0
0.0761425 0.101946 0
0.0870527 0.103822 0
0.0982986 0.105425 0
0.108751 0.105852 0
0.115709 0.104143 0
0.122835 0.102174 0
0.130083 0.0999313 0
0.137438 0.0973526 0
0.144884 0.0944228 0
0.152422 0.0911116 0
0.160006 0.0873274 0
0.167666 0.0830396 0
0.175372 0.0781109 0
0.183108 0.0723888 0
0.190906 0.0656138 0
0.198734 0.0572061 0
0.206622 0.0459602 0
0.214542 0.0268254 0
0.222507 0 0
0.230503 0 0
0.23856 0 0
0.246647 0 0
0.254765 0 0
0.262928 0 0
0.271275 0 0
0.280217 0 0
0.289189 0 0
0.298207 0 0
0.307271 0 0
0.316365 0 0
0.32549 0 0
0.334661 0 0
0.343847 0 0
0.353063 0 0
0.36231 0 0
0.371557 0 0
0.380819 0 0
0.390097 0 0
0.399374 0 0
0.408667 0 0
0.417945 0 0
0.427222 0 0
0.4365 0 0
0.445747 0 0
0.454963 0 0
0.464179 0 0
0.473335 0 0
0.482444 0 0
0.491508 0 0
0.500526 0 0
0.509483 0 0
0.51838 0 0
0.527199 0 0
0.535958 0 0
0.54464 0 0
0.553246 0 0
0.561776 0 0
0.570214 0 0
0.578576 0 0
0 0.0913405 0
0 0.094377 0
0.0142824 0.0973526 0
0.0375372 0.100252 0
0.0510414 0.102907 0
0.062089 0.105303 0
0.0725719 0.107561 0
0.0835126 0.109804 0
0.094728 0.111879 0
0.106447 0.113756 0
0.11696 0.114504 0
0.124071 0.112871 0
0.131319 0.11104 0
0.138705 0.108949 0
0.146212 0.106584 0
0.153811 0.103914 0
0.161501 0.100908 0
0.169268 0.0975204 0
0.177096 0.0936904 0
0.18497 0.0893568 0
0.192905 0.0844129 0
0.200885 0.078706 0
0.208911 0.0719921 0
0.216983 0.0638437 0
0.225086 0.0533761 0
0.233219 0.0378424 0
0.241398 0 0
0.249607 0 0
0.257847 0 0
0.266117 0 0
0.274708 0 0
0.283757 0 0
0.292836 0 0
0.301961 0 0
0.311116 0 0
0.320302 0 0
0.329503 0 0
0.33875 0 0
0.347997 0 0
0.35729 0 0
0.366567 0 0
0.375875 0 0
0.385183 0 0
0.394491 0 0
0.403815 0 0
0.413123 0 0
0.422431 0 0
0.431708 0 0
0.440986 0 0
0.450248 0 0
0.459449 0 0
0.46862 0 0
0.47776 0 0
0.486824 0 0
0.495857 0 0
0.504814 0 0
0.513726 0 0
0.522576 0 0
0.531334 0 0
0.540047 0 0
0.548669 0 0
0.557214 0 0
0.565667 0 0
0.574029 0 0
0.582315 0 0
0 0.0958572 0
0 0.0991531 0
0 0.102419 0
0.0304265 0.105531 0
0.0459602 0.1084 0
0.0579843 0.111086 0
0.0688945 0.113634 0
0.0799573 0.116197 0
0.0912032 0.118669 0
0.102632 0.121065 0
0.114549 0.123339 0
0.125216 0.124193 0
0.132494 0.122606 0
0.13991 0.120821 0
0.147463 0.118807 0
0.155123 0.116564 0
0.16289 0.114046 0
0.170733 0.111238 0
0.178668 0.10811 0
0.186664 0.104616 0
0.194705 0.10071 0
0.202823 0.0963149 0
0.210971 0.0913558 0
0.219165 0.0857099 0
0.227405 0.0791485 0
0.23566 0.0713359 0
0.243961 0.0616617 0
0.252308 0.0485695 0
0.260655 0.0246281 0
0.269047 0 0
0.277882 0 0
0.287053 0 0
0.296254 0 0
0.305486 0 0
0.314748 0 0
0.324025 0 0
0.333333 0 0
0.342641 0 0
0.35198 0 0
0.361334 0 0
0.370687 0 0
0.380041 0 0
0.38941 0 0
0.398764 0 0
0.408118 0 0
0.417456 0 0
0.426795 0 0
0.436103 0 0
0.44538 0 0
0.454627 0 0
0.463813 0 0
0.472969 0 0
0.482063 0 0
0.491112 0 0
0.500099 0 0
0.509041 0 0
0.517891 0 0
0.526696 0 0
0.535409 0 0
0.54406 0 0
0.552621 0 0
0.561105 0 0
0.569497 0 0
0.577798 0 0
0.586023 0 0
0 0.100999 0
0 0.104585 0
0 0.10811 0
0.0184024 0.111391 0
0.0398871 0.114473 0
0.0535439 0.117449 0
0.0649424 0.120241 0
0.0762493 0.12311 0
0.0876326 0.125963 0
0.0990005 0.128618 0
0.110643 0.131136 0
0.122896 0.133425 0
0.133745 0.134249 0
0.141192 0.132692 0
0.148775 0.130953 0
0.156466 0.12903 0
0.164279 0.126879 0
0.172183 0.124498 0
0.180179 0.121874 0
0.188266 0.118959 0
0.196414 0.11574 0
0.204608 0.112184 0
0.212863 0.108232 0
0.221164 0.103822 0
0.229526 0.098909 0
0.237903 0.0933394 0
0.246326 0.0869917 0
0.254765 0.0795758 0
0.263249 0.0706798 0
0.271748 0.0593881 0
0.280858 0.0408026 0
0.29015 0 0
0.299474 0 0
0.308812 0 0
0.318181 0 0
0.32755 0 0
0.33695 0 0
0.346365 0 0
0.355779 0 0
0.365209 0 0
0.37464 0 0
0.38407 0 0
0.3935 0 0
0.402899 0 0
0.412299 0 0
0.421683 0 0
0.431037 0 0
0.440345 0 0
0.449622 0 0
0.458854 0 0
0.46804 0 0
0.477165 0 0
0.486259 0 0
0.495277 0 0
0.50425 0 0
0.513146 0 0
0.521965 0 0
0.530724 0 0
0.539391 0 0
0.547982 0 0
0.556497 0 0
0.564935 0 0
0.573251 0 0
0.581506 0 0
0.589654 0 0
0 0.106889 0
0 0.110765 0
0 0.114427 0
0 0.117876 0
0.0320592 0.121279 0
0.0481422 0.124468 0
0.0604105 0.127504 0
0.0722362 0.130617 0
0.0840467 0.133562 0
0.0955673 0.136339 0
0.106981 0.13901 0
0.118959 0.141527 0
0.131533 0.143832 0
0.142565 0.144625 0
0.150164 0.143099 0
0.1579 0.141421 0
0.165728 0.139559 0
0.173678 0.137499 0
0.18172 0.135241 0
0.189853 0.132769 0
0.198077 0.130053 0
0.206348 0.127062 0
0.214694 0.123781 0
0.223087 0.12018 0
0.231525 0.116213 0
0.240009 0.111849 0
0.248539 0.106996 0
0.257084 0.101564 0
0.265675 0.0954604 0
0.274296 0.088426 0
0.28368 0.0790723 0
0.29308 0.0673228 0
0.30251 0.0508736 0
0.311971 0.00648508 0
0.321431 0 0
0.330922 0 0
0.340414 0 0
0.34992 0 0
0.359426 0 0
0.368933 0 0
0.378439 0 0
0.38793 0 0
0.397421 0 0
0.406882 0 0
0.416312 0 0
0.425727 0 0
0.435096 0 0
0.444419 0 0
0.453681 0 0
0.462928 0 0
0.472114 0 0
0.481239 0 0
0.490303 0 0
0.499306 0 0
0.508232 0 0
