F-Log2C to wyCol AgX BT.709 2.4.cube
TITLE "wyCol AgX V1"
LUT_3D_SIZE 9
0.0315557 0.0278325 0.0286107
0.0599527 0 0.0249943
0.147097 0 0.0453956
0.500267 0 0.0892042
0.911589 0.441993 0
0.98909 0.917205 0.264637
0.999008 0.97818 0.605386
0.999008 0.97818 0.605386
0.999008 0.97818 0.605386
0.00665293 0.0499886 0.00836194
0.0534676 0.0518654 0.0140536
0.135515 0 0.0378424
0.4206 0 0.097612
0.882338 0.331121 0
0.986694 0.894835 0
0.999008 0.97818 0.605386
0.999008 0.97818 0.605386
0.999008 0.97818 0.605386
0 0.0956283 0
0 0.0885328 0
0.114336 0.110948 0
0.36849 0 0
0.820829 0.0670787 0
0.981979 0.848234 0
0.999008 0.97818 0.605386
0.999008 0.97818 0.605386
0.999008 0.97818 0.605386
0 0.313664 0
0 0.297246 0
0 0.270649 0
0.259266 0.305852 0
0.717922 0.16849 0
0.968048 0.75201 0
0.998993 0.977996 0.608621
0.999008 0.978119 0.60647
0.999008 0.97818 0.605386
0.224674 0.66949 0.317052
0.202472 0.655406 0.300847
0.162249 0.630701 0.273655
0.139956 0.596185 0.237873
0.555398 0.616678 0.261372
0.913817 0.67155 0
0.993805 0.955215 0.519921
0.998962 0.977432 0.618784
0.998993 0.977813 0.61207
0.643488 0.894118 0.67863
0.633387 0.890043 0.669413
0.615747 0.882765 0.653269
0.586679 0.870283 0.626657
0.563378 0.852277 0.593332
0.7785 0.843763 0.616815
0.97055 0.896468 0.56762
0.998657 0.973541 0.675593
0.99881 0.975204 0.652903
0.855909 0.96788 0.871702
0.852262 0.96672 0.868391
0.845884 0.964691 0.862623
0.83537 0.961349 0.853086
0.819471 0.956252 0.838682
0.806027 0.948943 0.821241
0.899382 0.940108 0.831754
0.995422 0.965637 0.811917
0.996719 0.966537 0.778576
0.936584 0.994202 0.94464
0.936584 0.994202 0.94464
0.936584 0.994202 0.94464
0.936584 0.994202 0.94464
0.9337 0.993255 0.942123
0.925597 0.99057 0.934905
0.918975 0.986923 0.926604
0.961654 0.982193 0.931167
0.988602 0.977417 0.915663
0.936584 0.994202 0.94464
0.936584 0.994202 0.94464
0.936584 0.994202 0.94464
0.936584 0.994202 0.94464
0.936584 0.994202 0.94464
0.936584 0.994202 0.94464
0.936767 0.994202 0.944717
0.944839 0.994232 0.947662
0.988556 0.99443 0.95906
0.0316167 0.0306554 0.0505684
0.073518 0 0.0440528
0.18468 0 0.0616312
0.527764 0 0.0903334
0.913069 0.44979 0
0.989151 0.915892 0.275288
0.999084 0.977859 0.607492
0.999069 0.97789 0.607279
0.999069 0.97792 0.607034
0.0355077 0.0639658 0.0638437
0.0625467 0.0614786 0.061677
0.152834 0 0.0569009
0.440406 0 0.0987259
0.884459 0.342229 0
0.98674 0.893523 0.0367895
0.999069 0.977905 0.607156
0.999069 0.977935 0.606958
0.999054 0.977981 0.606683
0 0.105318 0
0 0.0975662 0
0.122988 0.127459 0
0.380941 0 0.023209
0.823194 0.100343 0
0.981994 0.846754 0
0.999054 0.977996 0.606592
0.999039 0.978027 0.606348
0.999039 0.978073 0.606088
0 0.310323 0
0 0.294148 0
0 0.267536 0
0.262913 0.30312 0
0.717891 0.152834 0
0.96791 0.749447 0
0.999008 0.977981 0.608652
0.999008 0.978119 0.606378
0.999008 0.97818 0.605386
0.211093 0.660853 0.307057
0.18822 0.646479 0.290837
0.146014 0.621317 0.263722
0.123598 0.586252 0.228077
0.552605 0.608011 0.250507
0.913588 0.665599 0
0.993729 0.954787 0.516075
0.998978 0.977478 0.618143
0.998993 0.977844 0.611673
0.637293 0.89163 0.672969
0.627008 0.887449 0.663569
0.609064 0.879942 0.64715
0.579507 0.867094 0.620081
0.556008 0.8486 0.586221
0.777661 0.840513 0.610544
0.970611 0.895369 0.560174
0.998672 0.973693 0.67364
0.998825 0.975326 0.651377
0.853666 0.967163 0.869673
0.849958 0.965988 0.8663
0.843473 0.963928 0.860441
0.832776 0.96051 0.850736
0.816587 0.955337 0.836057
0.80296 0.94786 0.818311
0.898955 0.938994 0.829252
0.995529 0.965652 0.809384
0.996811 0.966659 0.775937
0.936584 0.994202 0.94464
0.936584 0.994202 0.94464
0.936584 0.994202 0.94464
0.936584 0.994202 0.94464
0.932647 0.992905 0.941192
0.924498 0.990188 0.933913
0.9178 0.986496 0.925505
0.961395 0.981735 0.930205
0.988693 0.97702 0.914305
0.936584 0.994202 0.94464
0.936584 0.994202 0.94464
0.936584 0.994202 0.94464
0.936584 0.994202 0.94464
0.936584 0.994202 0.94464
0.936584 0.994202 0.94464
0.936767 0.994202 0.944717
0.944778 0.994232 0.947631
0.988556 0.99443 0.95906
0.0359197 0 0.101061
0.0971084 0 0.0930343
0.288106 0 0.10042
0.609964 0 0.122927
0.916701 0.468849 0
0.989471 0.912917 0.310063
0.999313 0.976837 0.614069
0.999298 0.976913 0.613611
0.999283 0.976989 0.613123
0.0344701 0.0512551 0.129091
0.0601205 0.052079 0.119768
0.235279 0 0.0946975
0.538445 0 0.12285
0.890242 0.372137 0
0.98706 0.890639 0.181109
0.999298 0.976944 0.613397
0.999283 0.977005 0.61297
0.999268 0.977081 0.612497
0 0.175235 0.170336
0 0.164462 0.173648
0.155505 0.161318 0.162432
0.418753 0 0.137316
0.832883 0.184131 0
0.98233 0.844053 0
0.999252 0.977111 0.612345
0.999237 0.977172 0.611948
0.999222 0.977234 0.611505
0 0.327108 0.117449
0 0.313695 0.114504
0 0.292332 0.11104
0.293797 0.325963 0.117464
0.733761 0.183169 0
0.968383 0.747875 0
0.999191 0.977218 0.613367
0.999191 0.977356 0.611231
0.999176 0.977447 0.610132
0.205234 0.654978 0.313558
0.182696 0.640803 0.298619
0.140902 0.616068 0.273854
0.120287 0.581872 0.242191
0.557778 0.603281 0.266636
0.915358 0.661601 0
0.99379 0.953399 0.516274
0.999084 0.97705 0.620295
0.9991 0.977417 0.614069
0.628244 0.887648 0.665354
0.617731 0.883284 0.655787
0.599435 0.875486 0.639094
0.569284 0.862104 0.611597
0.545815 0.842954 0.577417
0.777676 0.835584 0.60322
0.970886 0.893492 0.550515
0.998734 0.973754 0.671534
0.998886 0.975326 0.649973
0.849867 0.965942 0.866239
0.846036 0.964721 0.86276
0.839353 0.9626 0.856718
0.828321 0.959091 0.846723
0.811627 0.953735 0.831586
0.797711 0.946014 0.813306
0.898253 0.937072 0.824964
0.995712 0.965713 0.805127
0.996948 0.966873 0.771511
0.936584 0.994202 0.94464
0.936584 0.994202 0.94464
0.936584 0.994202 0.94464
0.936584 0.994202 0.94464
0.930846 0.992325 0.93962
0.922606 0.989548 0.932189
0.915801 0.985779 0.923598
0.960983 0.980941 0.928542
0.988846 0.976364 0.911971
0.936584 0.994202 0.94464
0.936584 0.994202 0.94464
0.936584 0.994202 0.94464
0.936584 0.994202 0.94464
0.936584 0.994202 0.94464
0.936584 0.994202 0.94464
0.936751 0.994202 0.944717
0.944671 0.994232 0.947601
0.988556 0.99443 0.95906
0.0413519 0 0.283787
0.117327 0.0494545 0.27454
0.375662 0 0.233402
0.740841 0 0.195697
0.933272 0.529656 0
0.990799 0.904295 0.412039
1 0.973205 0.636133
1 0.973373 0.635126
1 0.973571 0.634012
0.0446937 0.053315 0.292058
0.0842603 0.0544747 0.280797
0.281407 0 0.235325
0.683925 0 0.201282
0.916701 0.46334 0
0.988434 0.8822 0.35024
1 0.973465 0.634623
1 0.973632 0.633661
0.999985 0.973816 0.632563
0.0756085 0.190616 0.345281
0.0708629 0.175998 0.33666
0.162081 0.17319 0.309148
0.566506 0 0.233845
0.876753 0.335515 0.0761425
0.983719 0.836759 0.21561
0.999985 0.973877 0.632197
0.999939 0.974029 0.631281
0.999908 0.974212 0.630243
0.142428 0.42153 0.384604
0.143954 0.408453 0.388907
0.147112 0.385885 0.397009
0.35967 0.373983 0.376684
0.759274 0.247776 0.285237
0.970123 0.745327 0
0.999832 0.974411 0.630426
0.999817 0.974594 0.628199
0.999786 0.974762 0.626917
0.22916 0.65977 0.372625
0.209918 0.64683 0.362066
0.176013 0.624414 0.345052
0.160571 0.593774 0.325841
0.587121 0.612985 0.366094
0.920729 0.662028 0.164675
0.994369 0.949203 0.534493
0.999603 0.974914 0.632654
0.999603 0.975265 0.627024
0.620249 0.882536 0.661967
0.609812 0.878035 0.652735
0.591684 0.870024 0.636713
0.56199 0.856321 0.610544
0.540169 0.836942 0.578851
0.781476 0.829801 0.606546
0.972015 0.890181 0.55172
0.9991 0.972869 0.674571
0.999252 0.974197 0.654978
0.84445 0.96405 0.861631
0.840497 0.962783 0.858061
0.83357 0.960571 0.85182
0.822156 0.956893 0.841535
0.804898 0.951278 0.825971
0.790829 0.943206 0.807324
0.898146 0.934295 0.82034
0.996139 0.965652 0.800351
0.997299 0.966918 0.767102
0.936645 0.994202 0.944717
0.936645 0.994202 0.944717
0.936645 0.994202 0.944717
0.93434 0.993439 0.942702
0.928069 0.991409 0.937194
0.919676 0.98854 0.929564
0.912718 0.984634 0.920684
0.960433 0.979721 0.926055
0.989151 0.975387 0.908431
0.936599 0.994202 0.944671
0.936599 0.994202 0.944671
0.936599 0.994202 0.944671
0.936599 0.994202 0.944671
0.936599 0.994202 0.944671
0.936599 0.994202 0.944671
0.936767 0.994202 0.944732
0.944518 0.994232 0.947555
0.988556 0.99443 0.959075
0.18085 0.285878 0.600656
0.216556 0.28925 0.59411
0.370352 0.278676 0.570748
0.838056 0.306905 0.438621
0.964767 0.656962 0.392142
0.99443 0.878569 0.61149
1 0.961028 0.69984
1 0.961425 0.697902
1 0.961883 0.695674
0.175601 0.276707 0.591684
0.1888 0.274937 0.587533
0.290211 0.285695 0.568643
0.766155 0.210025 0.464393
0.955596 0.612711 0.37615
0.992508 0.862562 0.579599
1 0.961639 0.69688
1 0.962036 0.694972
1 0.962493 0.69279
0.18967 0.325765 0.600641
0.185672 0.316487 0.596628
0.235676 0.308492 0.581521
0.609445 0.201312 0.507362
0.933562 0.527337 0.366217
0.988968 0.83183 0.521157
1 0.962646 0.692027
1 0.963027 0.690166
1 0.963455 0.688029
0.278874 0.483421 0.642069
0.268452 0.469932 0.636988
0.251865 0.447333 0.628351
0.377844 0.423545 0.592721
0.860471 0.40708 0.448753
0.979202 0.764096 0.454292
1 0.964157 0.685496
1 0.964477 0.682948
1 0.964889 0.680934
0.4654 0.715297 0.646967
0.460609 0.706935 0.649439
0.452873 0.692439 0.654383
0.452018 0.669383 0.662516
0.649851 0.642863 0.64416
0.927535 0.652262 0.546746
0.996704 0.934905 0.614252
1 0.96643 0.678569
1 0.966735 0.673884
0.63035 0.878569 0.689021
0.621164 0.874174 0.682155
0.60531 0.866377 0.670497
0.579644 0.853239 0.65211
0.563485 0.834943 0.632502
0.799893 0.826596 0.665125
0.97528 0.880934 0.608438
1 0.967819 0.699611
1 0.96846 0.684657
0.8392 0.961547 0.85832
0.835187 0.960204 0.854795
0.828199 0.957885 0.848661
0.816693 0.954025 0.838575
0.79939 0.948135 0.823453
0.786084 0.939712 0.805859
0.900877 0.931136 0.821149
0.997086 0.964797 0.800122
0.998215 0.965698 0.76968
0.93698 0.994232 0.945144
0.93698 0.994232 0.945144
0.935332 0.993698 0.943709
0.930907 0.992248 0.939849
0.92462 0.990112 0.934234
0.915877 0.987137 0.926329
0.908827 0.983063 0.917235
0.960052 0.978073 0.923293
0.989792 0.974136 0.904448
0.936843 0.994217 0.944976
0.936843 0.994217 0.944976
0.936828 0.994217 0.944961
0.936828 0.994217 0.944961
0.936828 0.994217 0.944961
0.936812 0.994217 0.944945
0.936965 0.994217 0.945006
0.944472 0.994263 0.947723
0.988632 0.994461 0.959258
0.485786 0.650248 0.837217
0.493599 0.648661 0.835691
0.535927 0.642954 0.829175
0.758862 0.590967 0.802945
0.976593 0.743542 0.693034
1 0.902312 0.734295
1 0.948363 0.799039
1 0.94818 0.797909
1 0.947951 0.796582
0.477089 0.642908 0.833417
0.478965 0.641932 0.832685
0.510933 0.637415 0.827527
0.702998 0.594308 0.806195
0.96939 0.716365 0.691112
1 0.890455 0.719829
1 0.948074 0.797299
1 0.947875 0.79617
1 0.947662 0.794858
0.471946 0.639658 0.828763
0.469596 0.637476 0.828092
0.48127 0.632639 0.824857
0.602304 0.609583 0.808347
0.947372 0.655802 0.700465
0.997879 0.868086 0.695323
1 0.94757 0.794385
1 0.947372 0.793271
1 0.947143 0.791959
0.49659 0.664988 0.827604
0.491463 0.660456 0.826429
0.483253 0.653101 0.824491
0.525872 0.637934 0.81413
0.856184 0.576364 0.75198
0.991531 0.821073 0.66807
1 0.946624 0.790372
1 0.946578 0.788785
1 0.946334 0.787488
0.616236 0.762966 0.839582
0.607996 0.756985 0.837964
0.594125 0.746792 0.835233
0.577066 0.730419 0.830427
0.667506 0.700664 0.808286
0.962966 0.734356 0.7037
1 0.918685 0.751431
1 0.944106 0.786877
1 0.94464 0.783093
0.749294 0.883787 0.831601
0.746914 0.880446 0.832181
0.743023 0.874678 0.833494
0.737179 0.865293 0.836332
0.736736 0.851377 0.840925
0.8365 0.832074 0.832883
0.979568 0.85156 0.780819
1 0.948791 0.783886
1 0.94789 0.777295
0.841642 0.958526 0.867369
0.838056 0.957122 0.864622
0.83183 0.954665 0.859907
0.821698 0.950607 0.852369
0.806729 0.944427 0.84155
0.796994 0.935699 0.83061
0.910307 0.927428 0.848234
0.999496 0.959197 0.824018
1 0.957778 0.803952
0.936492 0.993744 0.945342
0.93489 0.99321 0.943969
0.932128 0.992264 0.941604
0.927794 0.990753 0.937819
0.921538 0.988525 0.932326
0.912718 0.985397 0.924575
0.90605 0.981125 0.915953
0.961044 0.976257 0.92314
0.991409 0.97258 0.90399
0.937911 0.994339 0.946349
0.937911 0.994339 0.946349
0.937896 0.994339 0.946334
0.937881 0.994339 0.946319
0.937865 0.994339 0.946288
0.93785 0.994339 0.946273
0.937957 0.994339 0.946288
0.945083 0.994369 0.948837
0.988998 0.994598 0.960189
0.766857 0.854597 0.937026
0.767391 0.854154 0.936782
0.772427 0.852613 0.935851
0.799924 0.846754 0.931975
0.93286 0.820493 0.913588
1 0.915206 0.865797
1 0.956863 0.87602
1 0.956786 0.874968
1 0.956695 0.873762
0.762844 0.851896 0.935714
0.762615 0.851606 0.935576
0.766186 0.85034 0.934829
0.788968 0.845243 0.931533
0.913725 0.816861 0.916716
1 0.905928 0.863493
1 0.956756 0.874418
1 0.95668 0.873365
1 0.956588 0.872145
0.756725 0.847822 0.933562
0.75613 0.84741 0.93341
0.756893 0.846357 0.932921
0.772274 0.842313 0.930465
0.877394 0.815763 0.920043
1 0.889525 0.860258
1 0.956558 0.871717
1 0.956481 0.870665
1 0.95639 0.869429
0.75227 0.845167 0.930663
0.751202 0.844404 0.930449
0.749477 0.843183 0.930098
0.75465 0.839979 0.928618
0.817212 0.823835 0.921416
0.991714 0.858106 0.861006
1 0.956237 0.867475
1 0.956161 0.866392
1 0.956069 0.865141
0.767102 0.85658 0.928878
0.764782 0.854948 0.928512
0.760967 0.852277 0.927916
0.756039 0.848157 0.926909
0.774762 0.838697 0.922438
0.944701 0.80856 0.891356
1 0.932525 0.851774
1 0.955169 0.861753
1 0.955413 0.859586
0.832319 0.901961 0.93312
0.829084 0.899809 0.932525
0.82359 0.896147 0.931517
0.814969 0.890379 0.929976
0.805783 0.881926 0.927535
0.845029 0.865324 0.917723
0.994003 0.885222 0.865263
1 0.950408 0.865354
1 0.951965 0.85919
0.890883 0.957031 0.927001
0.88986 0.955749 0.927077
0.888182 0.953536 0.927306
0.885649 0.949981 0.927962
0.882292 0.944823 0.929412
0.881926 0.937591 0.931731
0.928588 0.928084 0.928176
1 0.940688 0.901442
1 0.941527 0.888273
0.936492 0.992172 0.948241
0.935027 0.991592 0.947127
0.932662 0.9906 0.945266
0.928847 0.988983 0.942321
0.923293 0.986618 0.938109
0.915587 0.983276 0.932448
0.910689 0.978729 0.926986
0.965484 0.974166 0.935515
0.99501 0.969131 0.920851
0.941894 0.994675 0.951629
0.941878 0.994675 0.951614
0.941848 0.994675 0.951583
0.941817 0.994675 0.951537
0.941772 0.994659 0.951476
0.941711 0.994659 0.9514
0.941756 0.994659 0.951339
0.94815 0.99472 0.95349
0.990356 0.995056 0.963897
0.902266 0.94316 0.981292
0.902205 0.943053 0.981231
0.902586 0.942748 0.981048
0.905791 0.94168 0.980423
0.922652 0.937881 0.977874
0.9944 0.931563 0.963333
1 0.963302 0.946365
1 0.96318 0.945693
1 0.963058 0.94493
0.900725 0.942168 0.980758
0.900587 0.942061 0.980713
0.900801 0.941802 0.98056
0.903288 0.940902 0.980026
0.917952 0.937484 0.977752
0.987793 0.927642 0.965652
1 0.963119 0.945342
1 0.963012 0.944671
1 0.96289 0.943893
0.8981 0.940459 0.979873
0.897948 0.940352 0.979812
0.897856 0.940154 0.979706
0.899382 0.939452 0.979294
0.91078 0.936584 0.977462
0.975464 0.923491 0.968551
1 0.962844 0.943618
1 0.962737 0.942931
1 0.9626 0.942138
0.894484 0.93814 0.9785
0.89427 0.937987 0.978439
0.893904 0.937743 0.978332
0.894179 0.937194 0.978058
0.901106 0.935042 0.976791
0.953231 0.92166 0.971176
1 0.962249 0.940887
1 0.96231 0.940169
1 0.962188 0.939345
0.891859 0.936599 0.976791
0.891432 0.936324 0.976715
0.890745 0.935866 0.976577
0.889815 0.935164 0.976349
0.891905 0.933562 0.975601
0.920485 0.925704 0.971969
1 0.945068 0.940352
1 0.9617 0.936431
1 0.961639 0.935393
0.899321 0.942123 0.975738
0.898405 0.941497 0.975601
0.896895 0.940459 0.975341
0.894621 0.938918 0.974975
0.892164 0.936797 0.974426
0.900175 0.932143 0.972229
0.982742 0.917586 0.957015
1 0.960311 0.933867
1 0.96051 0.931746
0.931029 0.964141 0.977951
0.929763 0.963287 0.977691
0.927642 0.961837 0.977264
0.9243 0.959564 0.976593
0.919631 0.956405 0.975708
0.915084 0.952071 0.974395
0.932906 0.943877 0.969528
1 0.955322 0.942473
1 0.957214 0.936629
0.956939 0.991318 0.973922
0.956481 0.990768 0.973892
0.955749 0.989822 0.973892
0.954635 0.988327 0.973983
0.953155 0.98616 0.974319
0.951324 0.98323 0.975097
0.951141 0.979339 0.976318
0.974609 0.974441 0.974472
0.999756 0.964355 0.963668
0.957107 0.99556 0.970016
0.957061 0.99556 0.96997
0.956985 0.99556 0.969879
0.956863 0.995544 0.969757
0.95671 0.995529 0.969573
0.956497 0.995529 0.969329
0.956268 0.995499 0.969039
0.958312 0.9953 0.968582
0.994049 0.995956 0.97557
0.933013 0.963302 0.992126
0.933043 0.963302 0.992111
0.933288 0.963241 0.992081
0.934707 0.962921 0.991867
0.942107 0.961318 0.990784
0.983032 0.952209 0.985901
1 0.967224 0.970611
1 0.967224 0.970611
1 0.967224 0.970611
0.933013 0.963302 0.992126
0.933013 0.963302 0.992126
0.933181 0.963272 0.992096
0.934264 0.963012 0.991928
0.940459 0.961654 0.991012
0.976684 0.952956 0.987152
1 0.967224 0.970611
1 0.967224 0.970611
1 0.967224 0.970611
0.933013 0.963302 0.992126
0.933013 0.963302 0.992126
0.933074 0.963302 0.992111
0.933745 0.963134 0.992004
0.938216 0.962127 0.991348
0.966094 0.955139 0.988602
1 0.967224 0.970611
1 0.967224 0.970611
1 0.967224 0.970611
0.933135 0.963394 0.992142
0.93312 0.963378 0.992142
0.933104 0.963363 0.992126
0.933318 0.963287 0.992096
0.935821 0.962676 0.991699
0.95256 0.958892 0.989654
1 0.965423 0.971679
1 0.967224 0.970611
1 0.967224 0.970611
0.933989 0.964004 0.992233
0.933913 0.963943 0.992233
0.933806 0.963867 0.992218
0.933669 0.963775 0.992203
0.934462 0.963424 0.992035
0.942916 0.96144 0.990738
0.997559 0.953567 0.98146
1 0.967224 0.970642
1 0.967224 0.970611
0.937881 0.966766 0.992706
0.937652 0.966598 0.992676
0.937285 0.966339 0.992645
0.936751 0.965972 0.992569
0.936233 0.965484 0.992477
0.93872 0.964263 0.991897
0.968994 0.956222 0.988571
1 0.967346 0.971267
1 0.967285 0.970962
0.950835 0.975952 0.9944
0.950317 0.975586 0.994324
0.949462 0.974975 0.994202
0.94818 0.97406 0.994034
0.946487 0.972869 0.993805
0.944945 0.971344 0.993469
0.951354 0.968154 0.991882
1 0.965499 0.976913
1 0.967956 0.973571
0.97528 0.993255 0.998627
0.974655 0.992828 0.998489
0.973617 0.992096 0.998276
0.971969 0.990982 0.997955
0.969741 0.989395 0.997497
0.966873 0.98735 0.996948
0.96434 0.984695 0.996155
0.975723 0.979995 0.993088
1 0.974166 0.983291
0.983413 0.998901 1
0.983413 0.998901 1
0.983413 0.998901 1
0.983413 0.998901 1
0.983413 0.998901 1
0.983413 0.998901 1
0.983429 0.998901 1
0.984878 0.998749 1
0.999847 0.998276 0.99855
