F-Log2C to wyCol AgX BT.709 2.4.cube
TITLE "wyCol AgX V1"
LUT_3D_SIZE 33
0.0315557 0.0278325 0.0286107
0.0385443 0.0233768 0.0272526
0.0445106 0.0169375 0.0262913
0.0509346 0 0.0254215
0.0599527 0 0.0249943
0.0713512 0 0.0277867
0.0865949 0 0.0294194
0.109773 0 0.0348058
0.147097 0 0.0453956
0.1991 0 0.0604105
0.273228 0 0.0803388
0.374594 0 0.0992294
0.500267 0 0.0892042
0.630945 0 0
0.750088 0 0
0.845426 0.177401 0
0.911589 0.441993 0
0.951263 0.621332 0
0.972107 0.757275 0
0.982605 0.853422 0
0.98909 0.917205 0.264637
0.994553 0.957443 0.483818
0.999008 0.97818 0.605386
0.999008 0.97818 0.605386
0.999008 0.97818 0.605386
0.999008 0.97818 0.605386
0.999008 0.97818 0.605386
0.999008 0.97818 0.605386
0.999008 0.97818 0.605386
0.999008 0.97818 0.605386
0.999008 0.97818 0.605386
0.999008 0.97818 0.605386
0.999008 0.97818 0.605386
0.0297093 0.0353857 0.0257725
0.0369268 0.0341344 0.0265812
0.0439918 0.0282139 0.0260319
0.049836 0.0190127 0.0254215
0.0575113 0 0.024979
0.0661326 0 0.0311131
0.081651 0 0.0286107
0.102831 0 0.0330205
0.137499 0 0.0426184
0.186786 0 0.0568856
0.257801 0 0.0764324
0.35552 0 0.0970474
0.480018 0 0.0935683
0.612726 0 0
0.7355 0 0
0.835218 0.110033 0
0.905409 0.417975 0
0.948028 0.604089 0
0.970581 0.745281 0
0.981857 0.845731 0
0.988556 0.912352 0.232685
0.994095 0.954757 0.469322
0.999008 0.97818 0.605386
0.999008 0.97818 0.605386
0.999008 0.97818 0.605386
0.999008 0.97818 0.605386
0.999008 0.97818 0.605386
0.999008 0.97818 0.605386
0.999008 0.97818 0.605386
0.999008 0.97818 0.605386
0.999008 0.97818 0.605386
0.999008 0.97818 0.605386
0.999008 0.97818 0.605386
0.0239719 0.0401312 0.0208896
0.0256199 0.0394903 0.0218357
0.0421149 0.0397498 0.0230869
0.0500496 0.0344549 0.0233616
0.0520027 0.0476539 0.0475319
0.0683604 0 0.0269474
0.0820325 0 0.0280156
0.100465 0 0.0319982
0.129107 0 0.040116
0.175326 0 0.0535897
0.242786 0 0.0724956
0.336736 0 0.0940871
0.45948 0 0.0966659
0.593927 0 0
0.720119 0 0
0.824308 0 0
0.898726 0.392462 0
0.944472 0.585916 0
0.968902 0.73257 0
0.981033 0.837552 0
0.987991 0.907149 0.193393
0.993637 0.951873 0.453956
0.998825 0.977493 0.601022
0.999008 0.97818 0.605386
0.999008 0.97818 0.605386
0.999008 0.97818 0.605386
0.999008 0.97818 0.605386
0.999008 0.97818 0.605386
0.999008 0.97818 0.605386
0.999008 0.97818 0.605386
0.999008 0.97818 0.605386
0.999008 0.97818 0.605386
0.999008 0.97818 0.605386
0.0449378 0.0489967 0.0424048
0.0331426 0.0465553 0.030869
0.0446326 0.0482338 0.0391699
0.0501106 0.0487373 0.0364843
0.0570993 0.0407874 0.0240787
0.0687877 0.0265965 0.0242771
0.0835126 0 0.0261997
0.102998 0 0.0309148
0.132906 0 0.0397803
0.174289 0 0.0523537
0.232242 0 0.0692607
0.318318 0 0.0905928
0.438682 0 0.0987411
0.574624 0 0.0475471
0.703944 0 0
0.812619 0 0
0.891463 0.365194 0
0.940581 0.566781 0
0.967056 0.719142 0
0.980148 0.828824 0
0.987396 0.901579 0.138262
0.993149 0.948791 0.437613
0.998398 0.97583 0.590463
0.999008 0.97818 0.605386
0.999008 0.97818 0.605386
0.999008 0.97818 0.605386
0.999008 0.97818 0.605386
0.999008 0.97818 0.605386
0.999008 0.97818 0.605386
0.999008 0.97818 0.605386
0.999008 0.97818 0.605386
0.999008 0.97818 0.605386
0.999008 0.97818 0.605386
0.00665293 0.0499886 0.00836194
0.0117952 0.0493782 0.0119173
0.0149386 0.0487831 0.0144198
0.0352483 0.0513161 0.0137331
0.0534676 0.0518654 0.0140536
0.0670481 0.0439155 0.0165103
0.0837262 0.0157168 0.0209964
0.104372 0 0.0276341
0.135515 0 0.0378424
0.177234 0 0.0509346
0.233631 0 0.0673686
0.313161 0 0.0870832
0.4206 0 0.097612
0.551629 0 0.0684672
0.68426 0 0
0.798199 0 0
0.882338 0.331121 0
0.935622 0.54345 0
0.964691 0.702678 0
0.979049 0.818082 0
0.986694 0.894835 0
0.992584 0.944945 0.417426
0.997879 0.97377 0.57763
0.999008 0.97818 0.605386
0.999008 0.97818 0.605386
0.999008 0.97818 0.605386
0.999008 0.97818 0.605386
0.999008 0.97818 0.605386
0.999008 0.97818 0.605386
0.999008 0.97818 0.605386
0.999008 0.97818 0.605386
0.999008 0.97818 0.605386
0.999008 0.97818 0.605386
0 0.0558175 0
0 0.0550698 0
0 0.0543374 0
0 0.0546273 0
0.0357214 0.0586404 0
0.0619364 0.0602121 0
0.0817578 0.048127 0
0.104646 0 0.0157015
0.136492 0 0.0322728
0.177905 0 0.0470588
0.232486 0 0.0633402
0.309758 0 0.0817578
0.4112 0 0.090135
0.534417 0 0.0663005
0.663417 0 0
0.779995 0 0
0.870604 0.286702 0
0.929137 0.514443 0
0.961578 0.682139 0
0.9776 0.804547 0
0.98587 0.886671 0
0.991897 0.940063 0.391806
0.997269 0.97116 0.561715
0.999008 0.97818 0.605386
0.999008 0.97818 0.605386
0.999008 0.97818 0.605386
0.999008 0.97818 0.605386
0.999008 0.97818 0.605386
0.999008 0.97818 0.605386
0.999008 0.97818 0.605386
0.999008 0.97818 0.605386
0.999008 0.97818 0.605386
0.999008 0.97818 0.605386
0 0.0640269 0
0 0.0630961 0
0 0.0621653 0
0 0.0612345 0
0 0.0634165 0
0.0346685 0.0687877 0
0.0747997 0.0723583 0
0.101335 0.0559243 0
0.136004 0 0
0.178103 0 0.0359808
0.230701 0 0.0547646
0.303838 0 0.0726635
0.398306 0 0.080293
0.515404 0 0.0598001
0.643336 0 0
0.761822 0 0
0.856626 0.235889 0
0.920775 0.479423 0
0.957488 0.656809 0
0.975738 0.787717 0
0.984863 0.876417 0
0.991089 0.933898 0.359243
0.996536 0.967865 0.54226
0.999008 0.97818 0.605386
0.999008 0.97818 0.605386
0.999008 0.97818 0.605386
0.999008 0.97818 0.605386
0.999008 0.97818 0.605386
0.999008 0.97818 0.605386
0.999008 0.97818 0.605386
0.999008 0.97818 0.605386
0.999008 0.97818 0.605386
0.999008 0.97818 0.605386
0 0.0769665 0
0 0.0757153 0
0 0.074464 0
0 0.073228 0
0 0.0717784 0
0 0.0762646 0
0.0379492 0.0829328 0
0.0916915 0.0881971 0
0.128206 0.06804 0
0.172808 0 0
0.226246 0 0.0271458
0.295552 0 0.052903
0.38471 0 0.0619211
0.495262 0 0.0425422
0.620661 0 0
0.740337 0 0
0.840223 0.174762 0
0.910491 0.443366 0
0.952087 0.628077 0
0.973266 0.767224 0
0.983612 0.863645 0
0.990127 0.926146 0.317128
0.995697 0.963714 0.518547
0.999008 0.97818 0.605386
0.999008 0.97818 0.605386
0.999008 0.97818 0.605386
0.999008 0.97818 0.605386
0.999008 0.97818 0.605386
0.999008 0.97818 0.605386
0.999008 0.97818 0.605386
0.999008 0.97818 0.605386
0.999008 0.97818 0.605386
0.999008 0.97818 0.605386
0 0.0956283 0
0 0.093843 0
0 0.092134 0
0 0.0904402 0
0 0.0885328 0
0 0.0863661 0
0 0.0948806 0
0.0509194 0.103868 0
0.114336 0.110948 0
0.159274 0.0884718 0
0.21294 0 0
0.28101 0 0
0.36849 0 0
0.474647 0 0
0.597681 0 0
0.716793 0 0
0.820829 0.0670787 0
0.897627 0.401679 0
0.945083 0.595209 0
0.96994 0.743511 0
0.981979 0.848234 0
0.988998 0.916487 0.261173
0.994736 0.958526 0.489738
0.999008 0.97818 0.605386
0.999008 0.97818 0.605386
0.999008 0.97818 0.605386
0.999008 0.97818 0.605386
0.999008 0.97818 0.605386
0.999008 0.97818 0.605386
0.999008 0.97818 0.605386
0.999008 0.97818 0.605386
0.999008 0.97818 0.605386
0.999008 0.97818 0.605386
0 0.128679 0
0 0.125826 0
0 0.123049 0
0 0.120302 0
0 0.117159 0
0 0.113573 0
0 0.113603 0
0 0.124376 0
0.0665599 0.136904 0
0.139742 0.147372 0
0.194491 0.125765 0
0.259068 0.0691997 0
0.346548 0 0
0.451469 0 0
0.572183 0 0
0.691997 0 0
0.798901 0 0
0.882002 0.358083 0
0.936049 0.558251 0
0.96553 0.715419 0
0.979873 0.829511 0
0.98761 0.904524 0.178714
0.993637 0.951995 0.456001
0.999008 0.978149 0.605692
0.999008 0.97818 0.605386
0.999008 0.97818 0.605386
0.999008 0.97818 0.605386
0.999008 0.97818 0.605386
0.999008 0.97818 0.605386
0.999008 0.97818 0.605386
0.999008 0.97818 0.605386
0.999008 0.97818 0.605386
0.999008 0.97818 0.605386
0 0.180957 0
0 0.17731 0
0 0.173846 0
0 0.170321 0
0 0.166186 0
0 0.161318 0
0 0.155688 0
0 0.158495 0
0 0.168078 0
0.0872053 0.179507 0
0.170016 0.19147 0
0.236393 0.170123 0
0.319356 0.118959 0
0.423713 0 0
0.54406 0 0
0.665888 0 0
0.774792 0 0
0.863493 0.3178 0
0.924544 0.519341 0
0.959625 0.683497 0
0.977096 0.807111 0
0.985977 0.890272 0
0.99237 0.943786 0.415274
0.997971 0.974105 0.581231
0.999008 0.978134 0.606134
0.999008 0.978149 0.605814
0.999008 0.978164 0.605447
0.999008 0.97818 0.605386
0.999008 0.97818 0.605386
0.999008 0.97818 0.605386
0.999008 0.97818 0.605386
0.999008 0.97818 0.605386
0.999008 0.97818 0.605386
0 0.243046 0
0 0.239368 0
0 0.235706 0
0 0.231983 0
0 0.227619 0
0 0.222461 0
0 0.21648 0
0 0.209628 0
0 0.212543 0
0 0.219348 0
0.110094 0.230686 0
0.208621 0.243381 0
0.2925 0.220874 0
0.392706 0.171084 0
0.511681 0 0
0.63714 0 0
0.748226 0 0
0.842008 0.290791 0
0.91014 0.482216 0
0.951736 0.648966 0
0.973297 0.781064 0
0.983993 0.873472 0
0.99089 0.933471 0.366186
0.996704 0.968612 0.550271
0.999008 0.978088 0.607111
0.999008 0.978103 0.606668
0.999008 0.978134 0.606287
0.999008 0.978149 0.605936
0.999008 0.978164 0.605554
0.999008 0.97818 0.605386
0.999008 0.97818 0.605386
0.999008 0.97818 0.605386
0.999008 0.97818 0.605386
0 0.313664 0
0 0.309758 0
0 0.305867 0
0 0.3019 0
0 0.297246 0
0 0.291752 0
0 0.28542 0
0 0.278218 0
0 0.270649 0
0 0.273411 0
0 0.279774 0
0.141329 0.29163 0
0.259266 0.305852 0
0.361608 0.280217 0
0.474998 0.232929 0
0.601495 0.168948 0
0.717922 0.16849 0
0.817044 0.290898 0
0.892378 0.453391 0
0.941253 0.614649 0
0.968048 0.75201 0
0.981369 0.853376 0
0.989105 0.920562 0.30663
0.99527 0.961624 0.514336
0.998993 0.977996 0.608621
0.999008 0.978042 0.608011
0.999008 0.978073 0.607446
0.999008 0.978088 0.606928
0.999008 0.978119 0.60647
0.999008 0.978134 0.606073
0.999008 0.978164 0.605661
0.999008 0.97818 0.605386
0.999008 0.97818 0.605386
0 0.394568 0
0 0.390478 0
0 0.386389 0
0 0.382239 0
0 0.37734 0
0 0.371557 0
0 0.364874 0
0 0.357259 0
0 0.348699 0
0 0.342321 0
0 0.342901 0
0.0546883 0.348882 0
0.182406 0.361471 0
0.325154 0.377432 0
0.437675 0.348608 0
0.559609 0.30753 0
0.681865 0.283589 0
0.787106 0.327153 0
0.870359 0.442054 0
0.927382 0.585489 0
0.960662 0.721843 0
0.977737 0.830198 0
0.986877 0.904662 0.233082
0.993622 0.952712 0.473457
0.998993 0.977874 0.610986
0.998993 0.97792 0.610086
0.998993 0.977966 0.609262
0.998993 0.978012 0.608515
0.999008 0.978042 0.607843
0.999008 0.978073 0.607233
0.999008 0.978103 0.606699
0.999008 0.978134 0.606226
0.999008 0.978149 0.605814
0 0.484733 0.13547
0 0.480522 0.131518
0 0.47631 0.127504
0 0.472023 0.123369
0 0.466941 0.118395
0 0.460914 0.112352
0 0.453925 0.105089
0 0.446128 0.0964981
0 0.437369 0.0860914
0 0.427619 0.0729686
0 0.421653 0.0607156
0 0.420768 0.0508736
0.115084 0.427085 0.0471504
0.241733 0.44036 0.049134
0.398978 0.455787 0.0399329
0.516686 0.425345 0
0.639719 0.394186 0
0.750179 0.39617 0
0.84239 0.457694 0
0.908919 0.56875 0
0.950225 0.69427 0
0.972503 0.805035 0
0.984054 0.886625 0.131487
0.991669 0.941436 0.428946
0.997833 0.973312 0.58854
0.998993 0.977752 0.613291
0.998993 0.977813 0.612116
0.998993 0.977874 0.611032
0.998993 0.97792 0.610025
0.998993 0.977981 0.609125
0.998993 0.978027 0.608301
0.999008 0.978058 0.607584
0.999008 0.978088 0.606973
0.0310369 0.579705 0.222171
0 0.575814 0.218479
0 0.571893 0.214786
0 0.567895 0.211032
0 0.563134 0.206638
0 0.557473 0.201434
0 0.550851 0.195422
0 0.543252 0.18854
0 0.534615 0.180758
0 0.524895 0.17203
0 0.514092 0.16231
0 0.508263 0.156054
0.068864 0.506798 0.152667
0.188922 0.511971 0.153979
0.312291 0.523491 0.160296
0.477256 0.537255 0.167346
0.593606 0.507393 0.11635
0.70602 0.487846 0
0.806378 0.504891 0
0.883955 0.572946 0
0.935302 0.675074 0
0.964706 0.780407 0
0.980133 0.866514 0
0.989212 0.927367 0.385077
0.996002 0.965408 0.553872
0.998978 0.977478 0.618097
0.998978 0.977569 0.616464
0.998978 0.977661 0.614939
0.998978 0.977737 0.613489
0.998993 0.977813 0.612161
0.998993 0.977874 0.610941
0.998993 0.977935 0.609842
0.998993 0.977981 0.608896
0.224674 0.66949 0.317052
0.219501 0.666194 0.313207
0.214267 0.662867 0.309361
0.208881 0.659464 0.305455
0.202472 0.655406 0.300847
0.19472 0.650538 0.295369
0.185565 0.644846 0.289021
0.174823 0.638254 0.281788
0.162249 0.630701 0.273655
0.147509 0.622156 0.264607
0.129915 0.612543 0.254643
0.112886 0.602304 0.244236
0.139956 0.596185 0.237873
0.19118 0.593652 0.234882
0.27245 0.596963 0.237827
0.391821 0.605585 0.247715
0.555398 0.616678 0.261372
0.660151 0.590021 0.223056
0.762371 0.578958 0.154269
0.85037 0.604318 0
0.913817 0.67155 0
0.95288 0.760693 0
0.974182 0.845472 0
0.98584 0.910491 0.352605
0.993805 0.955215 0.519921
0.998947 0.97705 0.625162
0.998947 0.977188 0.622934
0.998962 0.977325 0.620798
0.998962 0.977432 0.618784
0.998978 0.977554 0.616876
0.998978 0.977646 0.615106
0.998978 0.977737 0.613489
0.998993 0.977813 0.61207
0.349966 0.747509 0.417227
0.345602 0.744915 0.413565
0.341207 0.74229 0.409918
0.336706 0.73959 0.406165
0.331365 0.736385 0.40174
0.324987 0.732509 0.39646
0.31754 0.727962 0.390326
0.308949 0.722698 0.383291
0.299153 0.71664 0.375311
0.288075 0.709728 0.366369
0.275669 0.70193 0.356435
0.261814 0.693156 0.34551
0.253468 0.684535 0.335073
0.262806 0.67805 0.327642
0.296025 0.674678 0.324544
0.364096 0.675883 0.328389
0.475608 0.681086 0.34049
0.625345 0.688823 0.357137
0.717067 0.666789 0.324788
0.80853 0.661692 0.278706
0.883665 0.690379 0.212284
0.934874 0.752041 0.145022
0.964828 0.826551 0.204135
0.981033 0.892454 0.348913
0.990982 0.942336 0.49369
0.998077 0.97348 0.620111
0.998917 0.976608 0.632319
0.998932 0.976791 0.629419
0.998947 0.976959 0.626642
0.998947 0.977127 0.624002
0.998962 0.977279 0.621515
0.998962 0.977417 0.619181
0.998978 0.977539 0.617105
0.464607 0.810681 0.515038
0.460838 0.808759 0.511788
0.457053 0.806821 0.508507
0.453162 0.804822 0.50515
0.448569 0.802426 0.501183
0.443076 0.799558 0.496437
0.436652 0.796185 0.490913
0.429236 0.792233 0.484535
0.420798 0.787686 0.477287
0.411261 0.782498 0.469123
0.400595 0.776608 0.460014
0.388708 0.76994 0.449897
0.375555 0.762448 0.438758
0.368658 0.75523 0.428626
0.373678 0.749142 0.420935
0.399329 0.745281 0.417716
0.457603 0.74461 0.421683
0.554726 0.746395 0.43357
0.682658 0.750805 0.450294
0.765988 0.733761 0.423392
0.845502 0.732631 0.387915
0.90866 0.76109 0.351125
0.949996 0.814817 0.339391
0.973556 0.87509 0.388525
0.986969 0.926863 0.486915
0.995605 0.963668 0.597986
0.998856 0.975723 0.645594
0.998871 0.975982 0.641764
0.998886 0.976226 0.638056
0.998901 0.976471 0.63447
0.998917 0.976684 0.631052
0.998932 0.976883 0.627802
0.998947 0.977066 0.624872
0.560372 0.858412 0.602518
0.557458 0.857069 0.599847
0.554528 0.855695 0.597162
0.551522 0.854292 0.5944
0.547967 0.852628 0.591134
0.543709 0.850614 0.587228
0.53872 0.848219 0.582635
0.532967 0.845457 0.577356
0.526406 0.842268 0.571328
0.519005 0.838605 0.564508
0.510704 0.834455 0.556878
0.501457 0.82977 0.548379
0.491203 0.824475 0.538933
0.479912 0.818524 0.528542
0.474403 0.812741 0.51928
0.477195 0.80737 0.511772
0.496162 0.80322 0.50811
0.541756 0.800855 0.510826
0.62237 0.800122 0.52137
0.733822 0.802289 0.537865
0.807309 0.789456 0.516075
0.875059 0.7906 0.487877
0.927733 0.816709 0.464302
0.96141 0.861906 0.46598
0.980591 0.910002 0.511498
0.992248 0.951125 0.590143
0.998749 0.974426 0.663737
0.998779 0.974777 0.658854
0.99881 0.975128 0.654047
0.99884 0.975464 0.649348
0.998856 0.975769 0.6448
0.998886 0.976074 0.640436
0.998901 0.976333 0.636408
0.643488 0.894118 0.67863
0.641123 0.893172 0.676478
0.638743 0.89221 0.674296
0.636286 0.891234 0.672053
0.633387 0.890043 0.669413
0.629908 0.888624 0.666224
0.625834 0.886961 0.662501
0.621118 0.885008 0.658198
0.615747 0.882765 0.653269
0.609659 0.880201 0.6477
0.602808 0.877287 0.641428
0.595178 0.873991 0.63444
0.586679 0.870283 0.626657
0.577295 0.866102 0.618036
0.567605 0.861479 0.608774
0.562173 0.856809 0.600305
0.563378 0.852277 0.593332
0.578241 0.848371 0.589837
0.61593 0.845411 0.592157
0.68397 0.84332 0.601678
0.7785 0.843763 0.616815
0.841932 0.83418 0.59971
0.898894 0.836362 0.577142
0.942748 0.85919 0.56109
0.97055 0.896468 0.56762
0.987121 0.936431 0.606439
0.996994 0.967819 0.67158
0.998596 0.973098 0.681529
0.998657 0.973541 0.675593
0.998703 0.973983 0.669688
0.998749 0.974411 0.663874
0.998779 0.974838 0.658198
0.99881 0.975204 0.652903
0.71368 0.920668 0.742641
0.711803 0.919997 0.740932
0.709926 0.919326 0.739223
0.707988 0.918624 0.737469
0.705699 0.917784 0.735363
0.702953 0.916793 0.73286
0.699718 0.915618 0.729931
0.695994 0.914244 0.726528
0.691722 0.912673 0.722637
0.686885 0.910872 0.718242
0.681453 0.908843 0.713283
0.675364 0.906538 0.707729
0.668589 0.90396 0.701549
0.661082 0.901061 0.694697
0.652781 0.89781 0.687129
0.644816 0.894255 0.679179
0.639551 0.890532 0.671672
0.639857 0.886793 0.665461
0.651392 0.883284 0.662257
0.681971 0.88014 0.664103
0.73814 0.877333 0.672282
0.816815 0.876677 0.685512
0.870832 0.869459 0.672435
0.918379 0.871885 0.654368
0.954971 0.891234 0.642969
0.978607 0.922484 0.649989
0.992782 0.955184 0.682902
0.99826 0.970916 0.710124
0.998352 0.97145 0.703151
0.998444 0.971984 0.696117
0.99852 0.972519 0.689082
0.998596 0.973053 0.682094
0.998657 0.973556 0.675441
0.77145 0.940597 0.795132
0.770001 0.940108 0.79382
0.768536 0.93962 0.792493
0.76704 0.939116 0.791135
0.765255 0.938521 0.789502
0.763119 0.937804 0.787564
0.760616 0.936965 0.785306
0.757717 0.935988 0.782666
0.754421 0.934859 0.77966
0.750652 0.933593 0.776257
0.746441 0.932143 0.772412
0.741711 0.93051 0.768124
0.736446 0.928695 0.763333
0.730602 0.926665 0.758022
0.724132 0.924392 0.752148
0.717006 0.921859 0.745663
0.71043 0.919097 0.738979
0.70573 0.916152 0.732525
0.705516 0.913085 0.727169
0.714397 0.910033 0.7243
0.738872 0.906981 0.725704
0.784558 0.90396 0.732479
0.849271 0.902708 0.743664
0.894926 0.8972 0.733898
0.934508 0.899443 0.719448
0.965148 0.915526 0.711025
0.985855 0.942412 0.716686
0.99765 0.968505 0.743984
0.997818 0.969024 0.736324
0.997971 0.969573 0.728466
0.998108 0.970153 0.72047
0.99823 0.970748 0.712367
0.998337 0.971344 0.704524
0.818265 0.955871 0.837583
0.817151 0.955505 0.836576
0.816022 0.955154 0.835554
0.814862 0.954772 0.834501
0.813504 0.954345 0.833265
0.811856 0.953811 0.831785
0.809934 0.953185 0.830045
0.807721 0.952483 0.828031
0.805173 0.951659 0.825727
0.802304 0.950729 0.823117
0.799054 0.949676 0.820172
0.795438 0.948486 0.816892
0.791394 0.947173 0.81323
0.786923 0.945708 0.809171
0.781964 0.944076 0.804669
0.776501 0.942275 0.799725
0.770489 0.940276 0.794263
0.765103 0.938094 0.788708
0.761059 0.935744 0.783291
0.760571 0.933242 0.778744
0.767376 0.930632 0.776242
0.786801 0.927855 0.777249
0.823667 0.924926 0.782757
0.876554 0.92343 0.792004
0.915022 0.919158 0.784833
0.947982 0.921019 0.773266
0.97467 0.934981 0.765896
0.992035 0.957412 0.771008
0.996887 0.966781 0.773465
0.997116 0.967193 0.765316
0.997345 0.967681 0.756878
0.997559 0.968231 0.748165
0.997757 0.968795 0.739574
0.855909 0.96788 0.871702
0.855055 0.967605 0.870924
0.8542 0.96733 0.870146
0.8533 0.967056 0.869337
0.852262 0.96672 0.868391
0.851011 0.966323 0.867262
0.849531 0.96585 0.865919
0.847837 0.965316 0.864378
0.845884 0.964691 0.862623
0.843687 0.963989 0.860624
0.841215 0.963195 0.858381
0.838453 0.962325 0.855879
0.83537 0.961349 0.853086
0.831968 0.96025 0.850004
0.828199 0.959045 0.846586
0.824048 0.957717 0.842832
0.819471 0.956252 0.838682
0.814588 0.95465 0.83418
0.810071 0.952895 0.829557
0.806638 0.950988 0.825055
0.806027 0.948943 0.821241
0.811246 0.946731 0.819089
0.826627 0.944289 0.819791
0.856245 0.941634 0.824201
0.899382 0.940108 0.831754
0.931838 0.936721 0.826581
0.959701 0.938247 0.81706
0.982788 0.950317 0.81062
0.995422 0.965637 0.811917
0.995758 0.965728 0.80412
0.996094 0.965911 0.795895
0.996429 0.966186 0.787259
0.996719 0.966537 0.778576
0.886137 0.977554 0.899107
0.885481 0.97734 0.898512
0.884825 0.977127 0.897917
0.884138 0.976913 0.897292
0.883345 0.976654 0.896559
0.882383 0.976333 0.895689
0.881254 0.975967 0.894667
0.879942 0.975555 0.893492
0.878462 0.975082 0.892134
0.876768 0.974533 0.890608
0.874876 0.973938 0.888899
0.87277 0.973251 0.886992
0.87042 0.972503 0.884855
0.867826 0.971679 0.882506
0.864958 0.970764 0.879896
0.861799 0.969757 0.877043
0.858335 0.968658 0.873899
0.854536 0.967437 0.870451
0.850553 0.96611 0.866743
0.846799 0.964675 0.862913
0.843915 0.963104 0.859174
0.843275 0.96141 0.856001
0.847272 0.959548 0.854154
0.859464 0.957458 0.854643
0.883268 0.955139 0.858152
0.918502 0.953689 0.864286
0.945907 0.950988 0.860609
0.970352 0.952331 0.852293
0.989654 0.96257 0.847044
0.993835 0.966155 0.841779
0.994263 0.965881 0.834394
0.99469 0.965698 0.82649
0.995102 0.965621 0.818433
0.910491 0.985504 0.921202
0.909987 0.985336 0.920729
0.909468 0.985168 0.920272
0.908949 0.984985 0.919799
0.908324 0.984787 0.919234
0.907576 0.984543 0.918547
0.906706 0.984253 0.917769
0.905699 0.983917 0.916854
0.904555 0.983551 0.915816
0.903258 0.983124 0.914641
0.901808 0.982635 0.913314
0.900191 0.982116 0.911849
0.89839 0.981521 0.910216
0.896406 0.98088 0.908415
0.894209 0.980163 0.906416
0.891798 0.979385 0.904234
0.889158 0.978531 0.901839
0.886275 0.977584 0.899214
0.883101 0.976577 0.896345
0.879835 0.975464 0.893294
0.876738 0.974258 0.89012
0.874327 0.972946 0.887022
0.873701 0.971527 0.884382
0.876783 0.96997 0.882811
0.886458 0.9682 0.883116
0.905653 0.966201 0.885908
0.934508 0.964904 0.890898
0.958663 0.962646 0.888014
0.979248 0.963867 0.881056
0.991547 0.969116 0.875731
0.992004 0.968338 0.86952
0.992477 0.96762 0.862821
0.992935 0.967025 0.855894
0.930282 0.992142 0.939132
0.92987 0.992004 0.938766
0.929442 0.991867 0.938384
0.929 0.99173 0.938003
0.928496 0.991562 0.93756
0.927932 0.991363 0.937041
0.927245 0.991135 0.936416
0.926467 0.990875 0.935714
0.925582 0.99057 0.934905
