F-Log2C to wyCol AgX BT.709 2.4.cube
TITLE "wyCol AgX V1"
LUT_3D_SIZE 5
0.0315557 0.0278325 0.0286107
0.147097 0 0.0453956
0.911589 0.441993 0
0.999008 0.97818 0.605386
0.999008 0.97818 0.605386
0 0.0956283 0
0.114336 0.110948 0
0.820829 0.0670787 0
0.999008 0.97818 0.605386
0.999008 0.97818 0.605386
0.224674 0.66949 0.317052
0.162249 0.630701 0.273655
0.555398 0.616678 0.261372
0.993805 0.955215 0.519921
0.998993 0.977813 0.61207
0.855909 0.96788 0.871702
0.845884 0.964691 0.862623
0.819471 0.956252 0.838682
0.899382 0.940108 0.831754
0.996719 0.966537 0.778576
0.936584 0.994202 0.94464
0.936584 0.994202 0.94464
0.936584 0.994202 0.94464
0.936767 0.994202 0.944717
0.988556 0.99443 0.95906
0.0359197 0 0.101061
0.288106 0 0.10042
0.916701 0.468849 0
0.999313 0.976837 0.614069
0.999283 0.976989 0.613123
0 0.175235 0.170336
0.155505 0.161318 0.162432
0.832883 0.184131 0
0.999252 0.977111 0.612345
0.999222 0.977234 0.611505
0.205234 0.654978 0.313558
0.140902 0.616068 0.273854
0.557778 0.603281 0.266636
0.99379 0.953399 0.516274
0.9991 0.977417 0.614069
0.849867 0.965942 0.866239
0.839353 0.9626 0.856718
0.811627 0.953735 0.831586
0.898253 0.937072 0.824964
0.996948 0.966873 0.771511
0.936584 0.994202 0.94464
0.936584 0.994202 0.94464
0.936584 0.994202 0.94464
0.936751 0.994202 0.944717
0.988556 0.99443 0.95906
0.18085 0.285878 0.600656
0.370352 0.278676 0.570748
0.964767 0.656962 0.392142
1 0.961028 0.69984
1 0.961883 0.695674
0.18967 0.325765 0.600641
0.235676 0.308492 0.581521
0.933562 0.527337 0.366217
1 0.962646 0.692027
1 0.963455 0.688029
0.4654 0.715297 0.646967
0.452873 0.692439 0.654383
0.649851 0.642863 0.64416
0.996704 0.934905 0.614252
1 0.966735 0.673884
0.8392 0.961547 0.85832
0.828199 0.957885 0.848661
0.79939 0.948135 0.823453
0.900877 0.931136 0.821149
0.998215 0.965698 0.76968
0.936843 0.994217 0.944976
0.936828 0.994217 0.944961
0.936828 0.994217 0.944961
0.936965 0.994217 0.945006
0.988632 0.994461 0.959258
0.766857 0.854597 0.937026
0.772427 0.852613 0.935851
0.93286 0.820493 0.913588
1 0.956863 0.87602
1 0.956695 0.873762
0.756725 0.847822 0.933562
0.756893 0.846357 0.932921
0.877394 0.815763 0.920043
1 0.956558 0.871717
1 0.95639 0.869429
0.767102 0.85658 0.928878
0.760967 0.852277 0.927916
0.774762 0.838697 0.922438
1 0.932525 0.851774
1 0.955413 0.859586
0.890883 0.957031 0.927001
0.888182 0.953536 0.927306
0.882292 0.944823 0.929412
0.928588 0.928084 0.928176
1 0.941527 0.888273
0.941894 0.994675 0.951629
0.941848 0.994675 0.951583
0.941772 0.994659 0.951476
0.941756 0.994659 0.951339
0.990356 0.995056 0.963897
0.933013 0.963302 0.992126
0.933288 0.963241 0.992081
0.942107 0.961318 0.990784
1 0.967224 0.970611
1 0.967224 0.970611
0.933013 0.963302 0.992126
0.933074 0.963302 0.992111
0.938216 0.962127 0.991348
1 0.967224 0.970611
1 0.967224 0.970611
0.933989 0.964004 0.992233
0.933806 0.963867 0.992218
0.934462 0.963424 0.992035
0.997559 0.953567 0.98146
1 0.967224 0.970611
0.950835 0.975952 0.9944
0.949462 0.974975 0.994202
0.946487 0.972869 0.993805
0.951354 0.968154 0.991882
1 0.967956 0.973571
0.983413 0.998901 1
0.983413 0.998901 1
0.983413 0.998901 1
0.983429 0.998901 1
0.999847 0.998276 0.99855
