Linear sRGB to wyCol AgX BT.709 2.4.cube
TITLE "wyCol AgX V1"
LUT_3D_SIZE 65
0.0536965 0.0517891 0.0521706
0.0691997 0.0426947 0.0491493
0.0834211 0.0256657 0.0470741
0.0960098 0 0.0462501
0.108461 0 0.04654
0.121004 0 0.0476692
0.13344 0 0.0493477
0.145129 0 0.0512551
0.156207 0 0.0532692
0.166781 0 0.0553292
0.176928 0 0.0574197
0.186725 0 0.0594949
0.196216 0 0.0615396
0.205432 0 0.0635386
0.21442 0 0.0654765
0.223178 0 0.0673686
0.231937 0 0.0692454
0.240925 0 0.0711528
0.249744 0 0.0729686
0.258412 0 0.0747234
0.266941 0 0.0763867
0.275334 0 0.0779431
0.283604 0 0.0794232
0.291752 0 0.0807813
0.299779 0 0.0820325
0.307683 0 0.0831617
0.315496 0 0.0841535
0.323201 0 0.085008
0.330785 0 0.0857099
0.338262 0 0.0862593
0.345586 0 0.0866407
0.352804 0 0.0868696
0.359915 0 0.0870222
0.366903 0 0.0871443
0.3738 0 0.0871901
0.380591 0 0.0872053
0.387289 0 0.0871595
0.393896 0 0.087068
0.400397 0 0.0869306
0.406806 0 0.0867323
0.413138 0 0.0865034
0.419379 0 0.0861982
0.425544 0 0.0858625
0.431601 0 0.0854658
0.437598 0 0.085008
0.443503 0 0.0845045
0.449332 0 0.0839551
0.455085 0 0.0833448
0.460761 0 0.0826734
0.466361 0 0.0819409
0.471885 0 0.0811627
0.477348 0 0.0803082
0.482734 0 0.0793927
0.488045 0 0.0784161
0.493294 0 0.0773785
0.498466 0 0.0762646
0.503594 0 0.0750744
0.508629 0 0.0738079
0.513603 0 0.0724498
0.518517 0 0.0710155
0.523369 0 0.0694591
0.528145 0 0.0678111
0.53286 0 0.066041
0.537514 0 0.0641337
0.542092 0 0.062089
0.0348516 0.0707103 0.0379797
0.077348 0.0770123 0.0380713
0.0982376 0.0692912 0.0376135
0.116365 0.0569619 0.0381476
0.132601 0.0375067 0.0394903
0.147143 0 0.0411841
0.160525 0 0.0430457
0.173007 0 0.0449683
0.184802 0 0.0468757
0.196017 0 0.0487373
0.206729 0 0.0505226
0.216999 0 0.0522011
0.226886 0 0.0537881
0.236423 0 0.0552377
0.245655 0 0.0565499
0.254597 0 0.0577096
0.263874 0 0.0588846
0.272999 0 0.0599069
0.28188 0 0.0607462
0.290562 0 0.061387
0.299031 0 0.0618753
0.307332 0 0.0623178
0.315465 0 0.0626841
0.32343 0 0.0630198
0.331258 0 0.0632792
0.338933 0 0.0634928
0.346471 0 0.0636606
0.353872 0 0.0637522
0.361151 0 0.063798
0.368307 0 0.063798
0.375341 0 0.0637217
0.382269 0 0.0635996
0.389075 0 0.0634165
0.395789 0 0.0631723
0.402396 0 0.0628672
0.408881 0 0.062501
0.41529 0 0.0620737
0.421592 0 0.0615702
0.427802 0 0.0610056
0.433921 0 0.0603647
0.439948 0 0.0596628
0.445914 0 0.0588693
0.451774 0 0.0579995
0.457557 0 0.0570382
0.463249 0 0.0560006
0.468864 0 0.0548562
0.474418 0 0.0535897
0.479881 0 0.0522316
0.485283 0 0.0507362
0.490593 0 0.0491035
0.495842 0 0.047303
0.501015 0 0.045304
0.506111 0 0.0430762
0.511131 0 0.0405585
0.516091 0 0.0376898
0.520974 0 0.0343328
0.525795 0 0.0303044
0.530541 0 0.0251316
0.535225 0 0.0173953
0.539849 0 0
0.544411 0 0
0.548898 0 0
0.553338 0 0
0.557702 0 0
0.56202 0 0
0 0.0850233 0
0.0632029 0.0963302 0
0.104189 0.101671 0
0.125017 0.0957046 0
0.143008 0.0884871 0
0.159014 0.079942 0
0.173541 0.0696574 0
0.186923 0.0565499 0
0.199405 0.0365759 0
0.211154 0 0
0.222293 0 0
0.232914 0 0
0.243091 0 0
0.252872 0 0
0.262318 0 0
0.271717 0 0
0.2813 0 0
0.290623 0 0
0.299702 0 0
0.308537 0 0
0.317159 0 0
0.325582 0 0
0.333822 0 0
0.341863 0 0
0.349752 0 0
0.357473 0 0
0.365042 0 0
0.372457 0 0
0.379751 0 0
0.386892 0 0
0.393912 0 0
0.400809 0 0
0.407584 0 0
0.414237 0 0
0.420798 0 0
0.427237 0 0
0.43357 0 0
0.439796 0 0
0.445945 0 0
0.451972 0 0
0.457923 0 0
0.463783 0 0
0.469535 0 0
0.475212 0 0
0.480781 0 0
0.48629 0 0
0.491691 0 0
0.497017 0 0
0.502266 0 0
0.507424 0 0
0.51252 0 0
0.51754 0 0
0.522469 0 0
0.527337 0 0
0.532143 0 0
0.536858 0 0
0.541527 0 0
0.54612 0 0
0.550637 0 0
0.555093 0 0
0.559503 0 0
0.563851 0 0
0.568124 0 0
0.572335 0 0
0.576486 0 0
0 0.0978714 0
0.0501259 0.1122 0
0.0948806 0.122744 0
0.128664 0.128252 0
0.146929 0.124041 0
0.163409 0.119326 0
0.178531 0.114076 0
0.192538 0.108278 0
0.205646 0.101854 0
0.218006 0.0946822 0
0.229694 0.0865644 0
0.240833 0.0771344 0
0.251484 0.0656748 0
0.261692 0.0502785 0
0.271504 0.0193027 0
0.281682 0 0
0.29163 0 0
0.301289 0 0
0.310658 0 0
0.319768 0 0
0.328634 0 0
0.337285 0 0
0.345724 0 0
0.353948 0 0
0.362005 0 0
0.369879 0 0
0.377569 0 0
0.385107 0 0
0.392493 0 0
0.399741 0 0
0.406836 0 0
0.413809 0 0
0.420645 0 0
0.427344 0 0
0.433921 0 0
0.440375 0 0
0.446723 0 0
0.452949 0 0
0.459052 0 0
0.465064 0 0
0.47097 0 0
0.476783 0 0
0.482475 0 0
0.488106 0 0
0.493614 0 0
0.499046 0 0
0.504372 0 0
0.509621 0 0
0.514794 0 0
0.519875 0 0
0.524895 0 0
0.529824 0 0
0.534676 0 0
0.539452 0 0
0.544152 0 0
0.548775 0 0
0.553353 0 0
0.557855 0 0
0.562264 0 0
0.566644 0 0
0.570932 0 0
0.575174 0 0
0.579355 0 0
0.583459 0 0
0.587518 0 0
0 0.112642 0
0.0332494 0.129427 0
0.0863661 0.141573 0
0.12076 0.149615 0
0.150393 0.153811 0
0.167025 0.150423 0
0.182345 0.146777 0
0.196597 0.14287 0
0.209995 0.138674 0
0.22266 0.134203 0
0.234668 0.129427 0
0.246128 0.124331 0
0.257084 0.118853 0
0.267613 0.112963 0
0.278019 0.106279 0
0.28864 0.0982376 0
0.298894 0.0890822 0
0.308827 0.0783246 0
0.318471 0.0648966 0
0.327825 0.0456245 0
0.336934 0 0
0.3458 0 0
0.354437 0 0
0.36286 0 0
0.371084 0 0
0.37911 0 0
0.386954 0 0
0.394614 0 0
0.40209 0 0
0.40943 0 0
0.416587 0 0
0.423606 0 0
0.430488 0 0
0.437217 0 0
0.443824 0 0
0.450294 0 0
0.456641 0 0
0.462867 0 0
0.468986 0 0
0.474983 0 0
0.480873 0 0
0.486671 0 0
0.492348 0 0
0.497932 0 0
0.50341 0 0
0.508812 0 0
0.514107 0 0
0.519326 0 0
0.524437 0 0
0.529473 0 0
0.534447 0 0
0.539315 0 0
0.544106 0 0
0.548821 0 0
0.553475 0 0
0.558053 0 0
0.562554 0 0
0.566979 0 0
0.571344 0 0
0.575631 0 0
0.579873 0 0
0.584039 0 0
0.588144 0 0
0.592187 0 0
0.59617 0 0
0 0.129549 0
0 0.147402 0
0.0790417 0.159075 0
0.113436 0.167575 0
0.14403 0.173953 0
0.170764 0.177249 0
0.186145 0.17438 0
0.200519 0.171359 0
0.214038 0.16817 0
0.226825 0.164828 0
0.239002 0.161318 0
0.250629 0.157656 0
0.261769 0.153811 0
0.272465 0.149783 0
0.283528 0.145068 0
0.294347 0.139971 0
0.304829 0.134554 0
0.314961 0.128771 0
0.324788 0.12256 0
0.334325 0.115877 0
0.343587 0.108598 0
0.35259 0.100557 0
0.361364 0.0915541 0
0.369894 0.0811322 0
0.378225 0.0684825 0
0.386343 0.0513619 0
0.394247 0.00846876 0
0.401984 0 0
0.409552 0 0
0.416922 0 0
0.42414 0 0
0.43122 0 0
0.438117 0 0
0.444892 0 0
0.45153 0 0
0.458015 0 0
0.464393 0 0
0.470634 0 0
0.476738 0 0
0.482734 0 0
0.488624 0 0
0.494408 0 0
0.500084 0 0
0.505653 0 0
0.511131 0 0
0.516503 0 0
0.521782 0 0
0.52697 0 0
0.532067 0 0
0.537072 0 0
0.541985 0 0
0.546838 0 0
0.551598 0 0
0.556268 0 0
0.560876 0 0
0.565408 0 0
0.569863 0 0
0.574258 0 0
0.578576 0 0
0.582818 0 0
0.586999 0 0
0.591134 0 0
0.595178 0 0
0.599176 0 0
0.603113 0 0
0 0.148287 0
0 0.164553 0
0.0721904 0.175631 0
0.107546 0.184192 0
0.13756 0.190906 0
0.165667 0.196155 0
0.190173 0.198901 0
0.204593 0.196384 0
0.218158 0.193759 0
0.231022 0.191058 0
0.243259 0.188235 0
0.254963 0.185321 0
0.266178 0.1823 0
0.277241 0.179019 0
0.288548 0.175296 0
0.299443 0.17142 0
0.310002 0.167376 0
0.320226 0.163149 0
0.330129 0.158755 0
0.339742 0.154192 0
0.349081 0.149401 0
0.358175 0.144411 0
0.36701 0.139193 0
0.375616 0.133715 0
0.383993 0.127932 0
0.392172 0.121813 0
0.400153 0.115297 0
0.407935 0.108293 0
0.415534 0.100679 0
0.422965 0.0923018 0
0.430228 0.082826 0
0.437324 0.0717174 0
0.444266 0.0577249 0
0.451057 0.036286 0
0.45771 0 0
0.464225 0 0
0.470603 0 0
0.47686 0 0
0.482979 0 0
0.488975 0 0
0.494881 0 0
0.500648 0 0
0.506325 0 0
0.511894 0 0
0.517342 0 0
0.522698 0 0
0.527962 0 0
0.533135 0 0
0.538216 0 0
0.543206 0 0
0.548104 0 0
0.552926 0 0
0.557656 0 0
0.56231 0 0
0.566888 0 0
0.571389 0 0
0.575814 0 0
0.580179 0 0
0.584451 0 0
0.588678 0 0
0.592813 0 0
0.596902 0 0
0.600916 0 0
0.604868 0 0
0.608759 0 0
0 0.166247 0
0 0.180804 0
0.0654154 0.191302 0
0.102541 0.199695 0
0.132403 0.206653 0
0.159854 0.212406 0
0.185946 0.217075 0
0.208652 0.219501 0
0.222217 0.217212 0
0.23508 0.214878 0
0.247318 0.212467 0
0.259007 0.21001 0
0.270222 0.207477 0
0.281758 0.204562 0
0.29308 0.20148 0
0.304021 0.198291 0
0.314595 0.194995 0
0.324849 0.191623 0
0.334798 0.188144 0
0.344442 0.184558 0
0.353826 0.18088 0
0.362951 0.177111 0
0.371817 0.173236 0
0.380468 0.169268 0
0.388891 0.165194 0
0.397101 0.161013 0
0.405097 0.15671 0
0.412909 0.1523 0
0.420539 0.147753 0
0.428 0.143084 0
0.435279 0.138262 0
0.44239 0.133272 0
0.449348 0.128099 0
0.456168 0.122744 0
0.462821 0.117128 0
0.469352 0.111254 0
0.475746 0.105074 0
0.482002 0.0984817 0
0.488121 0.0914015 0
0.494133 0.0836652 0
0.500038 0.0750439 0
0.505806 0.0650492 0
0.511467 0.0526741 0
0.517021 0.0345006 0
0.522469 0 0
0.52781 0 0
0.533074 0 0
0.538231 0 0
0.543297 0 0
0.548257 0 0
0.55314 0 0
0.557946 0 0
0.562661 0 0
0.5673 0 0
0.571847 0 0
0.576318 0 0
0.580728 0 0
0.585046 0 0
0.589319 0 0
0.5935 0 0
0.59762 0 0
0.601678 0 0
0.605661 0 0
0.609583 0 0
0.613443 0 0
0 0.182971 0
0 0.195972 0
0.0583352 0.205982 0
0.0978866 0.214359 0
0.127932 0.221469 0
0.155001 0.227497 0
0.180468 0.232578 0
0.204913 0.23682 0
0.226108 0.239017 0
0.238941 0.236912 0
0.251148 0.234775 0
0.262821 0.232609 0
0.274281 0.230304 0
0.286 0.22771 0
0.297307 0.225025 0
0.308248 0.222293 0
0.318822 0.219501 0
0.329076 0.216632 0
0.339025 0.213718 0
0.348684 0.210742 0
0.358068 0.207706 0
0.367193 0.204623 0
0.376089 0.201495 0
0.384726 0.198306 0
0.393164 0.195087 0
0.401389 0.191821 0
0.4094 0.18851 0
0.417227 0.185153 0
0.424872 0.181765 0
0.432319 0.178332 0
0.439612 0.174868 0
0.446738 0.171374 0
0.453696 0.167834 0
0.460517 0.164279 0
0.467185 0.160662 0
0.473716 0.157031 0
0.480095 0.153368 0
0.486351 0.149676 0
0.492485 0.145953 0
0.498482 0.142199 0
0.504372 0.138399 0
0.51014 0.134585 0
0.515801 0.130739 0
0.521355 0.126864 0
0.526787 0.122942 0
0.532113 0.11899 0
0.537362 0.115007 0
0.542504 0.110979 0
0.547555 0.106935 0
0.552514 0.102846 0
0.557366 0.0986954 0
0.562158 0.0945144 0
0.566857 0.0902876 0
0.571466 0.0859846 0
0.575998 0.081651 0
0.580453 0.0772564 0
0.584833 0.072755 0
0.589136 0.0681773 0
0.593378 0.0635386 0
0.597528 0.0587167 0
0.601633 0.0538033 0
0.605661 0.0486763 0
0.609628 0.0432441 0
0.613519 0.0374151 0
0.617365 0.0310674 0
0 0.198306 0
0 0.210239 0
0.0501717 0.22002 0
0.0933547 0.228336 0
0.123903 0.235508 0
0.150805 0.241718 0
0.175845 0.247059 0
0.19971 0.251637 0
0.222736 0.255528 0
0.242649 0.257542 0
0.254826 0.255589 0
0.266468 0.253635 0
0.27837 0.251423 0
0.290059 0.249088 0
0.301335 0.246693 0
0.312245 0.244282 0
0.322805 0.24181 0
0.333028 0.239307 0
0.342962 0.236774 0
0.352605 0.234195 0
0.361975 0.231601 0
0.371084 0.228962 0
0.379965 0.226307 0
0.388602 0.223621 0
0.397024 0.22092 0
0.405234 0.218204 0
0.413245 0.215473 0
0.421057 0.212726 0
0.428702 0.209979 0
0.436149 0.207218 0
0.443427 0.204456 0
0.450538 0.201678 0
0.457511 0.198932 0
0.464317 0.19617 0
0.47097 0.193423 0
0.477501 0.190692 0
0.483879 0.187961 0
0.49012 0.18526 0
0.496239 0.182574 0
0.502235 0.179919 0
0.50811 0.177264 0
0.513863 0.17467 0
0.519509 0.172091 0
0.525048 0.169543 0
0.530465 0.167041 0
0.53579 0.164599 0
0.541024 0.162173 0
0.546151 0.159823 0
0.551186 0.157534 0
0.55613 0.155291 0
0.560983 0.153109 0
0.565744 0.151003 0
0.570413 0.148959 0
0.575021 0.147005 0
0.579522 0.145129 0
0.583963 0.143328 0
0.588327 0.141634 0
0.592615 0.140017 0
0.596826 0.138521 0
0.600961 0.137118 0
0.605035 0.135836 0
0.609049 0.134646 0
0.612985 0.133577 0
0.616861 0.132647 0
0.620676 0.131823 0
0 0.212573 0
0 0.223972 0
0.0397955 0.233524 0
0.088838 0.241749 0
0.120165 0.24892 0
0.147082 0.255207 0
0.171832 0.260731 0
0.19527 0.265538 0
0.217777 0.269718 0
0.239567 0.273335 0
0.258396 0.275196 0
0.270191 0.27332 0
0.282307 0.271214 0
0.29395 0.269062 0
0.305196 0.266896 0
0.316075 0.264698 0
0.326589 0.262486 0
0.336782 0.260243 0
0.34667 0.257969 0
0.356283 0.25568 0
0.365621 0.253376 0
0.374716 0.251072 0
0.383551 0.248737 0
0.392172 0.246403 0
0.40058 0.244068 0
0.408759 0.241718 0
0.416754 0.239368 0
0.424536 0.237018 0
0.432151 0.234684 0
0.439597 0.232349 0
0.44686 0.23003 0
0.453971 0.227726 0
0.460899 0.225422 0
0.467689 0.223148 0
0.474342 0.22089 0
0.480842 0.218662 0
0.487221 0.216464 0
0.493446 0.214298 0
0.49955 0.212146 0
0.505531 0.21004 0
0.511376 0.207965 0
0.517128 0.205936 0
0.522759 0.203952 0
0.528267 0.202014 0
0.533684 0.200122 0
0.538994 0.198276 0
0.544198 0.19649 0
0.54931 0.194751 0
0.55433 0.193072 0
0.559243 0.191455 0
0.56408 0.189914 0
0.568826 0.188418 0
0.57348 0.186999 0
0.578058 0.185657 0
0.582559 0.184375 0
0.586969 0.183185 0
0.591318 0.182055 0
0.59559 0.181018 0
0.599771 0.180041 0
0.603891 0.179156 0
0.60795 0.178347 0
0.611933 0.17763 0
0.615854 0.177005 0
0.619715 0.17644 0
0.623499 0.175967 0
0 0.226261 0
0 0.237217 0
0.0228885 0.246525 0
0.0842603 0.254643 0
0.11664 0.261799 0
0.143709 0.268116 0
0.168307 0.273732 0
0.191424 0.278691 0
0.213519 0.28307 0
0.234852 0.286931 0
0.255543 0.290318 0
0.274083 0.29189 0
0.286137 0.289906 0
0.297749 0.287907 0
0.308934 0.285893 0
0.319753 0.283864 0
0.33022 0.281819 0
0.340368 0.279774 0
0.350225 0.277699 0
0.359777 0.275639 0
0.369085 0.273564 0
0.378134 0.271473 0
0.386938 0.269398 0
0.395514 0.267308 0
0.403891 0.265232 0
0.412039 0.263142 0
0.420005 0.261082 0
0.427771 0.259022 0
0.43534 0.256962 0
0.442756 0.254932 0
0.450004 0.252918 0
0.457069 0.250919 0
0.463996 0.248936 0
0.470771 0.246983 0
0.477378 0.24506 0
0.483864 0.243168 0
0.490196 0.241291 0
0.496422 0.23946 0
0.502495 0.237659 0
0.508461 0.235904 0
0.51429 0.23418 0
0.520027 0.232502 0
0.525628 0.230869 0
0.531136 0.229282 0
0.536522 0.227726 0
0.541802 0.22623 0
0.54699 0.224796 0
0.552087 0.223407 0
0.557076 0.222065 0
0.561975 0.220783 0
0.566796 0.219562 0
0.571527 0.218402 0
0.57615 0.217288 0
0.580713 0.216251 0
0.585199 0.215274 0
0.589593 0.214359 0
0.593912 0.213504 0
0.598154 0.212726 0
0.602335 0.212009 0
0.606439 0.211353 0
0.610468 0.210773 0
0.614435 0.210254 0
0.618341 0.209812 0
0.622171 0.209415 0
0.625956 0.209125 0
0 0.23946 0
0 0.250004 0
0 0.259098 0
0.0795453 0.267079 0
0.113283 0.274189 0
0.140627 0.280507 0
0.165164 0.286168 0
0.188052 0.291234 0
0.209812 0.29575 0
0.230747 0.299779 0
0.251286 0.30341 0
0.272847 0.306783 0
0.289891 0.307637 0
0.301442 0.305745 0
0.312566 0.303853 0
0.323323 0.301961 0
0.333745 0.300053 0
0.343847 0.298161 0
0.353628 0.296254 0
0.363149 0.294331 0
0.372396 0.292439 0
0.381384 0.290532 0
0.390158 0.288624 0
0.398688 0.286732 0
0.407019 0.284855 0
0.415122 0.282979 0
0.423041 0.281102 0
0.430777 0.279271 0
0.438315 0.277424 0
0.445701 0.275624 0
0.452903 0.273823 0
0.459953 0.272038 0
0.46685 0.270298 0
0.473579 0.268574 0
0.480171 0.26688 0
0.48661 0.265217 0
0.492943 0.2636 0
0.499123 0.261997 0
0.50518 0.260441 0
0.511101 0.258915 0
0.516915 0.25742 0
0.522622 0.255985 0
0.528206 0.254582 0
0.533684 0.253223 0
0.539055 0.251911 0
0.54432 0.250645 0
0.549477 0.249424 0
0.554559 0.248264 0
0.559518 0.247135 0
0.564401 0.246067 0
0.569192 0.24506 0
0.573892 0.244099 0
0.578515 0.243183 0
0.583047 0.242329 0
0.587503 0.241535 0
0.591882 0.240787 0
0.596185 0.240101 0
0.600412 0.239475 0
0.604562 0.238911 0
0.608637 0.238376 0
0.61265 0.237919 0
0.616602 0.237537 0
0.620493 0.237201 0
0.624308 0.236912 0
0.628061 0.236683 0
0 0.252216 0
0 0.262394 0
0 0.27126 0
0.0746624 0.279118 0
0.110033 0.286152 0
0.137789 0.292454 0
0.162325 0.298131 0
0.185046 0.303243 0
0.206546 0.307851 0
0.227176 0.312001 0
0.248188 0.315892 0
0.269352 0.319448 0
0.290013 0.322606 0
0.305058 0.322728 0
0.316121 0.320928 0
0.326818 0.319127 0
0.337163 0.317342 0
0.347204 0.315557 0
0.356939 0.313771 0
0.366384 0.311986 0
0.375586 0.310216 0
0.384527 0.308446 0
0.393225 0.306691 0
0.401724 0.304952 0
0.409995 0.303212 0
0.418067 0.301503 0
0.42594 0.299794 0
0.433631 0.298116 0
0.441138 0.296437 0
0.448463 0.294789 0
0.455634 0.293172 0
0.462638 0.291569 0
0.46949 0.289998 0
0.476188 0.288441 0
0.48275 0.286931 0
0.489174 0.285435 0
0.49546 0.283986 0
0.50161 0.282567 0
0.507637 0.281178 0
0.513542 0.279835 0
0.519326 0.278523 0
0.524987 0.277241 0
0.530556 0.27602 0
0.535988 0.274815 0
0.541344 0.273671 0
0.546578 0.272557 0
0.55172 0.271504 0
0.556756 0.270481 0
0.561715 0.26952 0
0.566567 0.268589 0
0.571344 0.267735 0
0.576013 0.266896 0
0.580606 0.266117 0
0.585122 0.2654 0
0.589563 0.264729 0
