Linear sRGB to wyCol AgX BT.709 2.4.cube
TITLE "wyCol AgX V1"
LUT_3D_SIZE 5
0.0536965 0.0517891 0.0521706
0.231937 0 0.0692454
0.359915 0 0.0870222
0.460761 0 0.0826734
0.542092 0 0.062089
0 0.288136 0
0.347036 0.364492 0
0.4766 0.341817 0
0.567178 0.326207 0
0.634287 0.320073 0
0 0.437766 0.111025
0.334524 0.505226 0.155093
0.5066 0.524926 0.166842
0.585687 0.515007 0.14905
0.644266 0.510658 0.127138
0 0.543786 0.197147
0.347662 0.593256 0.241611
0.508263 0.617639 0.270527
0.60177 0.622003 0.276478
0.650965 0.617243 0.269413
0.157321 0.619791 0.267765
0.374319 0.655528 0.309957
0.509651 0.67454 0.339117
0.609003 0.687175 0.35964
0.659693 0.686671 0.36083
0.0952468 0.0919356 0.329503
0.484123 0 0.266529
0.641169 0 0.249989
0.715053 0 0.240146
0.764691 0 0.227405
0.247547 0.461738 0.509438
0.476188 0.482826 0.484047
0.583307 0.445548 0.462791
0.654932 0.426825 0.447379
0.707301 0.42118 0.434546
0.256077 0.573968 0.463554
0.431724 0.586999 0.451759
0.59765 0.603204 0.471809
0.665034 0.590051 0.464759
0.71165 0.58201 0.456199
0.285054 0.639368 0.455406
0.435325 0.653422 0.460624
0.580987 0.670893 0.485527
0.667552 0.674281 0.493309
0.708858 0.668315 0.489265
0.318975 0.685786 0.464576
0.453056 0.700847 0.480842
0.574319 0.714534 0.504692
0.661692 0.723598 0.520592
0.709178 0.72343 0.5234
0.146548 0.192828 0.48986
0.478462 0.113985 0.434852
0.690303 0 0.38439
0.779034 0.123888 0.356344
0.821057 0.220783 0.342367
0.292897 0.498466 0.613718
0.483604 0.510262 0.588418
0.649989 0.472679 0.555505
0.720882 0.458946 0.539712
0.76434 0.459144 0.530327
0.414221 0.624537 0.6607
0.550179 0.631067 0.645502
0.64065 0.634394 0.635569
0.693385 0.614343 0.624308
0.732204 0.603555 0.615503
0.43714 0.684001 0.63299
0.534951 0.687221 0.620157
0.620188 0.691417 0.617853
0.700664 0.695567 0.625925
0.736019 0.688014 0.621912
0.455787 0.723934 0.618158
0.530968 0.725414 0.608911
0.612696 0.730617 0.614527
0.690669 0.738262 0.627375
0.736141 0.738857 0.630869
0.193332 0.28986 0.591257
0.477485 0.253346 0.549523
0.67628 0.199207 0.504906
0.792447 0.255818 0.461814
0.846967 0.327871 0.434333
0.334371 0.534005 0.677043
0.497841 0.539498 0.654261
0.644388 0.511116 0.631785
0.750546 0.492226 0.60145
0.797238 0.494972 0.587701
0.445747 0.643381 0.711864
0.562387 0.646616 0.697902
0.643107 0.648661 0.687266
0.732082 0.625238 0.668254
0.765911 0.617044 0.661891
0.524086 0.707851 0.734569
0.610712 0.709529 0.725017
0.67512 0.711574 0.718303
0.721538 0.710842 0.712795
0.750362 0.700099 0.706737
0.542336 0.744045 0.717632
0.609003 0.745037 0.70927
0.660288 0.745266 0.702373
0.710491 0.748211 0.702892
0.754528 0.749752 0.706737
0.239124 0.370733 0.659037
0.479744 0.344808 0.626734
0.665888 0.297765 0.591012
0.779049 0.315389 0.554772
0.849592 0.376669 0.518547
0.373785 0.566522 0.720333
0.514 0.567727 0.700572
0.641443 0.545281 0.68368
0.743023 0.524025 0.660121
0.809827 0.524727 0.636378
0.473716 0.661219 0.747356
0.575082 0.661921 0.734661
0.647623 0.662181 0.724651
0.729259 0.643641 0.711437
0.786374 0.631769 0.695323
0.544762 0.718944 0.76524
0.621424 0.719295 0.75642
0.679683 0.720027 0.749798
0.725673 0.719509 0.743755
0.773877 0.706004 0.732967
0.597498 0.75816 0.779065
0.657511 0.758175 0.772503
0.704921 0.75874 0.767605
0.74023 0.760174 0.764035
0.767437 0.759289 0.760784
