Linear sRGB to wyCol AgX BT.709 2.4.cube
TITLE "wyCol AgX V1"
LUT_3D_SIZE 9
0.0536965 0.0517891 0.0521706
0.156207 0 0.0532692
0.231937 0 0.0692454
0.299779 0 0.0820325
0.359915 0 0.0870222
0.413138 0 0.0865034
0.460761 0 0.0826734
0.503594 0 0.0750744
0.542092 0 0.062089
0 0.182971 0
0.226108 0.239017 0
0.318822 0.219501 0
0.393164 0.195087 0
0.453696 0.167834 0
0.504372 0.138399 0
0.547555 0.106935 0
0.584833 0.072755 0
0.617365 0.0310674 0
0 0.288136 0
0.198795 0.341375 0
0.347036 0.364492 0
0.418311 0.352483 0
0.4766 0.341817 0
0.525521 0.332921 0
0.567178 0.326207 0
0.603052 0.321904 0
0.634287 0.320073 0
0 0.370382 0.0316014
0.195132 0.417639 0.0761273
0.33817 0.445853 0.092195
0.438071 0.455528 0.0921798
0.492409 0.447486 0.0740673
0.538262 0.441093 0.0420233
0.577523 0.436393 0
0.611536 0.433356 0
0.640833 0.432029 0
0 0.437766 0.111025
0.202396 0.479393 0.137606
0.334524 0.505226 0.155093
0.438621 0.522286 0.166995
0.5066 0.524926 0.166842
0.549035 0.519265 0.158434
0.585687 0.515007 0.14905
0.617655 0.512062 0.138293
0.644266 0.510658 0.127138
0 0.495201 0.157473
0.217624 0.530556 0.182559
0.338582 0.553353 0.201434
0.433799 0.568963 0.216281
0.513542 0.580652 0.22771
0.559609 0.579034 0.225742
0.593576 0.574868 0.220157
0.623087 0.571878 0.21442
0.64741 0.57026 0.209323
0 0.543786 0.197147
0.238025 0.57348 0.221958
0.347662 0.593256 0.241611
0.434852 0.607141 0.257572
0.508263 0.617639 0.270527
0.570397 0.626093 0.280583
0.60177 0.622003 0.276478
0.628183 0.61915 0.272816
0.650965 0.617243 0.269413
0.0939803 0.584863 0.233722
0.261234 0.609827 0.257969
0.360006 0.626856 0.277516
0.439765 0.639094 0.293675
0.507424 0.648417 0.307073
0.565682 0.656123 0.318166
0.610101 0.660105 0.32398
0.633783 0.657359 0.321355
0.655055 0.655268 0.318791
0.157321 0.619791 0.267765
0.285527 0.640818 0.29099
0.374319 0.655528 0.309957
0.447257 0.666255 0.32578
0.509651 0.67454 0.339117
0.563821 0.681346 0.350393
0.609003 0.687175 0.35964
0.639857 0.688869 0.362921
0.659693 0.686671 0.36083
0.0581521 0.0583963 0.21207
0.313161 0 0.175753
0.433936 0 0.173404
0.506523 0 0.176211
0.56202 0 0.177417
0.606256 0 0.176837
0.642557 0 0.174578
0.672984 0 0.170809
0.698909 0 0.165698
0.142763 0.310536 0.354086
0.318914 0.332341 0.33489
0.412116 0.301854 0.318318
0.480186 0.275212 0.307042
0.534264 0.255085 0.298466
0.57879 0.240497 0.291081
0.616266 0.231312 0.284169
0.64831 0.227359 0.277363
0.676081 0.228229 0.27042
0.107042 0.407858 0.315084
0.263767 0.421271 0.299535
0.430076 0.446143 0.317525
0.500893 0.430777 0.312444
0.554406 0.416953 0.305364
0.597192 0.406302 0.297932
0.632746 0.399008 0.290547
0.662989 0.394781 0.283207
0.689113 0.39321 0.275853
0.0860609 0.469978 0.303197
0.256291 0.486442 0.299962
0.402914 0.51133 0.31902
0.50721 0.521019 0.327901
0.55906 0.511574 0.323583
0.601297 0.503792 0.318334
0.636439 0.497826 0.312505
0.666224 0.493675 0.306371
0.691112 0.491432 0.300359
0.0906233 0.518639 0.305318
0.26273 0.538079 0.31162
0.392889 0.560174 0.330938
0.495247 0.574273 0.344823
0.563745 0.577096 0.349111
0.603433 0.570626 0.345251
0.637079 0.565515 0.340948
0.665949 0.561715 0.336278
0.689265 0.559533 0.332006
0.118914 0.558984 0.314183
0.276921 0.580484 0.328557
0.392859 0.599649 0.347799
0.485176 0.612467 0.362585
0.561379 0.621927 0.373709
0.607279 0.620844 0.374533
0.638758 0.616159 0.371191
0.665431 0.61268 0.367773
0.687465 0.610452 0.36463
0.149325 0.593103 0.327031
0.295354 0.615991 0.347936
0.398688 0.632502 0.366751
0.482216 0.643931 0.38172
0.552163 0.652491 0.393576
0.611261 0.659602 0.402838
0.641993 0.656001 0.400839
0.665995 0.652842 0.398352
0.686854 0.650523 0.395911
0.187945 0.624826 0.345327
0.315785 0.646143 0.368185
0.408026 0.66041 0.386313
0.483818 0.670497 0.401022
0.548074 0.678157 0.413077
0.603067 0.684474 0.422873
0.646006 0.688441 0.428992
0.667903 0.685435 0.427039
0.68751 0.683055 0.425055
0.228901 0.654108 0.366979
0.336858 0.672068 0.388403
0.41944 0.684413 0.405676
0.488396 0.693324 0.419944
0.547524 0.70013 0.431876
0.598657 0.705745 0.44184
0.640452 0.710521 0.449775
0.670924 0.712474 0.453574
0.689281 0.710079 0.451911
0.0952468 0.0919356 0.329503
0.314519 0 0.293431
0.484123 0 0.266529
0.588251 0 0.253697
0.641169 0 0.249989
0.682185 0 0.245472
0.715053 0 0.240146
0.742077 0 0.234089
0.764691 0 0.227405
0.168124 0.33521 0.452262
0.323323 0.354055 0.431922
0.471778 0.322179 0.404746
0.554055 0.292576 0.388876
0.604166 0.277134 0.381964
0.644327 0.269078 0.376287
0.677394 0.26717 0.371283
0.705135 0.270176 0.36672
0.728801 0.276905 0.362432
0.247547 0.461738 0.509438
0.37882 0.47483 0.49456
0.476188 0.482826 0.484047
0.536309 0.462089 0.472343
0.583307 0.445548 0.462791
0.622156 0.43418 0.454643
0.654932 0.426825 0.447379
0.683024 0.422675 0.440742
0.707301 0.42118 0.434546
0.249546 0.528054 0.481071
0.357473 0.53637 0.466545
0.442298 0.541711 0.458213
0.546807 0.552758 0.470192
0.594247 0.541817 0.466072
0.631617 0.531762 0.459968
0.662638 0.523934 0.453635
0.689158 0.518425 0.447532
0.711238 0.515297 0.442115
0.256077 0.573968 0.463554
0.347219 0.579522 0.451896
0.431724 0.586999 0.451759
0.529641 0.599619 0.465995
0.59765 0.603204 0.471809
0.634394 0.596139 0.468772
0.665034 0.590051 0.464759
0.69102 0.585138 0.460258
0.71165 0.58201 0.456199
0.269383 0.609888 0.456214
0.345937 0.61387 0.447333
0.430762 0.623316 0.453849
0.518654 0.634592 0.468086
0.591012 0.642924 0.478584
0.636591 0.642573 0.480735
0.665812 0.637537 0.478111
0.690044 0.633646 0.475227
0.710185 0.630793 0.472328
0.285054 0.639368 0.455406
0.350149 0.64239 0.448676
0.435325 0.653422 0.460624
0.51458 0.663401 0.474586
0.580987 0.670893 0.485527
0.63682 0.677104 0.493858
0.667552 0.674281 0.493309
0.68954 0.67097 0.491371
0.708858 0.668315 0.489265
0.301839 0.664286 0.458686
0.357763 0.666667 0.45359
0.443214 0.67892 0.470024
0.514961 0.687724 0.483558
0.575921 0.694408 0.494545
0.627985 0.699916 0.503349
0.669718 0.704158 0.50956
0.690211 0.70103 0.508064
0.708492 0.698482 0.506432
0.318975 0.685786 0.464576
0.375799 0.690028 0.464958
0.453056 0.700847 0.480842
0.518273 0.708598 0.493889
0.574319 0.714534 0.504692
0.622766 0.719448 0.513649
0.661692 0.723598 0.520592
0.691997 0.725933 0.524727
0.709178 0.72343 0.5234
0.122072 0.140764 0.419333
0.316625 0.127459 0.388479
0.480446 0 0.358053
0.606683 0 0.332662
0.685512 0 0.314382
0.723751 0 0.307881
0.754101 0 0.301259
0.77882 0 0.294469
0.799359 0.0928511 0.287556
0.193973 0.361547 0.520729
0.333532 0.376989 0.501045
0.469337 0.356115 0.480262
0.584268 0.321355 0.452903
0.649729 0.30573 0.437537
0.687465 0.302113 0.430915
0.718242 0.304326 0.425025
0.743877 0.310796 0.419654
0.76556 0.32018 0.414649
0.270619 0.48011 0.569238
0.389838 0.490593 0.554757
0.478447 0.496101 0.543282
0.575021 0.473854 0.524849
0.626703 0.457252 0.514244
0.662394 0.447837 0.508003
0.69221 0.442374 0.502571
0.71754 0.439979 0.497734
0.738933 0.440085 0.493507
0.337652 0.558495 0.601053
0.438087 0.565667 0.589517
0.514382 0.570474 0.581262
0.575296 0.574594 0.574731
0.614618 0.558724 0.566552
0.647929 0.546975 0.559457
0.676509 0.538445 0.553109
0.70132 0.532509 0.547295
0.721813 0.529122 0.542306
0.350805 0.604562 0.581018
0.432471 0.609705 0.570245
0.495384 0.612345 0.56141
0.554742 0.615732 0.557824
0.622156 0.620569 0.564645
0.655406 0.612284 0.561196
0.682582 0.604501 0.556237
0.705562 0.598383 0.551232
0.72433 0.594354 0.546914
0.36083 0.638758 0.564889
0.428962 0.642298 0.555947
0.48307 0.6439 0.54847
0.544015 0.648585 0.550301
0.612741 0.656352 0.560204
0.657923 0.656809 0.563134
0.684932 0.651286 0.560708
0.706722 0.646708 0.557702
0.725048 0.643046 0.554528
0.371984 0.666239 0.555474
0.429877 0.668727 0.54818
0.477226 0.669856 0.542123
0.539712 0.675761 0.548562
0.602747 0.682628 0.558694
0.65568 0.688289 0.566247
0.686122 0.686259 0.566659
0.706523 0.682704 0.564965
0.724422 0.679652 0.562905
0.383932 0.689158 0.550881
0.433845 0.690974 0.544976
0.475685 0.691798 0.540108
0.539559 0.698726 0.550469
0.597406 0.704799 0.560525
0.64683 0.70985 0.568521
0.687007 0.714183 0.574441
0.706783 0.711254 0.573495
0.723918 0.708522 0.572091
0.396246 0.708705 0.549645
0.439841 0.710063 0.544915
0.480415 0.711498 0.542748
0.542138 0.718486 0.554711
0.595346 0.723842 0.564569
0.641245 0.728298 0.572641
0.677775 0.732036 0.578775
0.707973 0.734813 0.583078
0.724163 0.732235 0.58201
0.146548 0.192828 0.48986
0.319188 0.192111 0.463554
0.478462 0.113985 0.434852
0.599954 0 0.408743
0.690303 0 0.38439
0.750668 0 0.363638
0.779034 0.123888 0.356344
0.802045 0.17879 0.349248
0.821057 0.220783 0.342367
0.219013 0.389075 0.572564
0.346944 0.401038 0.553964
0.468376 0.386618 0.536889
0.580133 0.35552 0.514107
0.664576 0.337072 0.490822
0.716793 0.334585 0.4757
0.745663 0.338872 0.469352
0.769604 0.346792 0.463569
0.789792 0.357076 0.458213
0.292897 0.498466 0.613718
0.401892 0.506355 0.599741
0.483604 0.510262 0.588418
0.572839 0.494072 0.574914
0.649989 0.472679 0.555505
0.692775 0.462974 0.545281
0.720882 0.458946 0.539712
0.74464 0.457847 0.534676
0.76434 0.459144 0.530327
0.357595 0.571572 0.640711
0.449317 0.577111 0.629709
0.519829 0.580682 0.6215
0.57612 0.58323 0.614145
0.643839 0.565484 0.600366
0.677073 0.554513 0.593973
0.703502 0.547143 0.589075
0.726284 0.542229 0.58468
0.744671 0.539742 0.58117
0.414221 0.624537 0.6607
0.489815 0.628321 0.652018
0.550179 0.631067 0.645502
0.599985 0.633722 0.640238
0.64065 0.634394 0.635569
0.668757 0.623102 0.629648
0.693385 0.614343 0.624308
0.714504 0.607904 0.619562
0.732204 0.603555 0.615503
0.428153 0.657969 0.646479
0.490837 0.660914 0.638346
0.541863 0.662699 0.631678
0.584207 0.663783 0.625574
0.629786 0.666758 0.624811
0.674662 0.668147 0.628336
0.699031 0.66157 0.625315
0.718242 0.65594 0.621683
0.734859 0.651408 0.618082
0.43714 0.684001 0.63299
0.490578 0.686168 0.626062
0.534951 0.687221 0.620157
0.572488 0.687678 0.614786
0.620188 0.691417 0.617853
0.670588 0.696834 0.624887
0.700664 0.695567 0.625925
0.719585 0.691646 0.624216
0.736019 0.688014 0.621912
0.446357 0.705592 0.62388
0.492515 0.707118 0.617975
0.531609 0.707759 0.612909
0.565316 0.707973 0.608392
0.614923 0.712444 0.614847
0.661982 0.71722 0.622187
0.699657 0.721233 0.627436
0.719936 0.719036 0.627268
0.736004 0.716106 0.625956
0.455787 0.723934 0.618158
0.496162 0.725017 0.613184
0.530968 0.725414 0.608911
0.562127 0.725628 0.605493
0.612696 0.730617 0.614527
0.655848 0.734752 0.621836
0.690669 0.738262 0.627375
0.720821 0.741482 0.631724
0.736141 0.738857 0.630869
0.170123 0.243137 0.545998
0.322347 0.247364 0.523079
0.477562 0.195422 0.497963
0.59469 0.140261 0.472999
0.68275 0.1196 0.449699
0.749355 0.160586 0.426505
0.796506 0.217975 0.405203
0.818143 0.25214 0.398001
0.836027 0.28336 0.39118
0.243107 0.416434 0.613504
0.361089 0.425223 0.596201
0.469169 0.41529 0.58143
0.577081 0.386709 0.562707
0.659388 0.36788 0.542077
0.723522 0.363226 0.521675
0.765591 0.369757 0.506966
0.788128 0.378119 0.500999
0.807004 0.388495 0.495537
0.314183 0.516533 0.648661
0.414481 0.52221 0.63534
0.490318 0.52488 0.624537
0.571328 0.512474 0.613535
0.64686 0.4925 0.597711
0.706706 0.479774 0.580514
0.742214 0.475776 0.570611
0.76466 0.475563 0.56553
0.782956 0.477577 0.561212
0.376928 0.584421 0.671687
0.460563 0.588418 0.661311
0.525917 0.590845 0.653208
0.578622 0.592447 0.645899
0.642329 0.578927 0.635859
0.696956 0.563684 0.621576
0.725475 0.556558 0.615305
0.747005 0.552468 0.610956
0.764172 0.550698 0.607477
0.430488 0.634058 0.688899
0.499962 0.636881 0.68069
0.556237 0.638895 0.674357
0.602945 0.640757 0.669001
0.642924 0.641642 0.663676
0.691386 0.627375 0.653162
0.714443 0.619516 0.648997
0.733822 0.613931 0.645426
0.750195 0.610162 0.64239
0.475135 0.672068 0.702937
0.533715 0.674022 0.696254
0.58233 0.675517 0.691035
0.623468 0.677089 0.686717
0.658717 0.67895 0.683009
0.687358 0.677592 0.679393
0.708461 0.669169 0.674922
0.725841 0.663096 0.671214
0.741466 0.658289 0.667765
0.487984 0.697398 0.692622
0.537652 0.699001 0.686275
0.579492 0.700069 0.680995
0.615167 0.700877 0.676295
0.645716 0.701442 0.671717
0.682795 0.704356 0.672694
0.712535 0.703838 0.674189
0.729641 0.699107 0.671946
0.744472 0.694636 0.669093
0.49575 0.717769 0.681468
0.538903 0.719005 0.675959
0.575784 0.719646 0.671229
0.607614 0.719951 0.666911
0.635309 0.720058 0.662791
0.674556 0.723461 0.666667
0.710048 0.727306 0.671473
0.730785 0.725795 0.671855
0.745739 0.72256 0.670466
0.503426 0.735088 0.673274
0.541283 0.735973 0.668467
0.574075 0.736309 0.664271
0.602792 0.73637 0.660471
0.628122 0.736294 0.656901
0.66807 0.740078 0.663188
0.701411 0.743465 0.668299
0.730327 0.746532 0.672236
0.746075 0.744488 0.671962
0.193332 0.28986 0.591257
0.327169 0.29662 0.570703
0.477485 0.253346 0.549523
0.590494 0.214832 0.526787
0.67628 0.199207 0.504906
0.741878 0.216297 0.483482
0.792447 0.255818 0.461814
0.830014 0.301457 0.441062
0.846967 0.327871 0.434333
0.2663 0.442695 0.64683
0.375494 0.448783 0.630793
0.471458 0.442206 0.617609
0.575036 0.415549 0.602152
0.655146 0.396536 0.584146
0.718029 0.389227 0.565759
0.76791 0.393866 0.547494
0.802197 0.405661 0.533364
0.819806 0.415686 0.528008
0.334371 0.534005 0.677043
0.427192 0.537865 0.664439
0.497841 0.539498 0.654261
0.570947 0.529885 0.644755
0.644388 0.511116 0.631785
0.702953 0.497932 0.616785
0.750546 0.492226 0.60145
0.780163 0.492561 0.591928
0.797238 0.494972 0.587701
0.395102 0.596918 0.696864
0.471748 0.599619 0.687083
0.532555 0.601099 0.679255
0.582162 0.602029 0.672206
0.641016 0.59118 0.664134
0.694743 0.576883 0.652354
0.73904 0.566979 0.639429
0.763104 0.563104 0.633402
0.7794 0.561791 0.629953
0.445747 0.643381 0.711864
0.50985 0.645319 0.704082
0.562387 0.646616 0.697902
0.606271 0.647745 0.692515
0.643107 0.648661 0.687266
0.691737 0.636667 0.679149
0.732082 0.625238 0.668254
0.750317 0.62034 0.664866
0.765911 0.617044 0.661891
0.488167 0.679255 0.724102
0.54258 0.680629 0.717769
0.58819 0.681651 0.712718
0.627039 0.68275 0.708431
0.660395 0.684016 0.704585
0.692302 0.682826 0.700221
0.725322 0.672389 0.692638
0.741634 0.666926 0.689799
0.756252 0.662593 0.687175
0.524086 0.707851 0.734569
0.57084 0.708766 0.729274
0.610712 0.709529 0.725017
0.645121 0.710414 0.721431
0.67512 0.711574 0.718303
0.701442 0.713039 0.715496
0.721538 0.710842 0.712795
0.736614 0.704967 0.709667
0.750362 0.700099 0.706737
0.535683 0.727733 0.726925
0.576013 0.728527 0.721813
0.610788 0.729076 0.71751
0.641077 0.72958 0.713695
0.667536 0.730068 0.710109
0.690517 0.730434 0.706523
0.718791 0.733059 0.708247
0.73991 0.732174 0.70901
0.753506 0.728298 0.707164
0.542336 0.744045 0.717632
0.577935 0.744701 0.713146
0.609003 0.745037 0.70927
0.636255 0.745205 0.705745
0.660288 0.745266 0.702373
0.680659 0.745327 0.699229
0.710491 0.748211 0.702892
0.738308 0.751232 0.706569
0.754528 0.749752 0.706737
0.216358 0.332418 0.628275
0.334676 0.340398 0.609262
0.478187 0.302129 0.59176
0.587167 0.269184 0.571664
0.670695 0.253162 0.551553
0.735225 0.260151 0.531777
0.785443 0.28632 0.512032
0.824842 0.32314 0.492058
0.855329 0.362997 0.472435
0.288518 0.467399 0.67454
0.389883 0.471275 0.659678
0.474968 0.467353 0.647639
0.573953 0.442283 0.634745
0.651698 0.423316 0.619135
0.713252 0.414023 0.602686
0.762463 0.415152 0.586114
0.802106 0.42533 0.569558
0.829786 0.439612 0.556481
0.354513 0.550713 0.700496
0.439826 0.553079 0.688792
0.505821 0.553841 0.67924
0.571618 0.546502 0.670741
0.642573 0.528679 0.659953
0.699794 0.515343 0.646937
0.746517 0.508324 0.633204
0.785046 0.50779 0.619364
0.808606 0.511223 0.610819
0.412177 0.608972 0.71783
0.48275 0.610605 0.708659
0.539559 0.611337 0.701183
0.586374 0.611704 0.694453
0.640314 0.602853 0.687541
0.692882 0.58938 0.677775
0.736324 0.579278 0.666438
0.77174 0.573938 0.655177
0.791714 0.572717 0.649516
0.460136 0.652461 0.731044
0.519509 0.65362 0.723674
0.568689 0.654307 0.717708
0.610071 0.654871 0.712413
0.645121 0.65536 0.707317
0.690715 0.645472 0.700862
0.730663 0.634638 0.69163
0.762295 0.627375 0.68246
0.778759 0.624201 0.678828
0.50045 0.686305 0.741848
0.551125 0.687114 0.735821
0.593988 0.687694 0.730907
0.630701 0.688334 0.726665
0.662348 0.689067 0.722744
0.691463 0.688579 0.718654
0.727642 0.67895 0.711986
0.755276 0.671077 0.704646
0.769299 0.667124 0.702098
0.534707 0.713451 0.751095
0.578485 0.714 0.746044
0.616114 0.714443 0.741924
0.648783 0.715038 0.738399
0.677363 0.715831 0.735256
0.702419 0.716808 0.732296
0.726802 0.714824 0.728817
0.749844 0.707408 0.723476
0.762829 0.702937 0.721202
0.564157 0.735775 0.759228
0.602365 0.736095 0.75494
0.63563 0.7364 0.7514
0.664805 0.736858 0.748363
0.690578 0.737545 0.745693
0.713054 0.738491 0.743343
0.731823 0.739681 0.741421
0.746944 0.737652 0.739361
0.75903 0.732921 0.736843
0.574563 0.751812 0.753445
0.60798 0.752117 0.749264
0.637339 0.752331 0.745663
0.663279 0.752575 0.742473
0.68629 0.752895 0.739528
0.705562 0.753292 0.736858
0.722148 0.753613 0.734218
0.745174 0.75584 0.735821
0.761791 0.754879 0.736263
0.239124 0.370733 0.659037
0.349065 0.376135 0.641566
0.479744 0.344808 0.626734
0.584619 0.314733 0.609216
0.665888 0.297765 0.591012
0.729274 0.298466 0.572854
0.779049 0.315389 0.554772
0.818433 0.343297 0.536629
0.849592 0.376669 0.518547
0.309743 0.490425 0.697948
0.404105 0.492531 0.684169
0.479408 0.490761 0.672969
0.573724 0.467079 0.66215
0.648981 0.448341 0.64863
0.709133 0.437644 0.633951
0.75758 0.435981 0.618936
0.796887 0.442573 0.603861
0.827436 0.455116 0.589715
0.373785 0.566522 0.720333
0.452232 0.567681 0.709484
0.514 0.567727 0.700572
0.573159 0.562295 0.692775
0.641443 0.545281 0.68368
0.6972 0.531975 0.672389
0.743023 0.524025 0.660121
0.780819 0.521843 0.647639
0.809827 0.524727 0.636378
0.42826 0.620523 0.735622
0.493523 0.621286 0.727031
0.546731 0.621393 0.719936
0.591028 0.621317 0.713558
0.640269 0.614099 0.707408
0.691432 0.601267 0.699199
0.734005 0.591165 0.689296
0.768307 0.58529 0.679347
0.796307 0.583215 0.669825
0.473716 0.661219 0.747356
0.528908 0.661738 0.740414
0.575082 0.661921 0.734661
0.614221 0.662028 0.729534
0.647623 0.662181 0.724651
0.689982 0.653849 0.719188
0.729259 0.643641 0.711437
0.759869 0.636454 0.703471
0.786374 0.631769 0.695323
0.512062 0.693156 0.756985
0.559396 0.693492 0.751247
0.599771 0.693675 0.746502
0.634546 0.693919 0.742336
0.664652 0.69427 0.73843
0.691142 0.694362 0.734524
0.72639 0.685786 0.729351
0.754711 0.678096 0.722728
0.779477 0.672099 0.715663
0.544762 0.718944 0.76524
0.585855 0.719142 0.760418
0.621424 0.719295 0.75642
0.652445 0.71957 0.752941
0.679683 0.720027 0.749798
0.703593 0.720607 0.746746
0.725673 0.719509 0.743755
0.752178 0.712367 0.738674
0.773877 0.706004 0.732967
0.572961 0.740246 0.772519
0.608988 0.740337 0.768414
0.640528 0.740429 0.764981
0.66833 0.740673 0.762005
0.693004 0.741131 0.75935
0.714275 0.741817 0.757031
0.732219 0.742641 0.75494
0.751568 0.740764 0.752132
0.769726 0.734813 0.747921
0.597498 0.75816 0.779065
0.629358 0.75816 0.775509
0.657511 0.758175 0.772503
0.682551 0.758358 0.769924
0.704921 0.75874 0.767605
0.723613 0.75935 0.765713
0.74023 0.760174 0.764035
0.755276 0.761166 0.762478
0.767437 0.759289 0.760784
